public/luts/cinematic.cube
TITLE "Cinematic Film"
LUT_3D_SIZE 5
0.010000 0.000000 0.020000
0.138187 0.000000 0.020000
0.515000 0.000000 0.020000
0.907750 0.000000 0.020000
1.000000 0.000000 0.020000
0.010000 0.125562 0.020000
0.138187 0.125562 0.020000
0.515000 0.125562 0.020000
0.907750 0.125562 0.020000
1.000000 0.125562 0.020000
0.010000 0.490000 0.020000
0.138187 0.490000 0.020000
0.515000 0.490000 0.020000
0.907750 0.490000 0.020000
1.000000 0.490000 0.020000
0.010000 0.869750 0.020000
0.138187 0.869750 0.020000
0.515000 0.869750 0.020000
0.907750 0.869750 0.020000
1.000000 0.869750 0.020000
0.010000 1.000000 0.020000
0.138187 1.000000 0.020000
0.515000 1.000000 0.020000
0.907750 1.000000 0.020000
1.000000 1.000000 0.020000
0.010000 0.000000 0.138000
0.138187 0.000000 0.138000
0.515000 0.000000 0.138000
0.907750 0.000000 0.138000
1.000000 0.000000 0.138000
0.010000 0.125562 0.138000
0.138187 0.125562 0.138000
0.515000 0.125562 0.138000
0.907750 0.125562 0.138000
1.000000 0.125562 0.138000
0.010000 0.490000 0.138000
0.138187 0.490000 0.138000
0.515000 0.490000 0.138000
0.907750 0.490000 0.138000
1.000000 0.490000 0.138000
0.010000 0.869750 0.138000
0.138187 0.869750 0.138000
0.515000 0.869750 0.138000
0.907750 0.869750 0.138000
1.000000 0.869750 0.138000
0.010000 1.000000 0.138000
0.138187 1.000000 0.138000
0.515000 1.000000 0.138000
0.907750 1.000000 0.138000
1.000000 1.000000 0.138000
0.010000 0.000000 0.490000
0.138187 0.000000 0.490000
0.515000 0.000000 0.490000
0.907750 0.000000 0.490000
1.000000 0.000000 0.490000
0.010000 0.125562 0.490000
0.138187 0.125562 0.490000
0.515000 0.125562 0.490000
0.907750 0.125562 0.490000
1.000000 0.125562 0.490000
0.010000 0.490000 0.490000
0.138187 0.490000 0.490000
0.515000 0.490000 0.490000
0.907750 0.490000 0.490000
1.000000 0.490000 0.490000
0.010000 0.869750 0.490000
0.138187 0.869750 0.490000
0.515000 0.869750 0.490000
0.907750 0.869750 0.490000
1.000000 0.869750 0.490000
0.010000 1.000000 0.490000
0.138187 1.000000 0.490000
0.515000 1.000000 0.490000
0.907750 1.000000 0.490000
1.000000 1.000000 0.490000
0.010000 0.000000 0.857000
0.138187 0.000000 0.857000
0.515000 0.000000 0.857000
0.907750 0.000000 0.857000
1.000000 0.000000 0.857000
0.010000 0.125562 0.857000
0.138187 0.125562 0.857000
0.515000 0.125562 0.857000
0.907750 0.125562 0.857000
1.000000 0.125562 0.857000
0.010000 0.490000 0.857000
0.138187 0.490000 0.857000
0.515000 0.490000 0.857000
0.907750 0.490000 0.857000
1.000000 0.490000 0.857000
0.010000 0.869750 0.857000
0.138187 0.869750 0.857000
0.515000 0.869750 0.857000
0.907750 0.869750 0.857000
1.000000 0.869750 0.857000
0.010000 1.000000 0.857000
0.138187 1.000000 0.857000
0.515000 1.000000 0.857000
0.907750 1.000000 0.857000
1.000000 1.000000 0.857000
0.010000 0.000000 0.984000
0.138187 0.000000 0.984000
0.515000 0.000000 0.984000
0.907750 0.000000 0.984000
1.000000 0.000000 0.984000
0.010000 0.125562 0.984000
0.138187 0.125562 0.984000
0.515000 0.125562 0.984000
0.907750 0.125562 0.984000
1.000000 0.125562 0.984000
0.010000 0.490000 0.984000
0.138187 0.490000 0.984000
0.515000 0.490000 0.984000
0.907750 0.490000 0.984000
1.000000 0.490000 0.984000
0.010000 0.869750 0.984000
0.138187 0.869750 0.984000
0.515000 0.869750 0.984000
0.907750 0.869750 0.984000
1.000000 0.869750 0.984000
0.010000 1.000000 0.984000
0.138187 1.000000 0.984000
0.515000 1.000000 0.984000
0.907750 1.000000 0.984000
1.000000 1.000000 0.984000
