public/luts/cinematic.cube
TITLE "Cinematic Film"
LUT_3D_SIZE 9
0.010000 0.000000 0.020000
0.041820 0.000000 0.020000
0.138187 0.000000 0.020000
0.296711 0.000000 0.020000
0.515000 0.000000 0.020000
0.743250 0.000000 0.020000
0.907750 0.000000 0.020000
1.000000 0.000000 0.020000
1.000000 0.000000 0.020000
0.010000 0.031773 0.020000
0.041820 0.031773 0.020000
0.138187 0.031773 0.020000
0.296711 0.031773 0.020000
0.515000 0.031773 0.020000
0.743250 0.031773 0.020000
0.907750 0.031773 0.020000
1.000000 0.031773 0.020000
1.000000 0.031773 0.020000
0.010000 0.125562 0.020000
0.041820 0.125562 0.020000
0.138187 0.125562 0.020000
0.296711 0.125562 0.020000
0.515000 0.125562 0.020000
0.743250 0.125562 0.020000
0.907750 0.125562 0.020000
1.000000 0.125562 0.020000
1.000000 0.125562 0.020000
0.010000 0.279070 0.020000
0.041820 0.279070 0.020000
0.138187 0.279070 0.020000
0.296711 0.279070 0.020000
0.515000 0.279070 0.020000
0.743250 0.279070 0.020000
0.907750 0.279070 0.020000
1.000000 0.279070 0.020000
1.000000 0.279070 0.020000
0.010000 0.490000 0.020000
0.041820 0.490000 0.020000
0.138187 0.490000 0.020000
0.296711 0.490000 0.020000
0.515000 0.490000 0.020000
0.743250 0.490000 0.020000
0.907750 0.490000 0.020000
1.000000 0.490000 0.020000
1.000000 0.490000 0.020000
0.010000 0.710500 0.020000
0.041820 0.710500 0.020000
0.138187 0.710500 0.020000
0.296711 0.710500 0.020000
0.515000 0.710500 0.020000
0.743250 0.710500 0.020000
0.907750 0.710500 0.020000
1.000000 0.710500 0.020000
1.000000 0.710500 0.020000
0.010000 0.869750 0.020000
0.041820 0.869750 0.020000
0.138187 0.869750 0.020000
0.296711 0.869750 0.020000
0.515000 0.869750 0.020000
0.743250 0.869750 0.020000
0.907750 0.869750 0.020000
1.000000 0.869750 0.020000
1.000000 0.869750 0.020000
0.010000 0.967750 0.020000
0.041820 0.967750 0.020000
0.138187 0.967750 0.020000
0.296711 0.967750 0.020000
0.515000 0.967750 0.020000
0.743250 0.967750 0.020000
0.907750 0.967750 0.020000
1.000000 0.967750 0.020000
1.000000 0.967750 0.020000
0.010000 1.000000 0.020000
0.041820 1.000000 0.020000
0.138187 1.000000 0.020000
0.296711 1.000000 0.020000
0.515000 1.000000 0.020000
0.743250 1.000000 0.020000
0.907750 1.000000 0.020000
1.000000 1.000000 0.020000
1.000000 1.000000 0.020000
0.010000 0.000000 0.048625
0.041820 0.000000 0.048625
0.138187 0.000000 0.048625
0.296711 0.000000 0.048625
0.515000 0.000000 0.048625
0.743250 0.000000 0.048625
0.907750 0.000000 0.048625
1.000000 0.000000 0.048625
1.000000 0.000000 0.048625
0.010000 0.031773 0.048625
0.041820 0.031773 0.048625
0.138187 0.031773 0.048625
0.296711 0.031773 0.048625
0.515000 0.031773 0.048625
0.743250 0.031773 0.048625
0.907750 0.031773 0.048625
1.000000 0.031773 0.048625
1.000000 0.031773 0.048625
0.010000 0.125562 0.048625
0.041820 0.125562 0.048625
0.138187 0.125562 0.048625
0.296711 0.125562 0.048625
0.515000 0.125562 0.048625
0.743250 0.125562 0.048625
0.907750 0.125562 0.048625
1.000000 0.125562 0.048625
1.000000 0.125562 0.048625
0.010000 0.279070 0.048625
0.041820 0.279070 0.048625
0.138187 0.279070 0.048625
0.296711 0.279070 0.048625
0.515000 0.279070 0.048625
0.743250 0.279070 0.048625
0.907750 0.279070 0.048625
1.000000 0.279070 0.048625
1.000000 0.279070 0.048625
0.010000 0.490000 0.048625
0.041820 0.490000 0.048625
0.138187 0.490000 0.048625
0.296711 0.490000 0.048625
0.515000 0.490000 0.048625
0.743250 0.490000 0.048625
0.907750 0.490000 0.048625
1.000000 0.490000 0.048625
1.000000 0.490000 0.048625
0.010000 0.710500 0.048625
0.041820 0.710500 0.048625
0.138187 0.710500 0.048625
0.296711 0.710500 0.048625
0.515000 0.710500 0.048625
0.743250 0.710500 0.048625
0.907750 0.710500 0.048625
1.000000 0.710500 0.048625
1.000000 0.710500 0.048625
0.010000 0.869750 0.048625
0.041820 0.869750 0.048625
0.138187 0.869750 0.048625
0.296711 0.869750 0.048625
0.515000 0.869750 0.048625
0.743250 0.869750 0.048625
0.907750 0.869750 0.048625
1.000000 0.869750 0.048625
1.000000 0.869750 0.048625
0.010000 0.967750 0.048625
0.041820 0.967750 0.048625
0.138187 0.967750 0.048625
0.296711 0.967750 0.048625
0.515000 0.967750 0.048625
0.743250 0.967750 0.048625
0.907750 0.967750 0.048625
1.000000 0.967750 0.048625
1.000000 0.967750 0.048625
0.010000 1.000000 0.048625
0.041820 1.000000 0.048625
0.138187 1.000000 0.048625
0.296711 1.000000 0.048625
0.515000 1.000000 0.048625
0.743250 1.000000 0.048625
0.907750 1.000000 0.048625
1.000000 1.000000 0.048625
1.000000 1.000000 0.048625
0.010000 0.000000 0.138000
0.041820 0.000000 0.138000
0.138187 0.000000 0.138000
0.296711 0.000000 0.138000
0.515000 0.000000 0.138000
0.743250 0.000000 0.138000
0.907750 0.000000 0.138000
1.000000 0.000000 0.138000
1.000000 0.000000 0.138000
0.010000 0.031773 0.138000
0.041820 0.031773 0.138000
0.138187 0.031773 0.138000
0.296711 0.031773 0.138000
0.515000 0.031773 0.138000
0.743250 0.031773 0.138000
0.907750 0.031773 0.138000
1.000000 0.031773 0.138000
1.000000 0.031773 0.138000
0.010000 0.125562 0.138000
0.041820 0.125562 0.138000
0.138187 0.125562 0.138000
0.296711 0.125562 0.138000
0.515000 0.125562 0.138000
0.743250 0.125562 0.138000
0.907750 0.125562 0.138000
1.000000 0.125562 0.138000
1.000000 0.125562 0.138000
0.010000 0.279070 0.138000
0.041820 0.279070 0.138000
0.138187 0.279070 0.138000
0.296711 0.279070 0.138000
0.515000 0.279070 0.138000
0.743250 0.279070 0.138000
0.907750 0.279070 0.138000
1.000000 0.279070 0.138000
1.000000 0.279070 0.138000
0.010000 0.490000 0.138000
0.041820 0.490000 0.138000
0.138187 0.490000 0.138000
0.296711 0.490000 0.138000
0.515000 0.490000 0.138000
0.743250 0.490000 0.138000
0.907750 0.490000 0.138000
1.000000 0.490000 0.138000
1.000000 0.490000 0.138000
0.010000 0.710500 0.138000
0.041820 0.710500 0.138000
0.138187 0.710500 0.138000
0.296711 0.710500 0.138000
0.515000 0.710500 0.138000
0.743250 0.710500 0.138000
0.907750 0.710500 0.138000
1.000000 0.710500 0.138000
1.000000 0.710500 0.138000
0.010000 0.869750 0.138000
0.041820 0.869750 0.138000
0.138187 0.869750 0.138000
0.296711 0.869750 0.138000
0.515000 0.869750 0.138000
0.743250 0.869750 0.138000
0.907750 0.869750 0.138000
1.000000 0.869750 0.138000
1.000000 0.869750 0.138000
0.010000 0.967750 0.138000
0.041820 0.967750 0.138000
0.138187 0.967750 0.138000
0.296711 0.967750 0.138000
0.515000 0.967750 0.138000
0.743250 0.967750 0.138000
0.907750 0.967750 0.138000
1.000000 0.967750 0.138000
1.000000 0.967750 0.138000
0.010000 1.000000 0.138000
0.041820 1.000000 0.138000
0.138187 1.000000 0.138000
0.296711 1.000000 0.138000
0.515000 1.000000 0.138000
0.743250 1.000000 0.138000
0.907750 1.000000 0.138000
1.000000 1.000000 0.138000
1.000000 1.000000 0.138000
0.010000 0.000000 0.285875
0.041820 0.000000 0.285875
0.138187 0.000000 0.285875
0.296711 0.000000 0.285875
0.515000 0.000000 0.285875
0.743250 0.000000 0.285875
0.907750 0.000000 0.285875
1.000000 0.000000 0.285875
1.000000 0.000000 0.285875
0.010000 0.031773 0.285875
0.041820 0.031773 0.285875
0.138187 0.031773 0.285875
0.296711 0.031773 0.285875
0.515000 0.031773 0.285875
0.743250 0.031773 0.285875
0.907750 0.031773 0.285875
1.000000 0.031773 0.285875
1.000000 0.031773 0.285875
0.010000 0.125562 0.285875
0.041820 0.125562 0.285875
0.138187 0.125562 0.285875
0.296711 0.125562 0.285875
0.515000 0.125562 0.285875
0.743250 0.125562 0.285875
0.907750 0.125562 0.285875
1.000000 0.125562 0.285875
1.000000 0.125562 0.285875
0.010000 0.279070 0.285875
0.041820 0.279070 0.285875
0.138187 0.279070 0.285875
0.296711 0.279070 0.285875
0.515000 0.279070 0.285875
0.743250 0.279070 0.285875
0.907750 0.279070 0.285875
1.000000 0.279070 0.285875
1.000000 0.279070 0.285875
0.010000 0.490000 0.285875
0.041820 0.490000 0.285875
0.138187 0.490000 0.285875
0.296711 0.490000 0.285875
0.515000 0.490000 0.285875
0.743250 0.490000 0.285875
0.907750 0.490000 0.285875
1.000000 0.490000 0.285875
1.000000 0.490000 0.285875
0.010000 0.710500 0.285875
0.041820 0.710500 0.285875
0.138187 0.710500 0.285875
0.296711 0.710500 0.285875
0.515000 0.710500 0.285875
0.743250 0.710500 0.285875
0.907750 0.710500 0.285875
1.000000 0.710500 0.285875
1.000000 0.710500 0.285875
0.010000 0.869750 0.285875
0.041820 0.869750 0.285875
0.138187 0.869750 0.285875
0.296711 0.869750 0.285875
0.515000 0.869750 0.285875
0.743250 0.869750 0.285875
0.907750 0.869750 0.285875
1.000000 0.869750 0.285875
1.000000 0.869750 0.285875
0.010000 0.967750 0.285875
0.041820 0.967750 0.285875
0.138187 0.967750 0.285875
0.296711 0.967750 0.285875
0.515000 0.967750 0.285875
0.743250 0.967750 0.285875
0.907750 0.967750 0.285875
1.000000 0.967750 0.285875
1.000000 0.967750 0.285875
0.010000 1.000000 0.285875
0.041820 1.000000 0.285875
0.138187 1.000000 0.285875
0.296711 1.000000 0.285875
0.515000 1.000000 0.285875
0.743250 1.000000 0.285875
0.907750 1.000000 0.285875
1.000000 1.000000 0.285875
1.000000 1.000000 0.285875
0.010000 0.000000 0.490000
0.041820 0.000000 0.490000
0.138187 0.000000 0.490000
0.296711 0.000000 0.490000
0.515000 0.000000 0.490000
0.743250 0.000000 0.490000
0.907750 0.000000 0.490000
1.000000 0.000000 0.490000
1.000000 0.000000 0.490000
0.010000 0.031773 0.490000
0.041820 0.031773 0.490000
0.138187 0.031773 0.490000
0.296711 0.031773 0.490000
0.515000 0.031773 0.490000
0.743250 0.031773 0.490000
0.907750 0.031773 0.490000
1.000000 0.031773 0.490000
1.000000 0.031773 0.490000
0.010000 0.125562 0.490000
0.041820 0.125562 0.490000
0.138187 0.125562 0.490000
0.296711 0.125562 0.490000
0.515000 0.125562 0.490000
0.743250 0.125562 0.490000
0.907750 0.125562 0.490000
1.000000 0.125562 0.490000
1.000000 0.125562 0.490000
0.010000 0.279070 0.490000
0.041820 0.279070 0.490000
0.138187 0.279070 0.490000
0.296711 0.279070 0.490000
0.515000 0.279070 0.490000
0.743250 0.279070 0.490000
0.907750 0.279070 0.490000
1.000000 0.279070 0.490000
1.000000 0.279070 0.490000
0.010000 0.490000 0.490000
0.041820 0.490000 0.490000
0.138187 0.490000 0.490000
0.296711 0.490000 0.490000
0.515000 0.490000 0.490000
0.743250 0.490000 0.490000
0.907750 0.490000 0.490000
1.000000 0.490000 0.490000
1.000000 0.490000 0.490000
0.010000 0.710500 0.490000
0.041820 0.710500 0.490000
0.138187 0.710500 0.490000
0.296711 0.710500 0.490000
0.515000 0.710500 0.490000
0.743250 0.710500 0.490000
0.907750 0.710500 0.490000
1.000000 0.710500 0.490000
1.000000 0.710500 0.490000
0.010000 0.869750 0.490000
0.041820 0.869750 0.490000
0.138187 0.869750 0.490000
0.296711 0.869750 0.490000
0.515000 0.869750 0.490000
0.743250 0.869750 0.490000
0.907750 0.869750 0.490000
1.000000 0.869750 0.490000
1.000000 0.869750 0.490000
0.010000 0.967750 0.490000
0.041820 0.967750 0.490000
0.138187 0.967750 0.490000
0.296711 0.967750 0.490000
0.515000 0.967750 0.490000
0.743250 0.967750 0.490000
0.907750 0.967750 0.490000
1.000000 0.967750 0.490000
1.000000 0.967750 0.490000
0.010000 1.000000 0.490000
0.041820 1.000000 0.490000
0.138187 1.000000 0.490000
0.296711 1.000000 0.490000
0.515000 1.000000 0.490000
0.743250 1.000000 0.490000
0.907750 1.000000 0.490000
1.000000 1.000000 0.490000
1.000000 1.000000 0.490000
0.010000 0.000000 0.703500
0.041820 0.000000 0.703500
0.138187 0.000000 0.703500
0.296711 0.000000 0.703500
0.515000 0.000000 0.703500
0.743250 0.000000 0.703500
0.907750 0.000000 0.703500
1.000000 0.000000 0.703500
1.000000 0.000000 0.703500
0.010000 0.031773 0.703500
0.041820 0.031773 0.703500
0.138187 0.031773 0.703500
0.296711 0.031773 0.703500
0.515000 0.031773 0.703500
0.743250 0.031773 0.703500
0.907750 0.031773 0.703500
1.000000 0.031773 0.703500
1.000000 0.031773 0.703500
0.010000 0.125562 0.703500
0.041820 0.125562 0.703500
0.138187 0.125562 0.703500
0.296711 0.125562 0.703500
0.515000 0.125562 0.703500
0.743250 0.125562 0.703500
0.907750 0.125562 0.703500
1.000000 0.125562 0.703500
1.000000 0.125562 0.703500
0.010000 0.279070 0.703500
0.041820 0.279070 0.703500
0.138187 0.279070 0.703500
0.296711 0.279070 0.703500
0.515000 0.279070 0.703500
0.743250 0.279070 0.703500
0.907750 0.279070 0.703500
1.000000 0.279070 0.703500
1.000000 0.279070 0.703500
0.010000 0.490000 0.703500
0.041820 0.490000 0.703500
0.138187 0.490000 0.703500
0.296711 0.490000 0.703500
0.515000 0.490000 0.703500
0.743250 0.490000 0.703500
0.907750 0.490000 0.703500
1.000000 0.490000 0.703500
1.000000 0.490000 0.703500
0.010000 0.710500 0.703500
0.041820 0.710500 0.703500
0.138187 0.710500 0.703500
0.296711 0.710500 0.703500
0.515000 0.710500 0.703500
0.743250 0.710500 0.703500
0.907750 0.710500 0.703500
1.000000 0.710500 0.703500
1.000000 0.710500 0.703500
0.010000 0.869750 0.703500
0.041820 0.869750 0.703500
0.138187 0.869750 0.703500
0.296711 0.869750 0.703500
0.515000 0.869750 0.703500
0.743250 0.869750 0.703500
0.907750 0.869750 0.703500
1.000000 0.869750 0.703500
1.000000 0.869750 0.703500
0.010000 0.967750 0.703500
0.041820 0.967750 0.703500
0.138187 0.967750 0.703500
0.296711 0.967750 0.703500
0.515000 0.967750 0.703500
0.743250 0.967750 0.703500
0.907750 0.967750 0.703500
1.000000 0.967750 0.703500
1.000000 0.967750 0.703500
0.010000 1.000000 0.703500
0.041820 1.000000 0.703500
0.138187 1.000000 0.703500
0.296711 1.000000 0.703500
0.515000 1.000000 0.703500
0.743250 1.000000 0.703500
0.907750 1.000000 0.703500
1.000000 1.000000 0.703500
1.000000 1.000000 0.703500
0.010000 0.000000 0.857000
0.041820 0.000000 0.857000
0.138187 0.000000 0.857000
0.296711 0.000000 0.857000
0.515000 0.000000 0.857000
0.743250 0.000000 0.857000
0.907750 0.000000 0.857000
1.000000 0.000000 0.857000
1.000000 0.000000 0.857000
0.010000 0.031773 0.857000
0.041820 0.031773 0.857000
0.138187 0.031773 0.857000
0.296711 0.031773 0.857000
0.515000 0.031773 0.857000
0.743250 0.031773 0.857000
0.907750 0.031773 0.857000
1.000000 0.031773 0.857000
1.000000 0.031773 0.857000
0.010000 0.125562 0.857000
0.041820 0.125562 0.857000
0.138187 0.125562 0.857000
0.296711 0.125562 0.857000
0.515000 0.125562 0.857000
0.743250 0.125562 0.857000
0.907750 0.125562 0.857000
1.000000 0.125562 0.857000
1.000000 0.125562 0.857000
0.010000 0.279070 0.857000
0.041820 0.279070 0.857000
0.138187 0.279070 0.857000
0.296711 0.279070 0.857000
0.515000 0.279070 0.857000
0.743250 0.279070 0.857000
0.907750 0.279070 0.857000
1.000000 0.279070 0.857000
1.000000 0.279070 0.857000
0.010000 0.490000 0.857000
0.041820 0.490000 0.857000
0.138187 0.490000 0.857000
0.296711 0.490000 0.857000
0.515000 0.490000 0.857000
0.743250 0.490000 0.857000
0.907750 0.490000 0.857000
1.000000 0.490000 0.857000
1.000000 0.490000 0.857000
0.010000 0.710500 0.857000
0.041820 0.710500 0.857000
0.138187 0.710500 0.857000
0.296711 0.710500 0.857000
0.515000 0.710500 0.857000
0.743250 0.710500 0.857000
0.907750 0.710500 0.857000
1.000000 0.710500 0.857000
1.000000 0.710500 0.857000
0.010000 0.869750 0.857000
0.041820 0.869750 0.857000
0.138187 0.869750 0.857000
0.296711 0.869750 0.857000
0.515000 0.869750 0.857000
0.743250 0.869750 0.857000
0.907750 0.869750 0.857000
1.000000 0.869750 0.857000
1.000000 0.869750 0.857000
0.010000 0.967750 0.857000
0.041820 0.967750 0.857000
0.138187 0.967750 0.857000
0.296711 0.967750 0.857000
0.515000 0.967750 0.857000
0.743250 0.967750 0.857000
0.907750 0.967750 0.857000
1.000000 0.967750 0.857000
1.000000 0.967750 0.857000
0.010000 1.000000 0.857000
0.041820 1.000000 0.857000
0.138187 1.000000 0.857000
0.296711 1.000000 0.857000
0.515000 1.000000 0.857000
0.743250 1.000000 0.857000
0.907750 1.000000 0.857000
1.000000 1.000000 0.857000
1.000000 1.000000 0.857000
0.010000 0.000000 0.950500
0.041820 0.000000 0.950500
0.138187 0.000000 0.950500
0.296711 0.000000 0.950500
0.515000 0.000000 0.950500
0.743250 0.000000 0.950500
0.907750 0.000000 0.950500
1.000000 0.000000 0.950500
1.000000 0.000000 0.950500
0.010000 0.031773 0.950500
0.041820 0.031773 0.950500
0.138187 0.031773 0.950500
0.296711 0.031773 0.950500
0.515000 0.031773 0.950500
0.743250 0.031773 0.950500
0.907750 0.031773 0.950500
1.000000 0.031773 0.950500
1.000000 0.031773 0.950500
0.010000 0.125562 0.950500
0.041820 0.125562 0.950500
0.138187 0.125562 0.950500
0.296711 0.125562 0.950500
0.515000 0.125562 0.950500
0.743250 0.125562 0.950500
0.907750 0.125562 0.950500
1.000000 0.125562 0.950500
1.000000 0.125562 0.950500
0.010000 0.279070 0.950500
0.041820 0.279070 0.950500
0.138187 0.279070 0.950500
0.296711 0.279070 0.950500
0.515000 0.279070 0.950500
0.743250 0.279070 0.950500
0.907750 0.279070 0.950500
1.000000 0.279070 0.950500
1.000000 0.279070 0.950500
0.010000 0.490000 0.950500
0.041820 0.490000 0.950500
0.138187 0.490000 0.950500
0.296711 0.490000 0.950500
0.515000 0.490000 0.950500
0.743250 0.490000 0.950500
0.907750 0.490000 0.950500
1.000000 0.490000 0.950500
1.000000 0.490000 0.950500
0.010000 0.710500 0.950500
0.041820 0.710500 0.950500
0.138187 0.710500 0.950500
0.296711 0.710500 0.950500
0.515000 0.710500 0.950500
0.743250 0.710500 0.950500
0.907750 0.710500 0.950500
1.000000 0.710500 0.950500
1.000000 0.710500 0.950500
0.010000 0.869750 0.950500
0.041820 0.869750 0.950500
0.138187 0.869750 0.950500
0.296711 0.869750 0.950500
0.515000 0.869750 0.950500
0.743250 0.869750 0.950500
0.907750 0.869750 0.950500
1.000000 0.869750 0.950500
1.000000 0.869750 0.950500
0.010000 0.967750 0.950500
0.041820 0.967750 0.950500
0.138187 0.967750 0.950500
0.296711 0.967750 0.950500
0.515000 0.967750 0.950500
0.743250 0.967750 0.950500
0.907750 0.967750 0.950500
1.000000 0.967750 0.950500
1.000000 0.967750 0.950500
0.010000 1.000000 0.950500
0.041820 1.000000 0.950500
0.138187 1.000000 0.950500
0.296711 1.000000 0.950500
0.515000 1.000000 0.950500
0.743250 1.000000 0.950500
0.907750 1.000000 0.950500
1.000000 1.000000 0.950500
1.000000 1.000000 0.950500
0.010000 0.000000 0.984000
0.041820 0.000000 0.984000
0.138187 0.000000 0.984000
0.296711 0.000000 0.984000
0.515000 0.000000 0.984000
0.743250 0.000000 0.984000
0.907750 0.000000 0.984000
1.000000 0.000000 0.984000
1.000000 0.000000 0.984000
0.010000 0.031773 0.984000
0.041820 0.031773 0.984000
0.138187 0.031773 0.984000
0.296711 0.031773 0.984000
0.515000 0.031773 0.984000
0.743250 0.031773 0.984000
0.907750 0.031773 0.984000
1.000000 0.031773 0.984000
1.000000 0.031773 0.984000
0.010000 0.125562 0.984000
0.041820 0.125562 0.984000
0.138187 0.125562 0.984000
0.296711 0.125562 0.984000
0.515000 0.125562 0.984000
0.743250 0.125562 0.984000
0.907750 0.125562 0.984000
1.000000 0.125562 0.984000
1.000000 0.125562 0.984000
0.010000 0.279070 0.984000
0.041820 0.279070 0.984000
0.138187 0.279070 0.984000
0.296711 0.279070 0.984000
0.515000 0.279070 0.984000
0.743250 0.279070 0.984000
0.907750 0.279070 0.984000
1.000000 0.279070 0.984000
1.000000 0.279070 0.984000
0.010000 0.490000 0.984000
0.041820 0.490000 0.984000
0.138187 0.490000 0.984000
0.296711 0.490000 0.984000
0.515000 0.490000 0.984000
0.743250 0.490000 0.984000
0.907750 0.490000 0.984000
1.000000 0.490000 0.984000
1.000000 0.490000 0.984000
0.010000 0.710500 0.984000
0.041820 0.710500 0.984000
0.138187 0.710500 0.984000
0.296711 0.710500 0.984000
0.515000 0.710500 0.984000
0.743250 0.710500 0.984000
0.907750 0.710500 0.984000
1.000000 0.710500 0.984000
1.000000 0.710500 0.984000
0.010000 0.869750 0.984000
0.041820 0.869750 0.984000
0.138187 0.869750 0.984000
0.296711 0.869750 0.984000
0.515000 0.869750 0.984000
0.743250 0.869750 0.984000
0.907750 0.869750 0.984000
1.000000 0.869750 0.984000
1.000000 0.869750 0.984000
0.010000 0.967750 0.984000
0.041820 0.967750 0.984000
0.138187 0.967750 0.984000
0.296711 0.967750 0.984000
0.515000 0.967750 0.984000
0.743250 0.967750 0.984000
0.907750 0.967750 0.984000
1.000000 0.967750 0.984000
1.000000 0.967750 0.984000
0.010000 1.000000 0.984000
0.041820 1.000000 0.984000
0.138187 1.000000 0.984000
0.296711 1.000000 0.984000
0.515000 1.000000 0.984000
0.743250 1.000000 0.984000
0.907750 1.000000 0.984000
1.000000 1.000000 0.984000
1.000000 1.000000 0.984000
