public/luts/cinematic.cube
TITLE "Cinematic Film"
LUT_3D_SIZE 33
0.010000 0.000000 0.020000
0.011773 0.000000 0.020000
0.017692 0.000000 0.020000
0.027721 0.000000 0.020000
0.041820 0.000000 0.020000
0.059954 0.000000 0.020000
0.082085 0.000000 0.020000
0.108175 0.000000 0.020000
0.138187 0.000000 0.020000
0.172085 0.000000 0.020000
0.209829 0.000000 0.020000
0.251384 0.000000 0.020000
0.296711 0.000000 0.020000
0.345774 0.000000 0.020000
0.398534 0.000000 0.020000
0.454955 0.000000 0.020000
0.515000 0.000000 0.020000
0.578039 0.000000 0.020000
0.637094 0.000000 0.020000
0.692164 0.000000 0.020000
0.743250 0.000000 0.020000
0.790352 0.000000 0.020000
0.833469 0.000000 0.020000
0.872602 0.000000 0.020000
0.907750 0.000000 0.020000
0.938914 0.000000 0.020000
0.966094 0.000000 0.020000
0.989289 0.000000 0.020000
1.000000 0.000000 0.020000
1.000000 0.000000 0.020000
1.000000 0.000000 0.020000
1.000000 0.000000 0.020000
1.000000 0.000000 0.020000
0.010000 0.002004 0.020000
0.011773 0.002004 0.020000
0.017692 0.002004 0.020000
0.027721 0.002004 0.020000
0.041820 0.002004 0.020000
0.059954 0.002004 0.020000
0.082085 0.002004 0.020000
0.108175 0.002004 0.020000
0.138187 0.002004 0.020000
0.172085 0.002004 0.020000
0.209829 0.002004 0.020000
0.251384 0.002004 0.020000
0.296711 0.002004 0.020000
0.345774 0.002004 0.020000
0.398534 0.002004 0.020000
0.454955 0.002004 0.020000
0.515000 0.002004 0.020000
0.578039 0.002004 0.020000
0.637094 0.002004 0.020000
0.692164 0.002004 0.020000
0.743250 0.002004 0.020000
0.790352 0.002004 0.020000
0.833469 0.002004 0.020000
0.872602 0.002004 0.020000
0.907750 0.002004 0.020000
0.938914 0.002004 0.020000
0.966094 0.002004 0.020000
0.989289 0.002004 0.020000
1.000000 0.002004 0.020000
1.000000 0.002004 0.020000
1.000000 0.002004 0.020000
1.000000 0.002004 0.020000
1.000000 0.002004 0.020000
0.010000 0.007991 0.020000
0.011773 0.007991 0.020000
0.017692 0.007991 0.020000
0.027721 0.007991 0.020000
0.041820 0.007991 0.020000
0.059954 0.007991 0.020000
0.082085 0.007991 0.020000
0.108175 0.007991 0.020000
0.138187 0.007991 0.020000
0.172085 0.007991 0.020000
0.209829 0.007991 0.020000
0.251384 0.007991 0.020000
0.296711 0.007991 0.020000
0.345774 0.007991 0.020000
0.398534 0.007991 0.020000
0.454955 0.007991 0.020000
0.515000 0.007991 0.020000
0.578039 0.007991 0.020000
0.637094 0.007991 0.020000
0.692164 0.007991 0.020000
0.743250 0.007991 0.020000
0.790352 0.007991 0.020000
0.833469 0.007991 0.020000
0.872602 0.007991 0.020000
0.907750 0.007991 0.020000
0.938914 0.007991 0.020000
0.966094 0.007991 0.020000
0.989289 0.007991 0.020000
1.000000 0.007991 0.020000
1.000000 0.007991 0.020000
1.000000 0.007991 0.020000
1.000000 0.007991 0.020000
1.000000 0.007991 0.020000
0.010000 0.017926 0.020000
0.011773 0.017926 0.020000
0.017692 0.017926 0.020000
0.027721 0.017926 0.020000
0.041820 0.017926 0.020000
0.059954 0.017926 0.020000
0.082085 0.017926 0.020000
0.108175 0.017926 0.020000
0.138187 0.017926 0.020000
0.172085 0.017926 0.020000
0.209829 0.017926 0.020000
0.251384 0.017926 0.020000
0.296711 0.017926 0.020000
0.345774 0.017926 0.020000
0.398534 0.017926 0.020000
0.454955 0.017926 0.020000
0.515000 0.017926 0.020000
0.578039 0.017926 0.020000
0.637094 0.017926 0.020000
0.692164 0.017926 0.020000
0.743250 0.017926 0.020000
0.790352 0.017926 0.020000
0.833469 0.017926 0.020000
0.872602 0.017926 0.020000
0.907750 0.017926 0.020000
0.938914 0.017926 0.020000
0.966094 0.017926 0.020000
0.989289 0.017926 0.020000
1.000000 0.017926 0.020000
1.000000 0.017926 0.020000
1.000000 0.017926 0.020000
1.000000 0.017926 0.020000
1.000000 0.017926 0.020000
0.010000 0.031773 0.020000
0.011773 0.031773 0.020000
0.017692 0.031773 0.020000
0.027721 0.031773 0.020000
0.041820 0.031773 0.020000
0.059954 0.031773 0.020000
0.082085 0.031773 0.020000
0.108175 0.031773 0.020000
0.138187 0.031773 0.020000
0.172085 0.031773 0.020000
0.209829 0.031773 0.020000
0.251384 0.031773 0.020000
0.296711 0.031773 0.020000
0.345774 0.031773 0.020000
0.398534 0.031773 0.020000
0.454955 0.031773 0.020000
0.515000 0.031773 0.020000
0.578039 0.031773 0.020000
0.637094 0.031773 0.020000
0.692164 0.031773 0.020000
0.743250 0.031773 0.020000
0.790352 0.031773 0.020000
0.833469 0.031773 0.020000
0.872602 0.031773 0.020000
0.907750 0.031773 0.020000
0.938914 0.031773 0.020000
0.966094 0.031773 0.020000
0.989289 0.031773 0.020000
1.000000 0.031773 0.020000
1.000000 0.031773 0.020000
1.000000 0.031773 0.020000
1.000000 0.031773 0.020000
1.000000 0.031773 0.020000
0.010000 0.049496 0.020000
0.011773 0.049496 0.020000
0.017692 0.049496 0.020000
0.027721 0.049496 0.020000
0.041820 0.049496 0.020000
0.059954 0.049496 0.020000
0.082085 0.049496 0.020000
0.108175 0.049496 0.020000
0.138187 0.049496 0.020000
0.172085 0.049496 0.020000
0.209829 0.049496 0.020000
0.251384 0.049496 0.020000
0.296711 0.049496 0.020000
0.345774 0.049496 0.020000
0.398534 0.049496 0.020000
0.454955 0.049496 0.020000
0.515000 0.049496 0.020000
0.578039 0.049496 0.020000
0.637094 0.049496 0.020000
0.692164 0.049496 0.020000
0.743250 0.049496 0.020000
0.790352 0.049496 0.020000
0.833469 0.049496 0.020000
0.872602 0.049496 0.020000
0.907750 0.049496 0.020000
0.938914 0.049496 0.020000
0.966094 0.049496 0.020000
0.989289 0.049496 0.020000
1.000000 0.049496 0.020000
1.000000 0.049496 0.020000
1.000000 0.049496 0.020000
1.000000 0.049496 0.020000
1.000000 0.049496 0.020000
0.010000 0.071060 0.020000
0.011773 0.071060 0.020000
0.017692 0.071060 0.020000
0.027721 0.071060 0.020000
0.041820 0.071060 0.020000
0.059954 0.071060 0.020000
0.082085 0.071060 0.020000
0.108175 0.071060 0.020000
0.138187 0.071060 0.020000
0.172085 0.071060 0.020000
0.209829 0.071060 0.020000
0.251384 0.071060 0.020000
0.296711 0.071060 0.020000
0.345774 0.071060 0.020000
0.398534 0.071060 0.020000
0.454955 0.071060 0.020000
0.515000 0.071060 0.020000
0.578039 0.071060 0.020000
0.637094 0.071060 0.020000
0.692164 0.071060 0.020000
0.743250 0.071060 0.020000
0.790352 0.071060 0.020000
0.833469 0.071060 0.020000
0.872602 0.071060 0.020000
0.907750 0.071060 0.020000
0.938914 0.071060 0.020000
0.966094 0.071060 0.020000
0.989289 0.071060 0.020000
1.000000 0.071060 0.020000
1.000000 0.071060 0.020000
1.000000 0.071060 0.020000
1.000000 0.071060 0.020000
1.000000 0.071060 0.020000
0.010000 0.096427 0.020000
0.011773 0.096427 0.020000
0.017692 0.096427 0.020000
0.027721 0.096427 0.020000
0.041820 0.096427 0.020000
0.059954 0.096427 0.020000
0.082085 0.096427 0.020000
0.108175 0.096427 0.020000
0.138187 0.096427 0.020000
0.172085 0.096427 0.020000
0.209829 0.096427 0.020000
0.251384 0.096427 0.020000
0.296711 0.096427 0.020000
0.345774 0.096427 0.020000
0.398534 0.096427 0.020000
0.454955 0.096427 0.020000
0.515000 0.096427 0.020000
0.578039 0.096427 0.020000
0.637094 0.096427 0.020000
0.692164 0.096427 0.020000
0.743250 0.096427 0.020000
0.790352 0.096427 0.020000
0.833469 0.096427 0.020000
0.872602 0.096427 0.020000
0.907750 0.096427 0.020000
0.938914 0.096427 0.020000
0.966094 0.096427 0.020000
0.989289 0.096427 0.020000
1.000000 0.096427 0.020000
1.000000 0.096427 0.020000
1.000000 0.096427 0.020000
1.000000 0.096427 0.020000
1.000000 0.096427 0.020000
0.010000 0.125562 0.020000
0.011773 0.125562 0.020000
0.017692 0.125562 0.020000
0.027721 0.125562 0.020000
0.041820 0.125562 0.020000
0.059954 0.125562 0.020000
0.082085 0.125562 0.020000
0.108175 0.125562 0.020000
0.138187 0.125562 0.020000
0.172085 0.125562 0.020000
0.209829 0.125562 0.020000
0.251384 0.125562 0.020000
0.296711 0.125562 0.020000
0.345774 0.125562 0.020000
0.398534 0.125562 0.020000
0.454955 0.125562 0.020000
0.515000 0.125562 0.020000
0.578039 0.125562 0.020000
0.637094 0.125562 0.020000
0.692164 0.125562 0.020000
0.743250 0.125562 0.020000
0.790352 0.125562 0.020000
0.833469 0.125562 0.020000
0.872602 0.125562 0.020000
0.907750 0.125562 0.020000
0.938914 0.125562 0.020000
0.966094 0.125562 0.020000
0.989289 0.125562 0.020000
1.000000 0.125562 0.020000
1.000000 0.125562 0.020000
1.000000 0.125562 0.020000
1.000000 0.125562 0.020000
1.000000 0.125562 0.020000
0.010000 0.158431 0.020000
0.011773 0.158431 0.020000
0.017692 0.158431 0.020000
0.027721 0.158431 0.020000
0.041820 0.158431 0.020000
0.059954 0.158431 0.020000
0.082085 0.158431 0.020000
0.108175 0.158431 0.020000
0.138187 0.158431 0.020000
0.172085 0.158431 0.020000
0.209829 0.158431 0.020000
0.251384 0.158431 0.020000
0.296711 0.158431 0.020000
0.345774 0.158431 0.020000
0.398534 0.158431 0.020000
0.454955 0.158431 0.020000
0.515000 0.158431 0.020000
0.578039 0.158431 0.020000
0.637094 0.158431 0.020000
0.692164 0.158431 0.020000
0.743250 0.158431 0.020000
0.790352 0.158431 0.020000
0.833469 0.158431 0.020000
0.872602 0.158431 0.020000
0.907750 0.158431 0.020000
0.938914 0.158431 0.020000
0.966094 0.158431 0.020000
0.989289 0.158431 0.020000
1.000000 0.158431 0.020000
1.000000 0.158431 0.020000
1.000000 0.158431 0.020000
1.000000 0.158431 0.020000
1.000000 0.158431 0.020000
0.010000 0.194995 0.020000
0.011773 0.194995 0.020000
0.017692 0.194995 0.020000
0.027721 0.194995 0.020000
0.041820 0.194995 0.020000
0.059954 0.194995 0.020000
0.082085 0.194995 0.020000
0.108175 0.194995 0.020000
0.138187 0.194995 0.020000
0.172085 0.194995 0.020000
0.209829 0.194995 0.020000
0.251384 0.194995 0.020000
0.296711 0.194995 0.020000
0.345774 0.194995 0.020000
0.398534 0.194995 0.020000
0.454955 0.194995 0.020000
0.515000 0.194995 0.020000
0.578039 0.194995 0.020000
0.637094 0.194995 0.020000
0.692164 0.194995 0.020000
0.743250 0.194995 0.020000
0.790352 0.194995 0.020000
0.833469 0.194995 0.020000
0.872602 0.194995 0.020000
0.907750 0.194995 0.020000
0.938914 0.194995 0.020000
0.966094 0.194995 0.020000
0.989289 0.194995 0.020000
1.000000 0.194995 0.020000
1.000000 0.194995 0.020000
1.000000 0.194995 0.020000
1.000000 0.194995 0.020000
1.000000 0.194995 0.020000
0.010000 0.235220 0.020000
0.011773 0.235220 0.020000
0.017692 0.235220 0.020000
0.027721 0.235220 0.020000
0.041820 0.235220 0.020000
0.059954 0.235220 0.020000
0.082085 0.235220 0.020000
0.108175 0.235220 0.020000
0.138187 0.235220 0.020000
0.172085 0.235220 0.020000
0.209829 0.235220 0.020000
0.251384 0.235220 0.020000
0.296711 0.235220 0.020000
0.345774 0.235220 0.020000
0.398534 0.235220 0.020000
0.454955 0.235220 0.020000
0.515000 0.235220 0.020000
0.578039 0.235220 0.020000
0.637094 0.235220 0.020000
0.692164 0.235220 0.020000
0.743250 0.235220 0.020000
0.790352 0.235220 0.020000
0.833469 0.235220 0.020000
0.872602 0.235220 0.020000
0.907750 0.235220 0.020000
0.938914 0.235220 0.020000
0.966094 0.235220 0.020000
0.989289 0.235220 0.020000
1.000000 0.235220 0.020000
1.000000 0.235220 0.020000
1.000000 0.235220 0.020000
1.000000 0.235220 0.020000
1.000000 0.235220 0.020000
0.010000 0.279070 0.020000
0.011773 0.279070 0.020000
0.017692 0.279070 0.020000
0.027721 0.279070 0.020000
0.041820 0.279070 0.020000
0.059954 0.279070 0.020000
0.082085 0.279070 0.020000
0.108175 0.279070 0.020000
0.138187 0.279070 0.020000
0.172085 0.279070 0.020000
0.209829 0.279070 0.020000
0.251384 0.279070 0.020000
0.296711 0.279070 0.020000
0.345774 0.279070 0.020000
0.398534 0.279070 0.020000
0.454955 0.279070 0.020000
0.515000 0.279070 0.020000
0.578039 0.279070 0.020000
0.637094 0.279070 0.020000
0.692164 0.279070 0.020000
0.743250 0.279070 0.020000
0.790352 0.279070 0.020000
0.833469 0.279070 0.020000
0.872602 0.279070 0.020000
0.907750 0.279070 0.020000
0.938914 0.279070 0.020000
0.966094 0.279070 0.020000
0.989289 0.279070 0.020000
1.000000 0.279070 0.020000
1.000000 0.279070 0.020000
1.000000 0.279070 0.020000
1.000000 0.279070 0.020000
1.000000 0.279070 0.020000
0.010000 0.326509 0.020000
0.011773 0.326509 0.020000
0.017692 0.326509 0.020000
0.027721 0.326509 0.020000
0.041820 0.326509 0.020000
0.059954 0.326509 0.020000
0.082085 0.326509 0.020000
0.108175 0.326509 0.020000
0.138187 0.326509 0.020000
0.172085 0.326509 0.020000
0.209829 0.326509 0.020000
0.251384 0.326509 0.020000
0.296711 0.326509 0.020000
0.345774 0.326509 0.020000
0.398534 0.326509 0.020000
0.454955 0.326509 0.020000
0.515000 0.326509 0.020000
0.578039 0.326509 0.020000
0.637094 0.326509 0.020000
0.692164 0.326509 0.020000
0.743250 0.326509 0.020000
0.790352 0.326509 0.020000
0.833469 0.326509 0.020000
0.872602 0.326509 0.020000
0.907750 0.326509 0.020000
0.938914 0.326509 0.020000
0.966094 0.326509 0.020000
0.989289 0.326509 0.020000
1.000000 0.326509 0.020000
1.000000 0.326509 0.020000
1.000000 0.326509 0.020000
1.000000 0.326509 0.020000
1.000000 0.326509 0.020000
0.010000 0.377501 0.020000
0.011773 0.377501 0.020000
0.017692 0.377501 0.020000
0.027721 0.377501 0.020000
0.041820 0.377501 0.020000
0.059954 0.377501 0.020000
0.082085 0.377501 0.020000
0.108175 0.377501 0.020000
0.138187 0.377501 0.020000
0.172085 0.377501 0.020000
0.209829 0.377501 0.020000
0.251384 0.377501 0.020000
0.296711 0.377501 0.020000
0.345774 0.377501 0.020000
0.398534 0.377501 0.020000
0.454955 0.377501 0.020000
0.515000 0.377501 0.020000
0.578039 0.377501 0.020000
0.637094 0.377501 0.020000
0.692164 0.377501 0.020000
0.743250 0.377501 0.020000
0.790352 0.377501 0.020000
0.833469 0.377501 0.020000
0.872602 0.377501 0.020000
0.907750 0.377501 0.020000
0.938914 0.377501 0.020000
0.966094 0.377501 0.020000
0.989289 0.377501 0.020000
1.000000 0.377501 0.020000
1.000000 0.377501 0.020000
1.000000 0.377501 0.020000
1.000000 0.377501 0.020000
1.000000 0.377501 0.020000
0.010000 0.432010 0.020000
0.011773 0.432010 0.020000
0.017692 0.432010 0.020000
0.027721 0.432010 0.020000
0.041820 0.432010 0.020000
0.059954 0.432010 0.020000
0.082085 0.432010 0.020000
0.108175 0.432010 0.020000
0.138187 0.432010 0.020000
0.172085 0.432010 0.020000
0.209829 0.432010 0.020000
0.251384 0.432010 0.020000
0.296711 0.432010 0.020000
0.345774 0.432010 0.020000
0.398534 0.432010 0.020000
0.454955 0.432010 0.020000
0.515000 0.432010 0.020000
0.578039 0.432010 0.020000
0.637094 0.432010 0.020000
0.692164 0.432010 0.020000
0.743250 0.432010 0.020000
0.790352 0.432010 0.020000
0.833469 0.432010 0.020000
0.872602 0.432010 0.020000
0.907750 0.432010 0.020000
0.938914 0.432010 0.020000
0.966094 0.432010 0.020000
0.989289 0.432010 0.020000
1.000000 0.432010 0.020000
1.000000 0.432010 0.020000
1.000000 0.432010 0.020000
1.000000 0.432010 0.020000
1.000000 0.432010 0.020000
0.010000 0.490000 0.020000
0.011773 0.490000 0.020000
0.017692 0.490000 0.020000
0.027721 0.490000 0.020000
0.041820 0.490000 0.020000
0.059954 0.490000 0.020000
0.082085 0.490000 0.020000
0.108175 0.490000 0.020000
0.138187 0.490000 0.020000
0.172085 0.490000 0.020000
0.209829 0.490000 0.020000
0.251384 0.490000 0.020000
0.296711 0.490000 0.020000
0.345774 0.490000 0.020000
0.398534 0.490000 0.020000
0.454955 0.490000 0.020000
0.515000 0.490000 0.020000
0.578039 0.490000 0.020000
0.637094 0.490000 0.020000
0.692164 0.490000 0.020000
0.743250 0.490000 0.020000
0.790352 0.490000 0.020000
0.833469 0.490000 0.020000
0.872602 0.490000 0.020000
0.907750 0.490000 0.020000
0.938914 0.490000 0.020000
0.966094 0.490000 0.020000
0.989289 0.490000 0.020000
1.000000 0.490000 0.020000
1.000000 0.490000 0.020000
1.000000 0.490000 0.020000
1.000000 0.490000 0.020000
1.000000 0.490000 0.020000
0.010000 0.550867 0.020000
0.011773 0.550867 0.020000
0.017692 0.550867 0.020000
0.027721 0.550867 0.020000
0.041820 0.550867 0.020000
0.059954 0.550867 0.020000
0.082085 0.550867 0.020000
0.108175 0.550867 0.020000
0.138187 0.550867 0.020000
0.172085 0.550867 0.020000
0.209829 0.550867 0.020000
0.251384 0.550867 0.020000
0.296711 0.550867 0.020000
0.345774 0.550867 0.020000
0.398534 0.550867 0.020000
0.454955 0.550867 0.020000
0.515000 0.550867 0.020000
0.578039 0.550867 0.020000
0.637094 0.550867 0.020000
0.692164 0.550867 0.020000
0.743250 0.550867 0.020000
0.790352 0.550867 0.020000
0.833469 0.550867 0.020000
0.872602 0.550867 0.020000
0.907750 0.550867 0.020000
0.938914 0.550867 0.020000
0.966094 0.550867 0.020000
0.989289 0.550867 0.020000
1.000000 0.550867 0.020000
1.000000 0.550867 0.020000
1.000000 0.550867 0.020000
1.000000 0.550867 0.020000
1.000000 0.550867 0.020000
0.010000 0.607906 0.020000
0.011773 0.607906 0.020000
0.017692 0.607906 0.020000
0.027721 0.607906 0.020000
0.041820 0.607906 0.020000
0.059954 0.607906 0.020000
0.082085 0.607906 0.020000
0.108175 0.607906 0.020000
0.138187 0.607906 0.020000
0.172085 0.607906 0.020000
0.209829 0.607906 0.020000
0.251384 0.607906 0.020000
0.296711 0.607906 0.020000
0.345774 0.607906 0.020000
0.398534 0.607906 0.020000
0.454955 0.607906 0.020000
0.515000 0.607906 0.020000
0.578039 0.607906 0.020000
0.637094 0.607906 0.020000
0.692164 0.607906 0.020000
0.743250 0.607906 0.020000
0.790352 0.607906 0.020000
0.833469 0.607906 0.020000
0.872602 0.607906 0.020000
0.907750 0.607906 0.020000
0.938914 0.607906 0.020000
0.966094 0.607906 0.020000
0.989289 0.607906 0.020000
1.000000 0.607906 0.020000
1.000000 0.607906 0.020000
1.000000 0.607906 0.020000
1.000000 0.607906 0.020000
1.000000 0.607906 0.020000
0.010000 0.661117 0.020000
0.011773 0.661117 0.020000
0.017692 0.661117 0.020000
0.027721 0.661117 0.020000
0.041820 0.661117 0.020000
0.059954 0.661117 0.020000
0.082085 0.661117 0.020000
0.108175 0.661117 0.020000
0.138187 0.661117 0.020000
0.172085 0.661117 0.020000
0.209829 0.661117 0.020000
0.251384 0.661117 0.020000
0.296711 0.661117 0.020000
0.345774 0.661117 0.020000
0.398534 0.661117 0.020000
0.454955 0.661117 0.020000
0.515000 0.661117 0.020000
0.578039 0.661117 0.020000
0.637094 0.661117 0.020000
0.692164 0.661117 0.020000
0.743250 0.661117 0.020000
0.790352 0.661117 0.020000
0.833469 0.661117 0.020000
0.872602 0.661117 0.020000
0.907750 0.661117 0.020000
0.938914 0.661117 0.020000
0.966094 0.661117 0.020000
0.989289 0.661117 0.020000
1.000000 0.661117 0.020000
1.000000 0.661117 0.020000
1.000000 0.661117 0.020000
1.000000 0.661117 0.020000
1.000000 0.661117 0.020000
0.010000 0.710500 0.020000
0.011773 0.710500 0.020000
0.017692 0.710500 0.020000
0.027721 0.710500 0.020000
0.041820 0.710500 0.020000
0.059954 0.710500 0.020000
0.082085 0.710500 0.020000
0.108175 0.710500 0.020000
0.138187 0.710500 0.020000
0.172085 0.710500 0.020000
0.209829 0.710500 0.020000
0.251384 0.710500 0.020000
0.296711 0.710500 0.020000
0.345774 0.710500 0.020000
0.398534 0.710500 0.020000
0.454955 0.710500 0.020000
0.515000 0.710500 0.020000
0.578039 0.710500 0.020000
0.637094 0.710500 0.020000
0.692164 0.710500 0.020000
0.743250 0.710500 0.020000
0.790352 0.710500 0.020000
0.833469 0.710500 0.020000
0.872602 0.710500 0.020000
0.907750 0.710500 0.020000
0.938914 0.710500 0.020000
0.966094 0.710500 0.020000
0.989289 0.710500 0.020000
1.000000 0.710500 0.020000
1.000000 0.710500 0.020000
1.000000 0.710500 0.020000
1.000000 0.710500 0.020000
1.000000 0.710500 0.020000
0.010000 0.756055 0.020000
0.011773 0.756055 0.020000
0.017692 0.756055 0.020000
0.027721 0.756055 0.020000
0.041820 0.756055 0.020000
0.059954 0.756055 0.020000
0.082085 0.756055 0.020000
0.108175 0.756055 0.020000
0.138187 0.756055 0.020000
0.172085 0.756055 0.020000
0.209829 0.756055 0.020000
0.251384 0.756055 0.020000
0.296711 0.756055 0.020000
0.345774 0.756055 0.020000
0.398534 0.756055 0.020000
0.454955 0.756055 0.020000
0.515000 0.756055 0.020000
0.578039 0.756055 0.020000
0.637094 0.756055 0.020000
0.692164 0.756055 0.020000
0.743250 0.756055 0.020000
0.790352 0.756055 0.020000
0.833469 0.756055 0.020000
0.872602 0.756055 0.020000
0.907750 0.756055 0.020000
0.938914 0.756055 0.020000
0.966094 0.756055 0.020000
0.989289 0.756055 0.020000
1.000000 0.756055 0.020000
1.000000 0.756055 0.020000
1.000000 0.756055 0.020000
1.000000 0.756055 0.020000
1.000000 0.756055 0.020000
0.010000 0.797781 0.020000
0.011773 0.797781 0.020000
0.017692 0.797781 0.020000
0.027721 0.797781 0.020000
0.041820 0.797781 0.020000
0.059954 0.797781 0.020000
0.082085 0.797781 0.020000
0.108175 0.797781 0.020000
0.138187 0.797781 0.020000
0.172085 0.797781 0.020000
0.209829 0.797781 0.020000
0.251384 0.797781 0.020000
0.296711 0.797781 0.020000
0.345774 0.797781 0.020000
0.398534 0.797781 0.020000
0.454955 0.797781 0.020000
0.515000 0.797781 0.020000
0.578039 0.797781 0.020000
0.637094 0.797781 0.020000
0.692164 0.797781 0.020000
0.743250 0.797781 0.020000
0.790352 0.797781 0.020000
0.833469 0.797781 0.020000
0.872602 0.797781 0.020000
0.907750 0.797781 0.020000
0.938914 0.797781 0.020000
0.966094 0.797781 0.020000
0.989289 0.797781 0.020000
1.000000 0.797781 0.020000
1.000000 0.797781 0.020000
1.000000 0.797781 0.020000
1.000000 0.797781 0.020000
1.000000 0.797781 0.020000
0.010000 0.835680 0.020000
0.011773 0.835680 0.020000
0.017692 0.835680 0.020000
0.027721 0.835680 0.020000
0.041820 0.835680 0.020000
0.059954 0.835680 0.020000
0.082085 0.835680 0.020000
0.108175 0.835680 0.020000
0.138187 0.835680 0.020000
0.172085 0.835680 0.020000
0.209829 0.835680 0.020000
0.251384 0.835680 0.020000
0.296711 0.835680 0.020000
0.345774 0.835680 0.020000
0.398534 0.835680 0.020000
0.454955 0.835680 0.020000
0.515000 0.835680 0.020000
0.578039 0.835680 0.020000
0.637094 0.835680 0.020000
0.692164 0.835680 0.020000
0.743250 0.835680 0.020000
0.790352 0.835680 0.020000
0.833469 0.835680 0.020000
0.872602 0.835680 0.020000
0.907750 0.835680 0.020000
0.938914 0.835680 0.020000
0.966094 0.835680 0.020000
0.989289 0.835680 0.020000
1.000000 0.835680 0.020000
1.000000 0.835680 0.020000
1.000000 0.835680 0.020000
1.000000 0.835680 0.020000
1.000000 0.835680 0.020000
0.010000 0.869750 0.020000
0.011773 0.869750 0.020000
0.017692 0.869750 0.020000
0.027721 0.869750 0.020000
0.041820 0.869750 0.020000
0.059954 0.869750 0.020000
0.082085 0.869750 0.020000
0.108175 0.869750 0.020000
0.138187 0.869750 0.020000
0.172085 0.869750 0.020000
0.209829 0.869750 0.020000
0.251384 0.869750 0.020000
0.296711 0.869750 0.020000
0.345774 0.869750 0.020000
0.398534 0.869750 0.020000
0.454955 0.869750 0.020000
0.515000 0.869750 0.020000
0.578039 0.869750 0.020000
0.637094 0.869750 0.020000
0.692164 0.869750 0.020000
0.743250 0.869750 0.020000
0.790352 0.869750 0.020000
0.833469 0.869750 0.020000
0.872602 0.869750 0.020000
0.907750 0.869750 0.020000
0.938914 0.869750 0.020000
0.966094 0.869750 0.020000
0.989289 0.869750 0.020000
1.000000 0.869750 0.020000
1.000000 0.869750 0.020000
1.000000 0.869750 0.020000
1.000000 0.869750 0.020000
1.000000 0.869750 0.020000
0.010000 0.899992 0.020000
0.011773 0.899992 0.020000
0.017692 0.899992 0.020000
0.027721 0.899992 0.020000
0.041820 0.899992 0.020000
0.059954 0.899992 0.020000
0.082085 0.899992 0.020000
0.108175 0.899992 0.020000
0.138187 0.899992 0.020000
0.172085 0.899992 0.020000
0.209829 0.899992 0.020000
0.251384 0.899992 0.020000
0.296711 0.899992 0.020000
0.345774 0.899992 0.020000
0.398534 0.899992 0.020000
0.454955 0.899992 0.020000
0.515000 0.899992 0.020000
0.578039 0.899992 0.020000
0.637094 0.899992 0.020000
0.692164 0.899992 0.020000
0.743250 0.899992 0.020000
0.790352 0.899992 0.020000
0.833469 0.899992 0.020000
0.872602 0.899992 0.020000
0.907750 0.899992 0.020000
0.938914 0.899992 0.020000
0.966094 0.899992 0.020000
0.989289 0.899992 0.020000
1.000000 0.899992 0.020000
1.000000 0.899992 0.020000
1.000000 0.899992 0.020000
1.000000 0.899992 0.020000
1.000000 0.899992 0.020000
0.010000 0.926406 0.020000
0.011773 0.926406 0.020000
0.017692 0.926406 0.020000
0.027721 0.926406 0.020000
0.041820 0.926406 0.020000
0.059954 0.926406 0.020000
0.082085 0.926406 0.020000
0.108175 0.926406 0.020000
0.138187 0.926406 0.020000
0.172085 0.926406 0.020000
0.209829 0.926406 0.020000
0.251384 0.926406 0.020000
0.296711 0.926406 0.020000
0.345774 0.926406 0.020000
0.398534 0.926406 0.020000
0.454955 0.926406 0.020000
0.515000 0.926406 0.020000
0.578039 0.926406 0.020000
0.637094 0.926406 0.020000
0.692164 0.926406 0.020000
0.743250 0.926406 0.020000
0.790352 0.926406 0.020000
0.833469 0.926406 0.020000
0.872602 0.926406 0.020000
0.907750 0.926406 0.020000
0.938914 0.926406 0.020000
0.966094 0.926406 0.020000
0.989289 0.926406 0.020000
1.000000 0.926406 0.020000
