public/luts/cool_teal.cube
TITLE "Teal & Orange"
LUT_3D_SIZE 33
0.000000 0.030000 0.120000
0.000000 0.029601 0.118405
0.000000 0.029203 0.116811
0.000000 0.028804 0.115216
0.011378 0.028405 0.113622
0.044223 0.028007 0.112027
0.077067 0.027608 0.110433
0.109911 0.027210 0.108839
0.142756 0.026811 0.107244
0.175600 0.026412 0.105650
0.208445 0.026014 0.104055
0.241289 0.025615 0.102460
0.274134 0.025216 0.100866
0.306978 0.024818 0.099271
0.339823 0.024419 0.097677
0.372667 0.024021 0.096083
0.405512 0.023622 0.094488
0.438357 0.023223 0.092893
0.471201 0.022825 0.091299
0.504046 0.022426 0.089704
0.536890 0.022027 0.088110
0.569735 0.021629 0.086515
0.602579 0.021230 0.084921
0.635424 0.020832 0.083326
0.668268 0.020433 0.081732
0.701113 0.020034 0.080137
0.733957 0.019636 0.078543
0.766802 0.019237 0.076948
0.799646 0.018839 0.075354
0.832491 0.018440 0.073759
0.865335 0.018041 0.072165
0.898180 0.017643 0.070570
0.931024 0.017244 0.068976
0.000000 0.059909 0.114636
0.000000 0.059510 0.113042
0.000000 0.059112 0.111447
0.000000 0.058713 0.109852
0.016742 0.058314 0.108258
0.049587 0.057916 0.106663
0.082431 0.057517 0.105069
0.115276 0.057119 0.103474
0.148120 0.056720 0.101880
0.180965 0.056321 0.100285
0.213809 0.055923 0.098691
0.246653 0.055524 0.097097
0.279498 0.055125 0.095502
0.312342 0.054727 0.093908
0.345187 0.054328 0.092313
0.378031 0.053930 0.090719
0.410876 0.053531 0.089124
0.443721 0.053132 0.087529
0.476565 0.052734 0.085935
0.509409 0.052335 0.084340
0.542254 0.051936 0.082746
0.575098 0.051538 0.081152
0.607943 0.051139 0.079557
0.640788 0.050741 0.077962
0.673632 0.050342 0.076368
0.706476 0.049943 0.074773
0.739321 0.049545 0.073179
0.772166 0.049146 0.071584
0.805010 0.048747 0.069990
0.837855 0.048349 0.068395
0.870699 0.047950 0.066801
0.903544 0.047552 0.065206
0.936388 0.047153 0.063612
0.000000 0.089818 0.109272
0.000000 0.089419 0.107677
0.000000 0.089021 0.106083
0.000000 0.088622 0.104488
0.022106 0.088223 0.102894
0.054951 0.087825 0.101299
0.087795 0.087426 0.099705
0.120639 0.087028 0.098111
0.153484 0.086629 0.096516
0.186329 0.086230 0.094921
0.219173 0.085832 0.093327
0.252018 0.085433 0.091732
0.284862 0.085034 0.090138
0.317707 0.084636 0.088543
0.350551 0.084237 0.086949
0.383396 0.083839 0.085354
0.416240 0.083440 0.083760
0.449084 0.083041 0.082166
0.481929 0.082643 0.080571
0.514773 0.082244 0.078977
0.547618 0.081846 0.077382
0.580462 0.081447 0.075787
0.613307 0.081048 0.074193
0.646151 0.080650 0.072598
0.678996 0.080251 0.071004
0.711840 0.079852 0.069409
0.744685 0.079454 0.067815
0.777529 0.079055 0.066221
0.810374 0.078657 0.064626
0.843218 0.078258 0.063031
0.876063 0.077859 0.061437
0.908907 0.077461 0.059842
0.941752 0.077062 0.058248
0.000000 0.119727 0.103908
0.000000 0.119328 0.102314
0.000000 0.118930 0.100719
0.000000 0.118531 0.099124
0.027470 0.118133 0.097530
0.060315 0.117734 0.095935
0.093159 0.117335 0.094341
0.126003 0.116937 0.092746
0.158848 0.116538 0.091152
0.191693 0.116139 0.089557
0.224537 0.115741 0.087963
0.257381 0.115342 0.086369
0.290226 0.114944 0.084774
0.323070 0.114545 0.083180
0.355915 0.114146 0.081585
0.388760 0.113748 0.079990
0.421604 0.113349 0.078396
0.454449 0.112950 0.076801
0.487293 0.112552 0.075207
0.520138 0.112153 0.073612
0.552982 0.111755 0.072018
0.585827 0.111356 0.070423
0.618671 0.110957 0.068829
0.651516 0.110559 0.067235
0.684360 0.110160 0.065640
0.717205 0.109761 0.064046
0.750049 0.109363 0.062451
0.782894 0.108964 0.060857
0.815738 0.108565 0.059262
0.848583 0.108167 0.057667
0.881427 0.107768 0.056073
0.914272 0.107370 0.054478
0.947116 0.106971 0.052884
0.000000 0.149636 0.098544
0.000000 0.149237 0.096949
0.000000 0.148839 0.095355
0.000000 0.148440 0.093760
0.032834 0.148041 0.092166
0.065679 0.147643 0.090571
0.098523 0.147244 0.088977
0.131367 0.146846 0.087383
0.164212 0.146447 0.085788
0.197057 0.146048 0.084193
0.229901 0.145650 0.082599
0.262746 0.145251 0.081004
0.295590 0.144852 0.079410
0.328435 0.144454 0.077815
0.361279 0.144055 0.076221
0.394124 0.143657 0.074626
0.426968 0.143258 0.073032
0.459813 0.142859 0.071438
0.492657 0.142461 0.069843
0.525501 0.142062 0.068249
0.558346 0.141663 0.066654
0.591190 0.141265 0.065059
0.624035 0.140866 0.063465
0.656880 0.140468 0.061870
0.689724 0.140069 0.060276
0.722569 0.139670 0.058681
0.755413 0.139272 0.057087
0.788258 0.138873 0.055492
0.821102 0.138475 0.053898
0.853946 0.138076 0.052304
0.886791 0.137677 0.050709
0.919636 0.137279 0.049114
0.952480 0.136880 0.047520
0.000000 0.179545 0.093180
0.000000 0.179146 0.091586
0.000000 0.178748 0.089991
0.005353 0.178349 0.088397
0.038198 0.177951 0.086802
0.071042 0.177552 0.085208
0.103887 0.177153 0.083613
0.136732 0.176755 0.082018
0.169576 0.176356 0.080424
0.202421 0.175957 0.078829
0.235265 0.175559 0.077235
0.268110 0.175160 0.075640
0.300954 0.174762 0.074046
0.333798 0.174363 0.072451
0.366643 0.173964 0.070857
0.399487 0.173566 0.069262
0.432332 0.173167 0.067668
0.465176 0.172768 0.066073
0.498021 0.172370 0.064479
0.530865 0.171971 0.062884
0.563710 0.171572 0.061290
0.596554 0.171174 0.059695
0.629399 0.170775 0.058101
0.662243 0.170377 0.056507
0.695088 0.169978 0.054912
0.727932 0.169579 0.053317
0.760777 0.169181 0.051723
0.793621 0.168782 0.050128
0.826466 0.168383 0.048534
0.859310 0.167985 0.046940
0.892155 0.167586 0.045345
0.924999 0.167188 0.043751
0.957844 0.166789 0.042156
0.000000 0.209454 0.087816
0.000000 0.209055 0.086221
0.000000 0.208657 0.084627
0.010718 0.208258 0.083032
0.043562 0.207860 0.081438
0.076407 0.207461 0.079843
0.109251 0.207062 0.078249
0.142095 0.206664 0.076655
0.174940 0.206265 0.075060
0.207784 0.205866 0.073466
0.240629 0.205468 0.071871
0.273473 0.205069 0.070277
0.306318 0.204671 0.068682
0.339163 0.204272 0.067087
0.372007 0.203873 0.065493
0.404852 0.203475 0.063898
0.437696 0.203076 0.062304
0.470541 0.202677 0.060709
0.503385 0.202279 0.059115
0.536230 0.201880 0.057520
0.569074 0.201482 0.055926
0.601919 0.201083 0.054331
0.634763 0.200684 0.052737
0.667608 0.200286 0.051142
0.700452 0.199887 0.049548
0.733297 0.199488 0.047953
0.766141 0.199090 0.046359
0.798986 0.198691 0.044764
0.831830 0.198293 0.043170
0.864675 0.197894 0.041576
0.897519 0.197495 0.039981
0.930364 0.197097 0.038386
0.963208 0.196698 0.036792
0.000000 0.239363 0.082452
0.000000 0.238964 0.080857
0.000000 0.238566 0.079263
0.016081 0.238167 0.077669
0.048926 0.237768 0.076074
0.081770 0.237370 0.074480
0.114615 0.236971 0.072885
0.147459 0.236573 0.071291
0.180304 0.236174 0.069696
0.213148 0.235775 0.068102
0.245993 0.235377 0.066507
0.278837 0.234978 0.064913
0.311682 0.234579 0.063318
0.344527 0.234181 0.061724
0.377371 0.233782 0.060129
0.410216 0.233384 0.058535
0.443060 0.232985 0.056940
0.475905 0.232586 0.055345
0.508749 0.232188 0.053751
0.541593 0.231789 0.052157
0.574438 0.231390 0.050562
0.607282 0.230992 0.048967
0.640127 0.230593 0.047373
0.672972 0.230195 0.045778
0.705816 0.229796 0.044184
0.738661 0.229397 0.042589
0.771505 0.228999 0.040995
0.804350 0.228600 0.039400
0.837194 0.228202 0.037806
0.870039 0.227803 0.036212
0.902883 0.227404 0.034617
0.935728 0.227006 0.033023
0.968572 0.226607 0.031428
0.000000 0.269272 0.077088
0.000000 0.268873 0.075493
0.000000 0.268475 0.073899
0.021446 0.268076 0.072304
0.054290 0.267678 0.070710
0.087135 0.267279 0.069115
0.119979 0.266880 0.067521
0.152824 0.266482 0.065926
0.185668 0.266083 0.064332
0.218512 0.265684 0.062738
0.251357 0.265286 0.061143
0.284201 0.264887 0.059548
0.317046 0.264489 0.057954
0.349890 0.264090 0.056359
0.382735 0.263691 0.054765
0.415579 0.263293 0.053171
0.448424 0.262894 0.051576
0.481268 0.262495 0.049982
0.514113 0.262097 0.048387
0.546957 0.261698 0.046793
0.579802 0.261300 0.045198
0.612646 0.260901 0.043604
0.645491 0.260502 0.042009
0.678335 0.260104 0.040414
0.711180 0.259705 0.038820
0.744024 0.259306 0.037226
0.776869 0.258908 0.035631
0.809713 0.258509 0.034036
0.842558 0.258111 0.032442
0.875402 0.257712 0.030847
0.908247 0.257313 0.029253
0.941091 0.256915 0.027658
0.973936 0.256516 0.026064
0.000000 0.299181 0.071724
0.000000 0.298782 0.070129
0.000000 0.298384 0.068535
0.026809 0.297985 0.066941
0.059654 0.297586 0.065346
0.092499 0.297188 0.063751
0.125343 0.296789 0.062157
0.158188 0.296391 0.060562
0.191032 0.295992 0.058968
0.223877 0.295593 0.057373
0.256721 0.295195 0.055779
0.289565 0.294796 0.054185
0.322410 0.294397 0.052590
0.355255 0.293999 0.050995
0.388099 0.293600 0.049401
0.420944 0.293202 0.047807
0.453788 0.292803 0.046212
0.486633 0.292404 0.044617
0.519477 0.292006 0.043023
0.552322 0.291607 0.041428
0.585166 0.291208 0.039834
0.618011 0.290810 0.038240
0.650855 0.290411 0.036645
0.683700 0.290013 0.035051
0.716544 0.289614 0.033456
0.749389 0.289215 0.031862
0.782233 0.288817 0.030267
0.815078 0.288418 0.028673
0.847922 0.288019 0.027078
0.880767 0.287621 0.025483
0.913611 0.287222 0.023889
0.946456 0.286824 0.022294
0.979300 0.286425 0.020700
0.000000 0.329090 0.066360
0.000000 0.328691 0.064766
0.000000 0.328293 0.063171
0.032174 0.327894 0.061576
0.065018 0.327495 0.059982
0.097862 0.327097 0.058388
0.130707 0.326698 0.056793
0.163552 0.326300 0.055198
0.196396 0.325901 0.053604
0.229241 0.325502 0.052009
0.262085 0.325104 0.050415
0.294930 0.324705 0.048821
0.327774 0.324306 0.047226
0.360619 0.323908 0.045632
0.393463 0.323509 0.044037
0.426308 0.323111 0.042443
0.459152 0.322712 0.040848
0.491997 0.322313 0.039254
0.524841 0.321915 0.037659
0.557686 0.321516 0.036064
0.590530 0.321118 0.034470
0.623374 0.320719 0.032876
0.656219 0.320320 0.031281
0.689063 0.319922 0.029687
0.721908 0.319523 0.028092
0.754752 0.319124 0.026498
0.787597 0.318726 0.024903
0.820442 0.318327 0.023309
0.853286 0.317929 0.021714
0.886131 0.317530 0.020120
0.918975 0.317131 0.018525
0.951820 0.316733 0.016931
0.984664 0.316334 0.015336
0.000000 0.358999 0.060996
0.000000 0.358600 0.059402
0.004693 0.358202 0.057807
0.037537 0.357803 0.056213
0.070382 0.357405 0.054618
0.103226 0.357006 0.053024
0.136071 0.356607 0.051429
0.168915 0.356209 0.049835
0.201760 0.355810 0.048240
0.234604 0.355411 0.046645
0.267449 0.355013 0.045051
0.300293 0.354614 0.043456
0.333138 0.354216 0.041862
0.365982 0.353817 0.040267
0.398827 0.353418 0.038673
0.431671 0.353020 0.037078
0.464516 0.352621 0.035484
0.497360 0.352222 0.033889
0.530205 0.351824 0.032295
0.563049 0.351425 0.030700
0.595894 0.351027 0.029106
0.628738 0.350628 0.027512
0.661583 0.350229 0.025917
0.694427 0.349831 0.024323
0.727272 0.349432 0.022728
0.760116 0.349033 0.021133
0.792961 0.348635 0.019539
0.825805 0.348236 0.017944
0.858650 0.347838 0.016350
0.891494 0.347439 0.014756
0.924339 0.347040 0.013161
0.957183 0.346642 0.011567
0.990028 0.346243 0.009972
0.000000 0.388908 0.055632
0.000000 0.388509 0.054037
0.010057 0.388111 0.052443
0.042902 0.387712 0.050848
0.075746 0.387313 0.049254
0.108591 0.386915 0.047659
0.141435 0.386516 0.046065
0.174279 0.386118 0.044471
0.207124 0.385719 0.042876
0.239969 0.385320 0.041282
0.272813 0.384922 0.039687
0.305658 0.384523 0.038093
0.338502 0.384124 0.036498
0.371347 0.383726 0.034904
0.404191 0.383327 0.033309
0.437036 0.382929 0.031714
0.469880 0.382530 0.030120
0.502725 0.382131 0.028525
0.535569 0.381733 0.026931
0.568414 0.381334 0.025336
0.601258 0.380935 0.023742
0.634103 0.380537 0.022147
0.666947 0.380138 0.020553
0.699792 0.379740 0.018958
0.732636 0.379341 0.017364
0.765481 0.378942 0.015769
0.798325 0.378544 0.014175
0.831170 0.378145 0.012580
0.864014 0.377746 0.010986
0.896859 0.377348 0.009392
0.929703 0.376949 0.007797
0.962548 0.376551 0.006202
0.995392 0.376152 0.004608
0.000000 0.418817 0.050268
0.000000 0.418418 0.048674
0.015421 0.418020 0.047079
0.048265 0.417621 0.045485
0.081110 0.417222 0.043890
0.113955 0.416824 0.042295
0.146799 0.416425 0.040701
0.179643 0.416027 0.039107
0.212488 0.415628 0.037512
0.245332 0.415229 0.035918
0.278177 0.414831 0.034323
0.311022 0.414432 0.032729
0.343866 0.414033 0.031134
0.376711 0.413635 0.029540
0.409555 0.413236 0.027945
0.442400 0.412838 0.026351
0.475244 0.412439 0.024756
0.508088 0.412040 0.023162
0.540933 0.411642 0.021567
0.573778 0.411243 0.019973
0.606622 0.410845 0.018378
0.639467 0.410446 0.016783
0.672311 0.410047 0.015189
0.705156 0.409649 0.013594
0.738000 0.409250 0.012000
0.770845 0.408851 0.010405
0.803689 0.408453 0.008811
0.836534 0.408054 0.007216
0.869378 0.407656 0.005622
0.902223 0.407257 0.004028
0.935067 0.406858 0.002433
0.967912 0.406460 0.000839
1.000000 0.406124 0.000000
0.000000 0.448726 0.044904
0.000000 0.448327 0.043310
0.020785 0.447929 0.041715
0.053629 0.447530 0.040121
0.086474 0.447132 0.038526
0.119318 0.446733 0.036932
0.152163 0.446334 0.035337
0.185007 0.445936 0.033743
0.217852 0.445537 0.032148
0.250696 0.445138 0.030554
0.283541 0.444740 0.028959
0.316385 0.444341 0.027365
0.349230 0.443943 0.025770
0.382074 0.443544 0.024176
0.414919 0.443145 0.022581
0.447763 0.442747 0.020987
0.480608 0.442348 0.019392
0.513452 0.441949 0.017798
0.546297 0.441551 0.016203
0.579141 0.441152 0.014609
0.611986 0.440754 0.013014
0.644830 0.440355 0.011420
0.677675 0.439956 0.009825
0.710519 0.439558 0.008231
0.743364 0.439159 0.006636
0.776208 0.438760 0.005042
0.809053 0.438362 0.003447
0.841897 0.437963 0.001852
0.874742 0.437565 0.000258
0.907364 0.437277 0.000000
0.939943 0.437011 0.000000
0.972521 0.436746 0.000000
1.000000 0.436480 0.000000
0.000000 0.478635 0.039540
0.000000 0.478236 0.037946
0.026149 0.477838 0.036351
0.058994 0.477439 0.034756
0.091838 0.477040 0.033162
0.124683 0.476642 0.031567
0.157527 0.476243 0.029973
0.190371 0.475845 0.028378
0.223216 0.475446 0.026784
0.256061 0.475047 0.025189
0.288905 0.474649 0.023595
0.321750 0.474250 0.022001
0.354594 0.473851 0.020406
0.387439 0.473453 0.018812
0.420283 0.473054 0.017217
0.453128 0.472656 0.015623
0.485972 0.472257 0.014028
0.518817 0.471858 0.012433
0.551661 0.471460 0.010839
0.584506 0.471061 0.009244
0.617350 0.470662 0.007650
0.650195 0.470264 0.006056
0.683039 0.469865 0.004461
0.715884 0.469467 0.002867
0.748728 0.469068 0.001272
0.781519 0.468696 0.000000
0.814098 0.468430 0.000000
0.846676 0.468165 0.000000
0.879255 0.467899 0.000000
0.911834 0.467633 0.000000
0.944412 0.467367 0.000000
0.976991 0.467102 0.000000
1.000000 0.466836 0.000000
0.000000 0.508544 0.034176
0.000000 0.508145 0.032582
0.031513 0.507747 0.030987
0.064357 0.507348 0.029393
0.097202 0.506950 0.027798
0.130047 0.506551 0.026204
0.162891 0.506152 0.024609
0.195736 0.505754 0.023015
0.228580 0.505355 0.021420
0.261425 0.504956 0.019825
0.294269 0.504558 0.018231
0.327114 0.504159 0.016637
0.359958 0.503761 0.015042
0.392802 0.503362 0.013448
0.425647 0.502963 0.011853
0.458491 0.502565 0.010259
0.491336 0.502166 0.008664
0.524181 0.501767 0.007070
0.557025 0.501369 0.005475
0.589870 0.500970 0.003881
0.622714 0.500571 0.002286
0.655558 0.500173 0.000692
0.688253 0.499850 0.000000
0.720831 0.499584 0.000000
0.753410 0.499318 0.000000
0.785989 0.499052 0.000000
0.818568 0.498787 0.000000
0.851146 0.498521 0.000000
0.883725 0.498255 0.000000
0.916304 0.497989 0.000000
0.948882 0.497723 0.000000
0.981461 0.497458 0.000000
1.000000 0.497192 0.000000
0.000000 0.538453 0.028812
0.004032 0.538054 0.027218
0.036877 0.537656 0.025623
0.069721 0.537257 0.024029
0.102566 0.536859 0.022434
0.135410 0.536460 0.020840
0.168255 0.536061 0.019245
0.201099 0.535663 0.017651
0.233944 0.535264 0.016056
0.266788 0.534865 0.014462
0.299633 0.534467 0.012867
0.332477 0.534068 0.011273
0.365322 0.533670 0.009678
0.398166 0.533271 0.008084
0.431011 0.532872 0.006489
0.463855 0.532474 0.004895
0.496700 0.532075 0.003300
0.529544 0.531676 0.001706
0.562389 0.531278 0.000111
0.594986 0.531003 0.000000
0.627565 0.530737 0.000000
0.660144 0.530471 0.000000
0.692723 0.530205 0.000000
0.725301 0.529940 0.000000
0.757880 0.529674 0.000000
0.790459 0.529408 0.000000
0.823037 0.529142 0.000000
0.855616 0.528877 0.000000
0.888195 0.528611 0.000000
0.920774 0.528345 0.000000
0.953353 0.528080 0.000000
0.985931 0.527814 0.000000
1.000000 0.527548 0.000000
0.000000 0.568362 0.023448
0.009396 0.567963 0.021854
0.042241 0.567565 0.020259
0.075085 0.567166 0.018664
0.107930 0.566767 0.017070
0.140774 0.566369 0.015475
0.173619 0.565970 0.013881
0.206463 0.565572 0.012287
0.239308 0.565173 0.010692
0.272153 0.564774 0.009098
0.304997 0.564376 0.007503
0.337842 0.563977 0.005909
0.370686 0.563578 0.004314
0.403531 0.563180 0.002720
0.436375 0.562781 0.001125
0.469141 0.562422 0.000000
0.501720 0.562156 0.000000
0.534299 0.561890 0.000000
0.566878 0.561624 0.000000
0.599456 0.561359 0.000000
0.632035 0.561093 0.000000
0.664614 0.560827 0.000000
0.697192 0.560562 0.000000
0.729771 0.560296 0.000000
0.762350 0.560030 0.000000
0.794929 0.559764 0.000000
0.827507 0.559499 0.000000
0.860086 0.559233 0.000000
0.892665 0.558967 0.000000
0.925244 0.558701 0.000000
0.957823 0.558435 0.000000
0.990401 0.558170 0.000000
1.000000 0.557904 0.000000
0.000000 0.598271 0.018084
0.014760 0.597872 0.016490
0.047605 0.597474 0.014895
0.080449 0.597075 0.013301
0.113294 0.596677 0.011706
0.146139 0.596278 0.010112
0.178983 0.595879 0.008517
0.211827 0.595481 0.006923
0.244672 0.595082 0.005328
0.277516 0.594683 0.003734
0.310361 0.594285 0.002139
0.343205 0.593886 0.000545
0.375875 0.593575 0.000000
0.408454 0.593309 0.000000
0.441032 0.593044 0.000000
0.473611 0.592778 0.000000
0.506190 0.592512 0.000000
0.538769 0.592246 0.000000
0.571348 0.591981 0.000000
0.603926 0.591715 0.000000
0.636505 0.591449 0.000000
0.669084 0.591183 0.000000
0.701662 0.590917 0.000000
0.734241 0.590652 0.000000
0.766820 0.590386 0.000000
0.799399 0.590120 0.000000
0.831978 0.589854 0.000000
0.864556 0.589589 0.000000
0.897135 0.589323 0.000000
0.929714 0.589057 0.000000
0.962292 0.588792 0.000000
0.994871 0.588526 0.000000
1.000000 0.588260 0.000000
0.000000 0.628180 0.012720
0.020124 0.627781 0.011126
0.052969 0.627383 0.009531
0.085813 0.626984 0.007937
0.118658 0.626586 0.006342
0.151502 0.626187 0.004748
0.184347 0.625788 0.003153
0.217191 0.625390 0.001559
0.250030 0.624994 0.000000
0.282609 0.624728 0.000000
0.315188 0.624463 0.000000
0.347766 0.624197 0.000000
0.380345 0.623931 0.000000
0.412924 0.623665 0.000000
0.445503 0.623399 0.000000
0.478081 0.623134 0.000000
0.510660 0.622868 0.000000
0.543239 0.622602 0.000000
0.575817 0.622336 0.000000
0.608396 0.622071 0.000000
0.640975 0.621805 0.000000
0.673554 0.621539 0.000000
0.706132 0.621274 0.000000
0.738711 0.621008 0.000000
0.771290 0.620742 0.000000
0.803869 0.620476 0.000000
0.836448 0.620210 0.000000
0.869026 0.619945 0.000000
0.901605 0.619679 0.000000
0.934184 0.619413 0.000000
0.966762 0.619147 0.000000
0.999341 0.618882 0.000000
1.000000 0.618616 0.000000
0.000000 0.658089 0.007356
0.025488 0.657690 0.005762
0.058333 0.657292 0.004167
0.091177 0.656893 0.002572
0.124022 0.656494 0.000978
0.156764 0.656147 0.000000
0.189342 0.655882 0.000000
0.221921 0.655616 0.000000
0.254500 0.655350 0.000000
0.287079 0.655084 0.000000
0.319657 0.654818 0.000000
0.352236 0.654553 0.000000
0.384815 0.654287 0.000000
0.417394 0.654021 0.000000
0.449972 0.653756 0.000000
0.482551 0.653490 0.000000
0.515130 0.653224 0.000000
0.547709 0.652958 0.000000
0.580287 0.652693 0.000000
0.612866 0.652427 0.000000
0.645445 0.652161 0.000000
0.678024 0.651895 0.000000
0.710603 0.651629 0.000000
0.743181 0.651364 0.000000
0.775760 0.651098 0.000000
0.808339 0.650832 0.000000
0.840917 0.650567 0.000000
0.873496 0.650301 0.000000
0.906075 0.650035 0.000000
0.938654 0.649769 0.000000
0.971232 0.649504 0.000000
1.000000 0.649238 0.000000
1.000000 0.648972 0.000000
0.000000 0.687998 0.001992
0.030852 0.687599 0.000398
0.063497 0.687300 0.000000
0.096076 0.687035 0.000000
0.128655 0.686769 0.000000
0.161234 0.686503 0.000000
0.193812 0.686238 0.000000
0.226391 0.685972 0.000000
0.258970 0.685706 0.000000
0.291549 0.685440 0.000000
0.324128 0.685175 0.000000
0.356706 0.684909 0.000000
0.389285 0.684643 0.000000
0.421864 0.684377 0.000000
0.454442 0.684111 0.000000
0.487021 0.683846 0.000000
0.519600 0.683580 0.000000
0.552179 0.683314 0.000000
0.584758 0.683048 0.000000
0.617336 0.682783 0.000000
0.649915 0.682517 0.000000
0.682494 0.682251 0.000000
0.715072 0.681986 0.000000
0.747651 0.681720 0.000000
0.780230 0.681454 0.000000
0.812809 0.681188 0.000000
0.845387 0.680922 0.000000
0.877966 0.680657 0.000000
0.910545 0.680391 0.000000
0.943124 0.680125 0.000000
0.975703 0.679859 0.000000
1.000000 0.679594 0.000000
1.000000 0.679328 0.000000
0.002810 0.718188 0.000000
0.035389 0.717922 0.000000
0.067968 0.717657 0.000000
0.100546 0.717391 0.000000
0.133125 0.717125 0.000000
0.165704 0.716859 0.000000
0.198283 0.716593 0.000000
0.230861 0.716328 0.000000
0.263440 0.716062 0.000000
0.296019 0.715796 0.000000
0.328597 0.715530 0.000000
0.361176 0.715265 0.000000
0.393755 0.714999 0.000000
0.426334 0.714733 0.000000
0.458913 0.714468 0.000000
0.491491 0.714202 0.000000
0.524070 0.713936 0.000000
0.556649 0.713670 0.000000
0.589228 0.713404 0.000000
0.621806 0.713139 0.000000
0.654385 0.712873 0.000000
0.686964 0.712607 0.000000
0.719542 0.712341 0.000000
0.752121 0.712076 0.000000
0.784700 0.711810 0.000000
0.817279 0.711544 0.000000
0.849858 0.711279 0.000000
0.882436 0.711013 0.000000
0.915015 0.710747 0.000000
0.947594 0.710481 0.000000
0.980173 0.710215 0.000000
1.000000 0.709950 0.000000
1.000000 0.709684 0.000000
0.007280 0.748544 0.000000
0.039859 0.748278 0.000000
0.072438 0.748012 0.000000
0.105016 0.747747 0.000000
0.137595 0.747481 0.000000
0.170174 0.747215 0.000000
0.202753 0.746950 0.000000
0.235331 0.746684 0.000000
0.267910 0.746418 0.000000
0.300489 0.746152 0.000000
0.333068 0.745887 0.000000
0.365646 0.745621 0.000000
0.398225 0.745355 0.000000
0.430804 0.745089 0.000000
0.463382 0.744823 0.000000
0.495961 0.744558 0.000000
0.528540 0.744292 0.000000
0.561119 0.744026 0.000000
0.593697 0.743761 0.000000
0.626276 0.743495 0.000000
0.658855 0.743229 0.000000
0.691434 0.742963 0.000000
0.724012 0.742698 0.000000
0.756591 0.742432 0.000000
0.789170 0.742166 0.000000
0.821749 0.741900 0.000000
0.854328 0.741634 0.000000
0.886906 0.741369 0.000000
0.919485 0.741103 0.000000
0.952064 0.740837 0.000000
0.984642 0.740572 0.000000
1.000000 0.740306 0.000000
1.000000 0.740040 0.000000
0.011750 0.778900 0.000000
0.044329 0.778634 0.000000
0.076907 0.778369 0.000000
0.109486 0.778103 0.000000
0.142065 0.777837 0.000000
0.174644 0.777571 0.000000
0.207223 0.777305 0.000000
0.239801 0.777040 0.000000
0.272380 0.776774 0.000000
0.304959 0.776508 0.000000
0.337537 0.776242 0.000000
0.370116 0.775977 0.000000
0.402695 0.775711 0.000000
0.435274 0.775445 0.000000
0.467853 0.775180 0.000000
0.500431 0.774914 0.000000
0.533010 0.774648 0.000000
0.565589 0.774382 0.000000
0.598167 0.774116 0.000000
0.630746 0.773851 0.000000
0.663325 0.773585 0.000000
0.695904 0.773319 0.000000
0.728483 0.773053 0.000000
0.761061 0.772788 0.000000
0.793640 0.772522 0.000000
0.826219 0.772256 0.000000
0.858797 0.771991 0.000000
0.891376 0.771725 0.000000
0.923955 0.771459 0.000000
0.956534 0.771193 0.000000
0.989112 0.770927 0.000000
1.000000 0.770662 0.000000
1.000000 0.770396 0.000000
0.016220 0.809256 0.000000
0.048799 0.808990 0.000000
0.081377 0.808724 0.000000
0.113956 0.808459 0.000000
0.146535 0.808193 0.000000
0.179114 0.807927 0.000000
0.211693 0.807662 0.000000
0.244271 0.807396 0.000000
0.276850 0.807130 0.000000
0.309429 0.806864 0.000000
0.342008 0.806598 0.000000
0.374586 0.806333 0.000000
0.407165 0.806067 0.000000
0.439744 0.805801 0.000000
0.472322 0.805535 0.000000
0.504901 0.805270 0.000000
0.537480 0.805004 0.000000
0.570059 0.804738 0.000000
0.602637 0.804473 0.000000
0.635216 0.804207 0.000000
0.667795 0.803941 0.000000
0.700374 0.803675 0.000000
0.732953 0.803409 0.000000
0.765531 0.803144 0.000000
0.798110 0.802878 0.000000
0.830689 0.802612 0.000000
0.863267 0.802346 0.000000
0.895846 0.802081 0.000000
0.928425 0.801815 0.000000
