public/luts/cool.cube
TITLE "Cool"
LUT_3D_SIZE 9
0.000000 0.000000 0.020000
0.112500 0.000000 0.020000
0.225000 0.000000 0.020000
0.337500 0.000000 0.020000
0.450000 0.000000 0.020000
0.562500 0.000000 0.020000
0.675000 0.000000 0.020000
0.787500 0.000000 0.020000
0.900000 0.000000 0.020000
0.000000 0.127500 0.020000
0.112500 0.127500 0.020000
0.225000 0.127500 0.020000
0.337500 0.127500 0.020000
0.450000 0.127500 0.020000
0.562500 0.127500 0.020000
0.675000 0.127500 0.020000
0.787500 0.127500 0.020000
0.900000 0.127500 0.020000
0.000000 0.255000 0.020000
0.112500 0.255000 0.020000
0.225000 0.255000 0.020000
0.337500 0.255000 0.020000
0.450000 0.255000 0.020000
0.562500 0.255000 0.020000
0.675000 0.255000 0.020000
0.787500 0.255000 0.020000
0.900000 0.255000 0.020000
0.000000 0.382500 0.020000
0.112500 0.382500 0.020000
0.225000 0.382500 0.020000
0.337500 0.382500 0.020000
0.450000 0.382500 0.020000
0.562500 0.382500 0.020000
0.675000 0.382500 0.020000
0.787500 0.382500 0.020000
0.900000 0.382500 0.020000
0.000000 0.510000 0.020000
0.112500 0.510000 0.020000
0.225000 0.510000 0.020000
0.337500 0.510000 0.020000
0.450000 0.510000 0.020000
0.562500 0.510000 0.020000
0.675000 0.510000 0.020000
0.787500 0.510000 0.020000
0.900000 0.510000 0.020000
0.000000 0.637500 0.020000
0.112500 0.637500 0.020000
0.225000 0.637500 0.020000
0.337500 0.637500 0.020000
0.450000 0.637500 0.020000
0.562500 0.637500 0.020000
0.675000 0.637500 0.020000
0.787500 0.637500 0.020000
0.900000 0.637500 0.020000
0.000000 0.765000 0.020000
0.112500 0.765000 0.020000
0.225000 0.765000 0.020000
0.337500 0.765000 0.020000
0.450000 0.765000 0.020000
0.562500 0.765000 0.020000
0.675000 0.765000 0.020000
0.787500 0.765000 0.020000
0.900000 0.765000 0.020000
0.000000 0.892500 0.020000
0.112500 0.892500 0.020000
0.225000 0.892500 0.020000
0.337500 0.892500 0.020000
0.450000 0.892500 0.020000
0.562500 0.892500 0.020000
0.675000 0.892500 0.020000
0.787500 0.892500 0.020000
0.900000 0.892500 0.020000
0.000000 1.020000 0.020000
0.112500 1.020000 0.020000
0.225000 1.020000 0.020000
0.337500 1.020000 0.020000
0.450000 1.020000 0.020000
0.562500 1.020000 0.020000
0.675000 1.020000 0.020000
0.787500 1.020000 0.020000
0.900000 1.020000 0.020000
0.000000 0.000000 0.155000
0.112500 0.000000 0.155000
0.225000 0.000000 0.155000
0.337500 0.000000 0.155000
0.450000 0.000000 0.155000
0.562500 0.000000 0.155000
0.675000 0.000000 0.155000
0.787500 0.000000 0.155000
0.900000 0.000000 0.155000
0.000000 0.127500 0.155000
0.112500 0.127500 0.155000
0.225000 0.127500 0.155000
0.337500 0.127500 0.155000
0.450000 0.127500 0.155000
0.562500 0.127500 0.155000
0.675000 0.127500 0.155000
0.787500 0.127500 0.155000
0.900000 0.127500 0.155000
0.000000 0.255000 0.155000
0.112500 0.255000 0.155000
0.225000 0.255000 0.155000
0.337500 0.255000 0.155000
0.450000 0.255000 0.155000
0.562500 0.255000 0.155000
0.675000 0.255000 0.155000
0.787500 0.255000 0.155000
0.900000 0.255000 0.155000
0.000000 0.382500 0.155000
0.112500 0.382500 0.155000
0.225000 0.382500 0.155000
0.337500 0.382500 0.155000
0.450000 0.382500 0.155000
0.562500 0.382500 0.155000
0.675000 0.382500 0.155000
0.787500 0.382500 0.155000
0.900000 0.382500 0.155000
0.000000 0.510000 0.155000
0.112500 0.510000 0.155000
0.225000 0.510000 0.155000
0.337500 0.510000 0.155000
0.450000 0.510000 0.155000
0.562500 0.510000 0.155000
0.675000 0.510000 0.155000
0.787500 0.510000 0.155000
0.900000 0.510000 0.155000
0.000000 0.637500 0.155000
0.112500 0.637500 0.155000
0.225000 0.637500 0.155000
0.337500 0.637500 0.155000
0.450000 0.637500 0.155000
0.562500 0.637500 0.155000
0.675000 0.637500 0.155000
0.787500 0.637500 0.155000
0.900000 0.637500 0.155000
0.000000 0.765000 0.155000
0.112500 0.765000 0.155000
0.225000 0.765000 0.155000
0.337500 0.765000 0.155000
0.450000 0.765000 0.155000
0.562500 0.765000 0.155000
0.675000 0.765000 0.155000
0.787500 0.765000 0.155000
0.900000 0.765000 0.155000
0.000000 0.892500 0.155000
0.112500 0.892500 0.155000
0.225000 0.892500 0.155000
0.337500 0.892500 0.155000
0.450000 0.892500 0.155000
0.562500 0.892500 0.155000
0.675000 0.892500 0.155000
0.787500 0.892500 0.155000
0.900000 0.892500 0.155000
0.000000 1.020000 0.155000
0.112500 1.020000 0.155000
0.225000 1.020000 0.155000
0.337500 1.020000 0.155000
0.450000 1.020000 0.155000
0.562500 1.020000 0.155000
0.675000 1.020000 0.155000
0.787500 1.020000 0.155000
0.900000 1.020000 0.155000
0.000000 0.000000 0.290000
0.112500 0.000000 0.290000
0.225000 0.000000 0.290000
0.337500 0.000000 0.290000
0.450000 0.000000 0.290000
0.562500 0.000000 0.290000
0.675000 0.000000 0.290000
0.787500 0.000000 0.290000
0.900000 0.000000 0.290000
0.000000 0.127500 0.290000
0.112500 0.127500 0.290000
0.225000 0.127500 0.290000
0.337500 0.127500 0.290000
0.450000 0.127500 0.290000
0.562500 0.127500 0.290000
0.675000 0.127500 0.290000
0.787500 0.127500 0.290000
0.900000 0.127500 0.290000
0.000000 0.255000 0.290000
0.112500 0.255000 0.290000
0.225000 0.255000 0.290000
0.337500 0.255000 0.290000
0.450000 0.255000 0.290000
0.562500 0.255000 0.290000
0.675000 0.255000 0.290000
0.787500 0.255000 0.290000
0.900000 0.255000 0.290000
0.000000 0.382500 0.290000
0.112500 0.382500 0.290000
0.225000 0.382500 0.290000
0.337500 0.382500 0.290000
0.450000 0.382500 0.290000
0.562500 0.382500 0.290000
0.675000 0.382500 0.290000
0.787500 0.382500 0.290000
0.900000 0.382500 0.290000
0.000000 0.510000 0.290000
0.112500 0.510000 0.290000
0.225000 0.510000 0.290000
0.337500 0.510000 0.290000
0.450000 0.510000 0.290000
0.562500 0.510000 0.290000
0.675000 0.510000 0.290000
0.787500 0.510000 0.290000
0.900000 0.510000 0.290000
0.000000 0.637500 0.290000
0.112500 0.637500 0.290000
0.225000 0.637500 0.290000
0.337500 0.637500 0.290000
0.450000 0.637500 0.290000
0.562500 0.637500 0.290000
0.675000 0.637500 0.290000
0.787500 0.637500 0.290000
0.900000 0.637500 0.290000
0.000000 0.765000 0.290000
0.112500 0.765000 0.290000
0.225000 0.765000 0.290000
0.337500 0.765000 0.290000
0.450000 0.765000 0.290000
0.562500 0.765000 0.290000
0.675000 0.765000 0.290000
0.787500 0.765000 0.290000
0.900000 0.765000 0.290000
0.000000 0.892500 0.290000
0.112500 0.892500 0.290000
0.225000 0.892500 0.290000
0.337500 0.892500 0.290000
0.450000 0.892500 0.290000
0.562500 0.892500 0.290000
0.675000 0.892500 0.290000
0.787500 0.892500 0.290000
0.900000 0.892500 0.290000
0.000000 1.020000 0.290000
0.112500 1.020000 0.290000
0.225000 1.020000 0.290000
0.337500 1.020000 0.290000
0.450000 1.020000 0.290000
0.562500 1.020000 0.290000
0.675000 1.020000 0.290000
0.787500 1.020000 0.290000
0.900000 1.020000 0.290000
0.000000 0.000000 0.425000
0.112500 0.000000 0.425000
0.225000 0.000000 0.425000
0.337500 0.000000 0.425000
0.450000 0.000000 0.425000
0.562500 0.000000 0.425000
0.675000 0.000000 0.425000
0.787500 0.000000 0.425000
0.900000 0.000000 0.425000
0.000000 0.127500 0.425000
0.112500 0.127500 0.425000
0.225000 0.127500 0.425000
0.337500 0.127500 0.425000
0.450000 0.127500 0.425000
0.562500 0.127500 0.425000
0.675000 0.127500 0.425000
0.787500 0.127500 0.425000
0.900000 0.127500 0.425000
0.000000 0.255000 0.425000
0.112500 0.255000 0.425000
0.225000 0.255000 0.425000
0.337500 0.255000 0.425000
0.450000 0.255000 0.425000
0.562500 0.255000 0.425000
0.675000 0.255000 0.425000
0.787500 0.255000 0.425000
0.900000 0.255000 0.425000
0.000000 0.382500 0.425000
0.112500 0.382500 0.425000
0.225000 0.382500 0.425000
0.337500 0.382500 0.425000
0.450000 0.382500 0.425000
0.562500 0.382500 0.425000
0.675000 0.382500 0.425000
0.787500 0.382500 0.425000
0.900000 0.382500 0.425000
0.000000 0.510000 0.425000
0.112500 0.510000 0.425000
0.225000 0.510000 0.425000
0.337500 0.510000 0.425000
0.450000 0.510000 0.425000
0.562500 0.510000 0.425000
0.675000 0.510000 0.425000
0.787500 0.510000 0.425000
0.900000 0.510000 0.425000
0.000000 0.637500 0.425000
0.112500 0.637500 0.425000
0.225000 0.637500 0.425000
0.337500 0.637500 0.425000
0.450000 0.637500 0.425000
0.562500 0.637500 0.425000
0.675000 0.637500 0.425000
0.787500 0.637500 0.425000
0.900000 0.637500 0.425000
0.000000 0.765000 0.425000
0.112500 0.765000 0.425000
0.225000 0.765000 0.425000
0.337500 0.765000 0.425000
0.450000 0.765000 0.425000
0.562500 0.765000 0.425000
0.675000 0.765000 0.425000
0.787500 0.765000 0.425000
0.900000 0.765000 0.425000
0.000000 0.892500 0.425000
0.112500 0.892500 0.425000
0.225000 0.892500 0.425000
0.337500 0.892500 0.425000
0.450000 0.892500 0.425000
0.562500 0.892500 0.425000
0.675000 0.892500 0.425000
0.787500 0.892500 0.425000
0.900000 0.892500 0.425000
0.000000 1.020000 0.425000
0.112500 1.020000 0.425000
0.225000 1.020000 0.425000
0.337500 1.020000 0.425000
0.450000 1.020000 0.425000
0.562500 1.020000 0.425000
0.675000 1.020000 0.425000
0.787500 1.020000 0.425000
0.900000 1.020000 0.425000
0.000000 0.000000 0.560000
0.112500 0.000000 0.560000
0.225000 0.000000 0.560000
0.337500 0.000000 0.560000
0.450000 0.000000 0.560000
0.562500 0.000000 0.560000
0.675000 0.000000 0.560000
0.787500 0.000000 0.560000
0.900000 0.000000 0.560000
0.000000 0.127500 0.560000
0.112500 0.127500 0.560000
0.225000 0.127500 0.560000
0.337500 0.127500 0.560000
0.450000 0.127500 0.560000
0.562500 0.127500 0.560000
0.675000 0.127500 0.560000
0.787500 0.127500 0.560000
0.900000 0.127500 0.560000
0.000000 0.255000 0.560000
0.112500 0.255000 0.560000
0.225000 0.255000 0.560000
0.337500 0.255000 0.560000
0.450000 0.255000 0.560000
0.562500 0.255000 0.560000
0.675000 0.255000 0.560000
0.787500 0.255000 0.560000
0.900000 0.255000 0.560000
0.000000 0.382500 0.560000
0.112500 0.382500 0.560000
0.225000 0.382500 0.560000
0.337500 0.382500 0.560000
0.450000 0.382500 0.560000
0.562500 0.382500 0.560000
0.675000 0.382500 0.560000
0.787500 0.382500 0.560000
0.900000 0.382500 0.560000
0.000000 0.510000 0.560000
0.112500 0.510000 0.560000
0.225000 0.510000 0.560000
0.337500 0.510000 0.560000
0.450000 0.510000 0.560000
0.562500 0.510000 0.560000
0.675000 0.510000 0.560000
0.787500 0.510000 0.560000
0.900000 0.510000 0.560000
0.000000 0.637500 0.560000
0.112500 0.637500 0.560000
0.225000 0.637500 0.560000
0.337500 0.637500 0.560000
0.450000 0.637500 0.560000
0.562500 0.637500 0.560000
0.675000 0.637500 0.560000
0.787500 0.637500 0.560000
0.900000 0.637500 0.560000
0.000000 0.765000 0.560000
0.112500 0.765000 0.560000
0.225000 0.765000 0.560000
0.337500 0.765000 0.560000
0.450000 0.765000 0.560000
0.562500 0.765000 0.560000
0.675000 0.765000 0.560000
0.787500 0.765000 0.560000
0.900000 0.765000 0.560000
0.000000 0.892500 0.560000
0.112500 0.892500 0.560000
0.225000 0.892500 0.560000
0.337500 0.892500 0.560000
0.450000 0.892500 0.560000
0.562500 0.892500 0.560000
0.675000 0.892500 0.560000
0.787500 0.892500 0.560000
0.900000 0.892500 0.560000
0.000000 1.020000 0.560000
0.112500 1.020000 0.560000
0.225000 1.020000 0.560000
0.337500 1.020000 0.560000
0.450000 1.020000 0.560000
0.562500 1.020000 0.560000
0.675000 1.020000 0.560000
0.787500 1.020000 0.560000
0.900000 1.020000 0.560000
0.000000 0.000000 0.695000
0.112500 0.000000 0.695000
0.225000 0.000000 0.695000
0.337500 0.000000 0.695000
0.450000 0.000000 0.695000
0.562500 0.000000 0.695000
0.675000 0.000000 0.695000
0.787500 0.000000 0.695000
0.900000 0.000000 0.695000
0.000000 0.127500 0.695000
0.112500 0.127500 0.695000
0.225000 0.127500 0.695000
0.337500 0.127500 0.695000
0.450000 0.127500 0.695000
0.562500 0.127500 0.695000
0.675000 0.127500 0.695000
0.787500 0.127500 0.695000
0.900000 0.127500 0.695000
0.000000 0.255000 0.695000
0.112500 0.255000 0.695000
0.225000 0.255000 0.695000
0.337500 0.255000 0.695000
0.450000 0.255000 0.695000
0.562500 0.255000 0.695000
0.675000 0.255000 0.695000
0.787500 0.255000 0.695000
0.900000 0.255000 0.695000
0.000000 0.382500 0.695000
0.112500 0.382500 0.695000
0.225000 0.382500 0.695000
0.337500 0.382500 0.695000
0.450000 0.382500 0.695000
0.562500 0.382500 0.695000
0.675000 0.382500 0.695000
0.787500 0.382500 0.695000
0.900000 0.382500 0.695000
0.000000 0.510000 0.695000
0.112500 0.510000 0.695000
0.225000 0.510000 0.695000
0.337500 0.510000 0.695000
0.450000 0.510000 0.695000
0.562500 0.510000 0.695000
0.675000 0.510000 0.695000
0.787500 0.510000 0.695000
0.900000 0.510000 0.695000
0.000000 0.637500 0.695000
0.112500 0.637500 0.695000
0.225000 0.637500 0.695000
0.337500 0.637500 0.695000
0.450000 0.637500 0.695000
0.562500 0.637500 0.695000
0.675000 0.637500 0.695000
0.787500 0.637500 0.695000
0.900000 0.637500 0.695000
0.000000 0.765000 0.695000
0.112500 0.765000 0.695000
0.225000 0.765000 0.695000
0.337500 0.765000 0.695000
0.450000 0.765000 0.695000
0.562500 0.765000 0.695000
0.675000 0.765000 0.695000
0.787500 0.765000 0.695000
0.900000 0.765000 0.695000
0.000000 0.892500 0.695000
0.112500 0.892500 0.695000
0.225000 0.892500 0.695000
0.337500 0.892500 0.695000
0.450000 0.892500 0.695000
0.562500 0.892500 0.695000
0.675000 0.892500 0.695000
0.787500 0.892500 0.695000
0.900000 0.892500 0.695000
0.000000 1.020000 0.695000
0.112500 1.020000 0.695000
0.225000 1.020000 0.695000
0.337500 1.020000 0.695000
0.450000 1.020000 0.695000
0.562500 1.020000 0.695000
0.675000 1.020000 0.695000
0.787500 1.020000 0.695000
0.900000 1.020000 0.695000
0.000000 0.000000 0.830000
0.112500 0.000000 0.830000
0.225000 0.000000 0.830000
0.337500 0.000000 0.830000
0.450000 0.000000 0.830000
0.562500 0.000000 0.830000
0.675000 0.000000 0.830000
0.787500 0.000000 0.830000
0.900000 0.000000 0.830000
0.000000 0.127500 0.830000
0.112500 0.127500 0.830000
0.225000 0.127500 0.830000
0.337500 0.127500 0.830000
0.450000 0.127500 0.830000
0.562500 0.127500 0.830000
0.675000 0.127500 0.830000
0.787500 0.127500 0.830000
0.900000 0.127500 0.830000
0.000000 0.255000 0.830000
0.112500 0.255000 0.830000
0.225000 0.255000 0.830000
0.337500 0.255000 0.830000
0.450000 0.255000 0.830000
0.562500 0.255000 0.830000
0.675000 0.255000 0.830000
0.787500 0.255000 0.830000
0.900000 0.255000 0.830000
0.000000 0.382500 0.830000
0.112500 0.382500 0.830000
0.225000 0.382500 0.830000
0.337500 0.382500 0.830000
0.450000 0.382500 0.830000
0.562500 0.382500 0.830000
0.675000 0.382500 0.830000
0.787500 0.382500 0.830000
0.900000 0.382500 0.830000
0.000000 0.510000 0.830000
0.112500 0.510000 0.830000
0.225000 0.510000 0.830000
0.337500 0.510000 0.830000
0.450000 0.510000 0.830000
0.562500 0.510000 0.830000
0.675000 0.510000 0.830000
0.787500 0.510000 0.830000
0.900000 0.510000 0.830000
0.000000 0.637500 0.830000
0.112500 0.637500 0.830000
0.225000 0.637500 0.830000
0.337500 0.637500 0.830000
0.450000 0.637500 0.830000
0.562500 0.637500 0.830000
0.675000 0.637500 0.830000
0.787500 0.637500 0.830000
0.900000 0.637500 0.830000
0.000000 0.765000 0.830000
0.112500 0.765000 0.830000
0.225000 0.765000 0.830000
0.337500 0.765000 0.830000
0.450000 0.765000 0.830000
0.562500 0.765000 0.830000
0.675000 0.765000 0.830000
0.787500 0.765000 0.830000
0.900000 0.765000 0.830000
0.000000 0.892500 0.830000
0.112500 0.892500 0.830000
0.225000 0.892500 0.830000
0.337500 0.892500 0.830000
0.450000 0.892500 0.830000
0.562500 0.892500 0.830000
0.675000 0.892500 0.830000
0.787500 0.892500 0.830000
0.900000 0.892500 0.830000
0.000000 1.020000 0.830000
0.112500 1.020000 0.830000
0.225000 1.020000 0.830000
0.337500 1.020000 0.830000
0.450000 1.020000 0.830000
0.562500 1.020000 0.830000
0.675000 1.020000 0.830000
0.787500 1.020000 0.830000
0.900000 1.020000 0.830000
0.000000 0.000000 0.965000
0.112500 0.000000 0.965000
0.225000 0.000000 0.965000
0.337500 0.000000 0.965000
0.450000 0.000000 0.965000
0.562500 0.000000 0.965000
0.675000 0.000000 0.965000
0.787500 0.000000 0.965000
0.900000 0.000000 0.965000
0.000000 0.127500 0.965000
0.112500 0.127500 0.965000
0.225000 0.127500 0.965000
0.337500 0.127500 0.965000
0.450000 0.127500 0.965000
0.562500 0.127500 0.965000
0.675000 0.127500 0.965000
0.787500 0.127500 0.965000
0.900000 0.127500 0.965000
0.000000 0.255000 0.965000
0.112500 0.255000 0.965000
0.225000 0.255000 0.965000
0.337500 0.255000 0.965000
0.450000 0.255000 0.965000
0.562500 0.255000 0.965000
0.675000 0.255000 0.965000
0.787500 0.255000 0.965000
0.900000 0.255000 0.965000
0.000000 0.382500 0.965000
0.112500 0.382500 0.965000
0.225000 0.382500 0.965000
0.337500 0.382500 0.965000
0.450000 0.382500 0.965000
0.562500 0.382500 0.965000
0.675000 0.382500 0.965000
0.787500 0.382500 0.965000
0.900000 0.382500 0.965000
0.000000 0.510000 0.965000
0.112500 0.510000 0.965000
0.225000 0.510000 0.965000
0.337500 0.510000 0.965000
0.450000 0.510000 0.965000
0.562500 0.510000 0.965000
0.675000 0.510000 0.965000
0.787500 0.510000 0.965000
0.900000 0.510000 0.965000
0.000000 0.637500 0.965000
0.112500 0.637500 0.965000
0.225000 0.637500 0.965000
0.337500 0.637500 0.965000
0.450000 0.637500 0.965000
0.562500 0.637500 0.965000
0.675000 0.637500 0.965000
0.787500 0.637500 0.965000
0.900000 0.637500 0.965000
0.000000 0.765000 0.965000
0.112500 0.765000 0.965000
0.225000 0.765000 0.965000
0.337500 0.765000 0.965000
0.450000 0.765000 0.965000
0.562500 0.765000 0.965000
0.675000 0.765000 0.965000
0.787500 0.765000 0.965000
0.900000 0.765000 0.965000
0.000000 0.892500 0.965000
0.112500 0.892500 0.965000
0.225000 0.892500 0.965000
0.337500 0.892500 0.965000
0.450000 0.892500 0.965000
0.562500 0.892500 0.965000
0.675000 0.892500 0.965000
0.787500 0.892500 0.965000
0.900000 0.892500 0.965000
0.000000 1.020000 0.965000
0.112500 1.020000 0.965000
0.225000 1.020000 0.965000
0.337500 1.020000 0.965000
0.450000 1.020000 0.965000
0.562500 1.020000 0.965000
0.675000 1.020000 0.965000
0.787500 1.020000 0.965000
0.900000 1.020000 0.965000
0.000000 0.000000 1.000000
0.112500 0.000000 1.000000
0.225000 0.000000 1.000000
0.337500 0.000000 1.000000
0.450000 0.000000 1.000000
0.562500 0.000000 1.000000
0.675000 0.000000 1.000000
0.787500 0.000000 1.000000
0.900000 0.000000 1.000000
0.000000 0.127500 1.000000
0.112500 0.127500 1.000000
0.225000 0.127500 1.000000
0.337500 0.127500 1.000000
0.450000 0.127500 1.000000
0.562500 0.127500 1.000000
0.675000 0.127500 1.000000
0.787500 0.127500 1.000000
0.900000 0.127500 1.000000
0.000000 0.255000 1.000000
0.112500 0.255000 1.000000
0.225000 0.255000 1.000000
0.337500 0.255000 1.000000
0.450000 0.255000 1.000000
0.562500 0.255000 1.000000
0.675000 0.255000 1.000000
0.787500 0.255000 1.000000
0.900000 0.255000 1.000000
0.000000 0.382500 1.000000
0.112500 0.382500 1.000000
0.225000 0.382500 1.000000
0.337500 0.382500 1.000000
0.450000 0.382500 1.000000
0.562500 0.382500 1.000000
0.675000 0.382500 1.000000
0.787500 0.382500 1.000000
0.900000 0.382500 1.000000
0.000000 0.510000 1.000000
0.112500 0.510000 1.000000
0.225000 0.510000 1.000000
0.337500 0.510000 1.000000
0.450000 0.510000 1.000000
0.562500 0.510000 1.000000
0.675000 0.510000 1.000000
0.787500 0.510000 1.000000
0.900000 0.510000 1.000000
0.000000 0.637500 1.000000
0.112500 0.637500 1.000000
0.225000 0.637500 1.000000
0.337500 0.637500 1.000000
0.450000 0.637500 1.000000
0.562500 0.637500 1.000000
0.675000 0.637500 1.000000
0.787500 0.637500 1.000000
0.900000 0.637500 1.000000
0.000000 0.765000 1.000000
0.112500 0.765000 1.000000
0.225000 0.765000 1.000000
0.337500 0.765000 1.000000
0.450000 0.765000 1.000000
0.562500 0.765000 1.000000
0.675000 0.765000 1.000000
0.787500 0.765000 1.000000
0.900000 0.765000 1.000000
0.000000 0.892500 1.000000
0.112500 0.892500 1.000000
0.225000 0.892500 1.000000
0.337500 0.892500 1.000000
0.450000 0.892500 1.000000
0.562500 0.892500 1.000000
0.675000 0.892500 1.000000
0.787500 0.892500 1.000000
0.900000 0.892500 1.000000
0.000000 1.020000 1.000000
0.112500 1.020000 1.000000
0.225000 1.020000 1.000000
0.337500 1.020000 1.000000
0.450000 1.020000 1.000000
0.562500 1.020000 1.000000
0.675000 1.020000 1.000000
0.787500 1.020000 1.000000
0.900000 1.020000 1.000000
