public/luts/cool.cube
TITLE "Cool"
LUT_3D_SIZE 17
0.000000 0.000000 0.020000
0.056250 0.000000 0.020000
0.112500 0.000000 0.020000
0.168750 0.000000 0.020000
0.225000 0.000000 0.020000
0.281250 0.000000 0.020000
0.337500 0.000000 0.020000
0.393750 0.000000 0.020000
0.450000 0.000000 0.020000
0.506250 0.000000 0.020000
0.562500 0.000000 0.020000
0.618750 0.000000 0.020000
0.675000 0.000000 0.020000
0.731250 0.000000 0.020000
0.787500 0.000000 0.020000
0.843750 0.000000 0.020000
0.900000 0.000000 0.020000
0.000000 0.063750 0.020000
0.056250 0.063750 0.020000
0.112500 0.063750 0.020000
0.168750 0.063750 0.020000
0.225000 0.063750 0.020000
0.281250 0.063750 0.020000
0.337500 0.063750 0.020000
0.393750 0.063750 0.020000
0.450000 0.063750 0.020000
0.506250 0.063750 0.020000
0.562500 0.063750 0.020000
0.618750 0.063750 0.020000
0.675000 0.063750 0.020000
0.731250 0.063750 0.020000
0.787500 0.063750 0.020000
0.843750 0.063750 0.020000
0.900000 0.063750 0.020000
0.000000 0.127500 0.020000
0.056250 0.127500 0.020000
0.112500 0.127500 0.020000
0.168750 0.127500 0.020000
0.225000 0.127500 0.020000
0.281250 0.127500 0.020000
0.337500 0.127500 0.020000
0.393750 0.127500 0.020000
0.450000 0.127500 0.020000
0.506250 0.127500 0.020000
0.562500 0.127500 0.020000
0.618750 0.127500 0.020000
0.675000 0.127500 0.020000
0.731250 0.127500 0.020000
0.787500 0.127500 0.020000
0.843750 0.127500 0.020000
0.900000 0.127500 0.020000
0.000000 0.191250 0.020000
0.056250 0.191250 0.020000
0.112500 0.191250 0.020000
0.168750 0.191250 0.020000
0.225000 0.191250 0.020000
0.281250 0.191250 0.020000
0.337500 0.191250 0.020000
0.393750 0.191250 0.020000
0.450000 0.191250 0.020000
0.506250 0.191250 0.020000
0.562500 0.191250 0.020000
0.618750 0.191250 0.020000
0.675000 0.191250 0.020000
0.731250 0.191250 0.020000
0.787500 0.191250 0.020000
0.843750 0.191250 0.020000
0.900000 0.191250 0.020000
0.000000 0.255000 0.020000
0.056250 0.255000 0.020000
0.112500 0.255000 0.020000
0.168750 0.255000 0.020000
0.225000 0.255000 0.020000
0.281250 0.255000 0.020000
0.337500 0.255000 0.020000
0.393750 0.255000 0.020000
0.450000 0.255000 0.020000
0.506250 0.255000 0.020000
0.562500 0.255000 0.020000
0.618750 0.255000 0.020000
0.675000 0.255000 0.020000
0.731250 0.255000 0.020000
0.787500 0.255000 0.020000
0.843750 0.255000 0.020000
0.900000 0.255000 0.020000
0.000000 0.318750 0.020000
0.056250 0.318750 0.020000
0.112500 0.318750 0.020000
0.168750 0.318750 0.020000
0.225000 0.318750 0.020000
0.281250 0.318750 0.020000
0.337500 0.318750 0.020000
0.393750 0.318750 0.020000
0.450000 0.318750 0.020000
0.506250 0.318750 0.020000
0.562500 0.318750 0.020000
0.618750 0.318750 0.020000
0.675000 0.318750 0.020000
0.731250 0.318750 0.020000
0.787500 0.318750 0.020000
0.843750 0.318750 0.020000
0.900000 0.318750 0.020000
0.000000 0.382500 0.020000
0.056250 0.382500 0.020000
0.112500 0.382500 0.020000
0.168750 0.382500 0.020000
0.225000 0.382500 0.020000
0.281250 0.382500 0.020000
0.337500 0.382500 0.020000
0.393750 0.382500 0.020000
0.450000 0.382500 0.020000
0.506250 0.382500 0.020000
0.562500 0.382500 0.020000
0.618750 0.382500 0.020000
0.675000 0.382500 0.020000
0.731250 0.382500 0.020000
0.787500 0.382500 0.020000
0.843750 0.382500 0.020000
0.900000 0.382500 0.020000
0.000000 0.446250 0.020000
0.056250 0.446250 0.020000
0.112500 0.446250 0.020000
0.168750 0.446250 0.020000
0.225000 0.446250 0.020000
0.281250 0.446250 0.020000
0.337500 0.446250 0.020000
0.393750 0.446250 0.020000
0.450000 0.446250 0.020000
0.506250 0.446250 0.020000
0.562500 0.446250 0.020000
0.618750 0.446250 0.020000
0.675000 0.446250 0.020000
0.731250 0.446250 0.020000
0.787500 0.446250 0.020000
0.843750 0.446250 0.020000
0.900000 0.446250 0.020000
0.000000 0.510000 0.020000
0.056250 0.510000 0.020000
0.112500 0.510000 0.020000
0.168750 0.510000 0.020000
0.225000 0.510000 0.020000
0.281250 0.510000 0.020000
0.337500 0.510000 0.020000
0.393750 0.510000 0.020000
0.450000 0.510000 0.020000
0.506250 0.510000 0.020000
0.562500 0.510000 0.020000
0.618750 0.510000 0.020000
0.675000 0.510000 0.020000
0.731250 0.510000 0.020000
0.787500 0.510000 0.020000
0.843750 0.510000 0.020000
0.900000 0.510000 0.020000
0.000000 0.573750 0.020000
0.056250 0.573750 0.020000
0.112500 0.573750 0.020000
0.168750 0.573750 0.020000
0.225000 0.573750 0.020000
0.281250 0.573750 0.020000
0.337500 0.573750 0.020000
0.393750 0.573750 0.020000
0.450000 0.573750 0.020000
0.506250 0.573750 0.020000
0.562500 0.573750 0.020000
0.618750 0.573750 0.020000
0.675000 0.573750 0.020000
0.731250 0.573750 0.020000
0.787500 0.573750 0.020000
0.843750 0.573750 0.020000
0.900000 0.573750 0.020000
0.000000 0.637500 0.020000
0.056250 0.637500 0.020000
0.112500 0.637500 0.020000
0.168750 0.637500 0.020000
0.225000 0.637500 0.020000
0.281250 0.637500 0.020000
0.337500 0.637500 0.020000
0.393750 0.637500 0.020000
0.450000 0.637500 0.020000
0.506250 0.637500 0.020000
0.562500 0.637500 0.020000
0.618750 0.637500 0.020000
0.675000 0.637500 0.020000
0.731250 0.637500 0.020000
0.787500 0.637500 0.020000
0.843750 0.637500 0.020000
0.900000 0.637500 0.020000
0.000000 0.701250 0.020000
0.056250 0.701250 0.020000
0.112500 0.701250 0.020000
0.168750 0.701250 0.020000
0.225000 0.701250 0.020000
0.281250 0.701250 0.020000
0.337500 0.701250 0.020000
0.393750 0.701250 0.020000
0.450000 0.701250 0.020000
0.506250 0.701250 0.020000
0.562500 0.701250 0.020000
0.618750 0.701250 0.020000
0.675000 0.701250 0.020000
0.731250 0.701250 0.020000
0.787500 0.701250 0.020000
0.843750 0.701250 0.020000
0.900000 0.701250 0.020000
0.000000 0.765000 0.020000
0.056250 0.765000 0.020000
0.112500 0.765000 0.020000
0.168750 0.765000 0.020000
0.225000 0.765000 0.020000
0.281250 0.765000 0.020000
0.337500 0.765000 0.020000
0.393750 0.765000 0.020000
0.450000 0.765000 0.020000
0.506250 0.765000 0.020000
0.562500 0.765000 0.020000
0.618750 0.765000 0.020000
0.675000 0.765000 0.020000
0.731250 0.765000 0.020000
0.787500 0.765000 0.020000
0.843750 0.765000 0.020000
0.900000 0.765000 0.020000
0.000000 0.828750 0.020000
0.056250 0.828750 0.020000
0.112500 0.828750 0.020000
0.168750 0.828750 0.020000
0.225000 0.828750 0.020000
0.281250 0.828750 0.020000
0.337500 0.828750 0.020000
0.393750 0.828750 0.020000
0.450000 0.828750 0.020000
0.506250 0.828750 0.020000
0.562500 0.828750 0.020000
0.618750 0.828750 0.020000
0.675000 0.828750 0.020000
0.731250 0.828750 0.020000
0.787500 0.828750 0.020000
0.843750 0.828750 0.020000
0.900000 0.828750 0.020000
0.000000 0.892500 0.020000
0.056250 0.892500 0.020000
0.112500 0.892500 0.020000
0.168750 0.892500 0.020000
0.225000 0.892500 0.020000
0.281250 0.892500 0.020000
0.337500 0.892500 0.020000
0.393750 0.892500 0.020000
0.450000 0.892500 0.020000
0.506250 0.892500 0.020000
0.562500 0.892500 0.020000
0.618750 0.892500 0.020000
0.675000 0.892500 0.020000
0.731250 0.892500 0.020000
0.787500 0.892500 0.020000
0.843750 0.892500 0.020000
0.900000 0.892500 0.020000
0.000000 0.956250 0.020000
0.056250 0.956250 0.020000
0.112500 0.956250 0.020000
0.168750 0.956250 0.020000
0.225000 0.956250 0.020000
0.281250 0.956250 0.020000
0.337500 0.956250 0.020000
0.393750 0.956250 0.020000
0.450000 0.956250 0.020000
0.506250 0.956250 0.020000
0.562500 0.956250 0.020000
0.618750 0.956250 0.020000
0.675000 0.956250 0.020000
0.731250 0.956250 0.020000
0.787500 0.956250 0.020000
0.843750 0.956250 0.020000
0.900000 0.956250 0.020000
0.000000 1.020000 0.020000
0.056250 1.020000 0.020000
0.112500 1.020000 0.020000
0.168750 1.020000 0.020000
0.225000 1.020000 0.020000
0.281250 1.020000 0.020000
0.337500 1.020000 0.020000
0.393750 1.020000 0.020000
0.450000 1.020000 0.020000
0.506250 1.020000 0.020000
0.562500 1.020000 0.020000
0.618750 1.020000 0.020000
0.675000 1.020000 0.020000
0.731250 1.020000 0.020000
0.787500 1.020000 0.020000
0.843750 1.020000 0.020000
0.900000 1.020000 0.020000
0.000000 0.000000 0.087500
0.056250 0.000000 0.087500
0.112500 0.000000 0.087500
0.168750 0.000000 0.087500
0.225000 0.000000 0.087500
0.281250 0.000000 0.087500
0.337500 0.000000 0.087500
0.393750 0.000000 0.087500
0.450000 0.000000 0.087500
0.506250 0.000000 0.087500
0.562500 0.000000 0.087500
0.618750 0.000000 0.087500
0.675000 0.000000 0.087500
0.731250 0.000000 0.087500
0.787500 0.000000 0.087500
0.843750 0.000000 0.087500
0.900000 0.000000 0.087500
0.000000 0.063750 0.087500
0.056250 0.063750 0.087500
0.112500 0.063750 0.087500
0.168750 0.063750 0.087500
0.225000 0.063750 0.087500
0.281250 0.063750 0.087500
0.337500 0.063750 0.087500
0.393750 0.063750 0.087500
0.450000 0.063750 0.087500
0.506250 0.063750 0.087500
0.562500 0.063750 0.087500
0.618750 0.063750 0.087500
0.675000 0.063750 0.087500
0.731250 0.063750 0.087500
0.787500 0.063750 0.087500
0.843750 0.063750 0.087500
0.900000 0.063750 0.087500
0.000000 0.127500 0.087500
0.056250 0.127500 0.087500
0.112500 0.127500 0.087500
0.168750 0.127500 0.087500
0.225000 0.127500 0.087500
0.281250 0.127500 0.087500
0.337500 0.127500 0.087500
0.393750 0.127500 0.087500
0.450000 0.127500 0.087500
0.506250 0.127500 0.087500
0.562500 0.127500 0.087500
0.618750 0.127500 0.087500
0.675000 0.127500 0.087500
0.731250 0.127500 0.087500
0.787500 0.127500 0.087500
0.843750 0.127500 0.087500
0.900000 0.127500 0.087500
0.000000 0.191250 0.087500
0.056250 0.191250 0.087500
0.112500 0.191250 0.087500
0.168750 0.191250 0.087500
0.225000 0.191250 0.087500
0.281250 0.191250 0.087500
0.337500 0.191250 0.087500
0.393750 0.191250 0.087500
0.450000 0.191250 0.087500
0.506250 0.191250 0.087500
0.562500 0.191250 0.087500
0.618750 0.191250 0.087500
0.675000 0.191250 0.087500
0.731250 0.191250 0.087500
0.787500 0.191250 0.087500
0.843750 0.191250 0.087500
0.900000 0.191250 0.087500
0.000000 0.255000 0.087500
0.056250 0.255000 0.087500
0.112500 0.255000 0.087500
0.168750 0.255000 0.087500
0.225000 0.255000 0.087500
0.281250 0.255000 0.087500
0.337500 0.255000 0.087500
0.393750 0.255000 0.087500
0.450000 0.255000 0.087500
0.506250 0.255000 0.087500
0.562500 0.255000 0.087500
0.618750 0.255000 0.087500
0.675000 0.255000 0.087500
0.731250 0.255000 0.087500
0.787500 0.255000 0.087500
0.843750 0.255000 0.087500
0.900000 0.255000 0.087500
0.000000 0.318750 0.087500
0.056250 0.318750 0.087500
0.112500 0.318750 0.087500
0.168750 0.318750 0.087500
0.225000 0.318750 0.087500
0.281250 0.318750 0.087500
0.337500 0.318750 0.087500
0.393750 0.318750 0.087500
0.450000 0.318750 0.087500
0.506250 0.318750 0.087500
0.562500 0.318750 0.087500
0.618750 0.318750 0.087500
0.675000 0.318750 0.087500
0.731250 0.318750 0.087500
0.787500 0.318750 0.087500
0.843750 0.318750 0.087500
0.900000 0.318750 0.087500
0.000000 0.382500 0.087500
0.056250 0.382500 0.087500
0.112500 0.382500 0.087500
0.168750 0.382500 0.087500
0.225000 0.382500 0.087500
0.281250 0.382500 0.087500
0.337500 0.382500 0.087500
0.393750 0.382500 0.087500
0.450000 0.382500 0.087500
0.506250 0.382500 0.087500
0.562500 0.382500 0.087500
0.618750 0.382500 0.087500
0.675000 0.382500 0.087500
0.731250 0.382500 0.087500
0.787500 0.382500 0.087500
0.843750 0.382500 0.087500
0.900000 0.382500 0.087500
0.000000 0.446250 0.087500
0.056250 0.446250 0.087500
0.112500 0.446250 0.087500
0.168750 0.446250 0.087500
0.225000 0.446250 0.087500
0.281250 0.446250 0.087500
0.337500 0.446250 0.087500
0.393750 0.446250 0.087500
0.450000 0.446250 0.087500
0.506250 0.446250 0.087500
0.562500 0.446250 0.087500
0.618750 0.446250 0.087500
0.675000 0.446250 0.087500
0.731250 0.446250 0.087500
0.787500 0.446250 0.087500
0.843750 0.446250 0.087500
0.900000 0.446250 0.087500
0.000000 0.510000 0.087500
0.056250 0.510000 0.087500
0.112500 0.510000 0.087500
0.168750 0.510000 0.087500
0.225000 0.510000 0.087500
0.281250 0.510000 0.087500
0.337500 0.510000 0.087500
0.393750 0.510000 0.087500
0.450000 0.510000 0.087500
0.506250 0.510000 0.087500
0.562500 0.510000 0.087500
0.618750 0.510000 0.087500
0.675000 0.510000 0.087500
0.731250 0.510000 0.087500
0.787500 0.510000 0.087500
0.843750 0.510000 0.087500
0.900000 0.510000 0.087500
0.000000 0.573750 0.087500
0.056250 0.573750 0.087500
0.112500 0.573750 0.087500
0.168750 0.573750 0.087500
0.225000 0.573750 0.087500
0.281250 0.573750 0.087500
0.337500 0.573750 0.087500
0.393750 0.573750 0.087500
0.450000 0.573750 0.087500
0.506250 0.573750 0.087500
0.562500 0.573750 0.087500
0.618750 0.573750 0.087500
0.675000 0.573750 0.087500
0.731250 0.573750 0.087500
0.787500 0.573750 0.087500
0.843750 0.573750 0.087500
0.900000 0.573750 0.087500
0.000000 0.637500 0.087500
0.056250 0.637500 0.087500
0.112500 0.637500 0.087500
0.168750 0.637500 0.087500
0.225000 0.637500 0.087500
0.281250 0.637500 0.087500
0.337500 0.637500 0.087500
0.393750 0.637500 0.087500
0.450000 0.637500 0.087500
0.506250 0.637500 0.087500
0.562500 0.637500 0.087500
0.618750 0.637500 0.087500
0.675000 0.637500 0.087500
0.731250 0.637500 0.087500
0.787500 0.637500 0.087500
0.843750 0.637500 0.087500
0.900000 0.637500 0.087500
0.000000 0.701250 0.087500
0.056250 0.701250 0.087500
0.112500 0.701250 0.087500
0.168750 0.701250 0.087500
0.225000 0.701250 0.087500
0.281250 0.701250 0.087500
0.337500 0.701250 0.087500
0.393750 0.701250 0.087500
0.450000 0.701250 0.087500
0.506250 0.701250 0.087500
0.562500 0.701250 0.087500
0.618750 0.701250 0.087500
0.675000 0.701250 0.087500
0.731250 0.701250 0.087500
0.787500 0.701250 0.087500
0.843750 0.701250 0.087500
0.900000 0.701250 0.087500
0.000000 0.765000 0.087500
0.056250 0.765000 0.087500
0.112500 0.765000 0.087500
0.168750 0.765000 0.087500
0.225000 0.765000 0.087500
0.281250 0.765000 0.087500
0.337500 0.765000 0.087500
0.393750 0.765000 0.087500
0.450000 0.765000 0.087500
0.506250 0.765000 0.087500
0.562500 0.765000 0.087500
0.618750 0.765000 0.087500
0.675000 0.765000 0.087500
0.731250 0.765000 0.087500
0.787500 0.765000 0.087500
0.843750 0.765000 0.087500
0.900000 0.765000 0.087500
0.000000 0.828750 0.087500
0.056250 0.828750 0.087500
0.112500 0.828750 0.087500
0.168750 0.828750 0.087500
0.225000 0.828750 0.087500
0.281250 0.828750 0.087500
0.337500 0.828750 0.087500
0.393750 0.828750 0.087500
0.450000 0.828750 0.087500
0.506250 0.828750 0.087500
0.562500 0.828750 0.087500
0.618750 0.828750 0.087500
0.675000 0.828750 0.087500
0.731250 0.828750 0.087500
0.787500 0.828750 0.087500
0.843750 0.828750 0.087500
0.900000 0.828750 0.087500
0.000000 0.892500 0.087500
0.056250 0.892500 0.087500
0.112500 0.892500 0.087500
0.168750 0.892500 0.087500
0.225000 0.892500 0.087500
0.281250 0.892500 0.087500
0.337500 0.892500 0.087500
0.393750 0.892500 0.087500
0.450000 0.892500 0.087500
0.506250 0.892500 0.087500
0.562500 0.892500 0.087500
0.618750 0.892500 0.087500
0.675000 0.892500 0.087500
0.731250 0.892500 0.087500
0.787500 0.892500 0.087500
0.843750 0.892500 0.087500
0.900000 0.892500 0.087500
0.000000 0.956250 0.087500
0.056250 0.956250 0.087500
0.112500 0.956250 0.087500
0.168750 0.956250 0.087500
0.225000 0.956250 0.087500
0.281250 0.956250 0.087500
0.337500 0.956250 0.087500
0.393750 0.956250 0.087500
0.450000 0.956250 0.087500
0.506250 0.956250 0.087500
0.562500 0.956250 0.087500
0.618750 0.956250 0.087500
0.675000 0.956250 0.087500
0.731250 0.956250 0.087500
0.787500 0.956250 0.087500
0.843750 0.956250 0.087500
0.900000 0.956250 0.087500
0.000000 1.020000 0.087500
0.056250 1.020000 0.087500
0.112500 1.020000 0.087500
0.168750 1.020000 0.087500
0.225000 1.020000 0.087500
0.281250 1.020000 0.087500
0.337500 1.020000 0.087500
0.393750 1.020000 0.087500
0.450000 1.020000 0.087500
0.506250 1.020000 0.087500
0.562500 1.020000 0.087500
0.618750 1.020000 0.087500
0.675000 1.020000 0.087500
0.731250 1.020000 0.087500
0.787500 1.020000 0.087500
0.843750 1.020000 0.087500
0.900000 1.020000 0.087500
0.000000 0.000000 0.155000
0.056250 0.000000 0.155000
0.112500 0.000000 0.155000
0.168750 0.000000 0.155000
0.225000 0.000000 0.155000
0.281250 0.000000 0.155000
0.337500 0.000000 0.155000
0.393750 0.000000 0.155000
0.450000 0.000000 0.155000
0.506250 0.000000 0.155000
0.562500 0.000000 0.155000
0.618750 0.000000 0.155000
0.675000 0.000000 0.155000
0.731250 0.000000 0.155000
0.787500 0.000000 0.155000
0.843750 0.000000 0.155000
0.900000 0.000000 0.155000
0.000000 0.063750 0.155000
0.056250 0.063750 0.155000
0.112500 0.063750 0.155000
0.168750 0.063750 0.155000
0.225000 0.063750 0.155000
0.281250 0.063750 0.155000
0.337500 0.063750 0.155000
0.393750 0.063750 0.155000
0.450000 0.063750 0.155000
0.506250 0.063750 0.155000
0.562500 0.063750 0.155000
0.618750 0.063750 0.155000
0.675000 0.063750 0.155000
0.731250 0.063750 0.155000
0.787500 0.063750 0.155000
0.843750 0.063750 0.155000
0.900000 0.063750 0.155000
0.000000 0.127500 0.155000
0.056250 0.127500 0.155000
0.112500 0.127500 0.155000
0.168750 0.127500 0.155000
0.225000 0.127500 0.155000
0.281250 0.127500 0.155000
0.337500 0.127500 0.155000
0.393750 0.127500 0.155000
0.450000 0.127500 0.155000
0.506250 0.127500 0.155000
0.562500 0.127500 0.155000
0.618750 0.127500 0.155000
0.675000 0.127500 0.155000
0.731250 0.127500 0.155000
0.787500 0.127500 0.155000
0.843750 0.127500 0.155000
0.900000 0.127500 0.155000
0.000000 0.191250 0.155000
0.056250 0.191250 0.155000
0.112500 0.191250 0.155000
0.168750 0.191250 0.155000
0.225000 0.191250 0.155000
0.281250 0.191250 0.155000
0.337500 0.191250 0.155000
0.393750 0.191250 0.155000
0.450000 0.191250 0.155000
0.506250 0.191250 0.155000
0.562500 0.191250 0.155000
0.618750 0.191250 0.155000
0.675000 0.191250 0.155000
0.731250 0.191250 0.155000
0.787500 0.191250 0.155000
0.843750 0.191250 0.155000
0.900000 0.191250 0.155000
0.000000 0.255000 0.155000
0.056250 0.255000 0.155000
0.112500 0.255000 0.155000
0.168750 0.255000 0.155000
0.225000 0.255000 0.155000
0.281250 0.255000 0.155000
0.337500 0.255000 0.155000
0.393750 0.255000 0.155000
0.450000 0.255000 0.155000
0.506250 0.255000 0.155000
0.562500 0.255000 0.155000
0.618750 0.255000 0.155000
0.675000 0.255000 0.155000
0.731250 0.255000 0.155000
0.787500 0.255000 0.155000
0.843750 0.255000 0.155000
0.900000 0.255000 0.155000
0.000000 0.318750 0.155000
0.056250 0.318750 0.155000
0.112500 0.318750 0.155000
0.168750 0.318750 0.155000
0.225000 0.318750 0.155000
0.281250 0.318750 0.155000
0.337500 0.318750 0.155000
0.393750 0.318750 0.155000
0.450000 0.318750 0.155000
0.506250 0.318750 0.155000
0.562500 0.318750 0.155000
0.618750 0.318750 0.155000
0.675000 0.318750 0.155000
0.731250 0.318750 0.155000
0.787500 0.318750 0.155000
0.843750 0.318750 0.155000
0.900000 0.318750 0.155000
0.000000 0.382500 0.155000
0.056250 0.382500 0.155000
0.112500 0.382500 0.155000
0.168750 0.382500 0.155000
0.225000 0.382500 0.155000
0.281250 0.382500 0.155000
0.337500 0.382500 0.155000
0.393750 0.382500 0.155000
0.450000 0.382500 0.155000
0.506250 0.382500 0.155000
0.562500 0.382500 0.155000
0.618750 0.382500 0.155000
0.675000 0.382500 0.155000
0.731250 0.382500 0.155000
0.787500 0.382500 0.155000
0.843750 0.382500 0.155000
0.900000 0.382500 0.155000
0.000000 0.446250 0.155000
0.056250 0.446250 0.155000
0.112500 0.446250 0.155000
0.168750 0.446250 0.155000
0.225000 0.446250 0.155000
0.281250 0.446250 0.155000
0.337500 0.446250 0.155000
0.393750 0.446250 0.155000
0.450000 0.446250 0.155000
0.506250 0.446250 0.155000
0.562500 0.446250 0.155000
0.618750 0.446250 0.155000
0.675000 0.446250 0.155000
0.731250 0.446250 0.155000
0.787500 0.446250 0.155000
0.843750 0.446250 0.155000
0.900000 0.446250 0.155000
0.000000 0.510000 0.155000
0.056250 0.510000 0.155000
0.112500 0.510000 0.155000
0.168750 0.510000 0.155000
0.225000 0.510000 0.155000
0.281250 0.510000 0.155000
0.337500 0.510000 0.155000
0.393750 0.510000 0.155000
0.450000 0.510000 0.155000
0.506250 0.510000 0.155000
0.562500 0.510000 0.155000
0.618750 0.510000 0.155000
0.675000 0.510000 0.155000
0.731250 0.510000 0.155000
0.787500 0.510000 0.155000
0.843750 0.510000 0.155000
0.900000 0.510000 0.155000
0.000000 0.573750 0.155000
0.056250 0.573750 0.155000
0.112500 0.573750 0.155000
0.168750 0.573750 0.155000
0.225000 0.573750 0.155000
0.281250 0.573750 0.155000
0.337500 0.573750 0.155000
0.393750 0.573750 0.155000
0.450000 0.573750 0.155000
0.506250 0.573750 0.155000
0.562500 0.573750 0.155000
0.618750 0.573750 0.155000
0.675000 0.573750 0.155000
0.731250 0.573750 0.155000
0.787500 0.573750 0.155000
0.843750 0.573750 0.155000
0.900000 0.573750 0.155000
0.000000 0.637500 0.155000
0.056250 0.637500 0.155000
0.112500 0.637500 0.155000
0.168750 0.637500 0.155000
0.225000 0.637500 0.155000
0.281250 0.637500 0.155000
0.337500 0.637500 0.155000
0.393750 0.637500 0.155000
0.450000 0.637500 0.155000
0.506250 0.637500 0.155000
0.562500 0.637500 0.155000
0.618750 0.637500 0.155000
0.675000 0.637500 0.155000
0.731250 0.637500 0.155000
0.787500 0.637500 0.155000
0.843750 0.637500 0.155000
0.900000 0.637500 0.155000
0.000000 0.701250 0.155000
0.056250 0.701250 0.155000
0.112500 0.701250 0.155000
0.168750 0.701250 0.155000
0.225000 0.701250 0.155000
0.281250 0.701250 0.155000
0.337500 0.701250 0.155000
0.393750 0.701250 0.155000
0.450000 0.701250 0.155000
0.506250 0.701250 0.155000
0.562500 0.701250 0.155000
0.618750 0.701250 0.155000
0.675000 0.701250 0.155000
0.731250 0.701250 0.155000
0.787500 0.701250 0.155000
0.843750 0.701250 0.155000
0.900000 0.701250 0.155000
0.000000 0.765000 0.155000
0.056250 0.765000 0.155000
0.112500 0.765000 0.155000
0.168750 0.765000 0.155000
0.225000 0.765000 0.155000
0.281250 0.765000 0.155000
0.337500 0.765000 0.155000
0.393750 0.765000 0.155000
0.450000 0.765000 0.155000
0.506250 0.765000 0.155000
0.562500 0.765000 0.155000
0.618750 0.765000 0.155000
0.675000 0.765000 0.155000
0.731250 0.765000 0.155000
0.787500 0.765000 0.155000
0.843750 0.765000 0.155000
0.900000 0.765000 0.155000
0.000000 0.828750 0.155000
0.056250 0.828750 0.155000
0.112500 0.828750 0.155000
0.168750 0.828750 0.155000
0.225000 0.828750 0.155000
0.281250 0.828750 0.155000
0.337500 0.828750 0.155000
0.393750 0.828750 0.155000
0.450000 0.828750 0.155000
0.506250 0.828750 0.155000
0.562500 0.828750 0.155000
0.618750 0.828750 0.155000
0.675000 0.828750 0.155000
0.731250 0.828750 0.155000
0.787500 0.828750 0.155000
0.843750 0.828750 0.155000
0.900000 0.828750 0.155000
0.000000 0.892500 0.155000
0.056250 0.892500 0.155000
0.112500 0.892500 0.155000
0.168750 0.892500 0.155000
0.225000 0.892500 0.155000
0.281250 0.892500 0.155000
0.337500 0.892500 0.155000
0.393750 0.892500 0.155000
0.450000 0.892500 0.155000
0.506250 0.892500 0.155000
0.562500 0.892500 0.155000
0.618750 0.892500 0.155000
0.675000 0.892500 0.155000
0.731250 0.892500 0.155000
0.787500 0.892500 0.155000
0.843750 0.892500 0.155000
0.900000 0.892500 0.155000
0.000000 0.956250 0.155000
0.056250 0.956250 0.155000
0.112500 0.956250 0.155000
0.168750 0.956250 0.155000
0.225000 0.956250 0.155000
0.281250 0.956250 0.155000
0.337500 0.956250 0.155000
0.393750 0.956250 0.155000
0.450000 0.956250 0.155000
0.506250 0.956250 0.155000
0.562500 0.956250 0.155000
0.618750 0.956250 0.155000
0.675000 0.956250 0.155000
0.731250 0.956250 0.155000
0.787500 0.956250 0.155000
0.843750 0.956250 0.155000
0.900000 0.956250 0.155000
0.000000 1.020000 0.155000
0.056250 1.020000 0.155000
0.112500 1.020000 0.155000
0.168750 1.020000 0.155000
0.225000 1.020000 0.155000
0.281250 1.020000 0.155000
0.337500 1.020000 0.155000
0.393750 1.020000 0.155000
0.450000 1.020000 0.155000
0.506250 1.020000 0.155000
0.562500 1.020000 0.155000
0.618750 1.020000 0.155000
0.675000 1.020000 0.155000
0.731250 1.020000 0.155000
0.787500 1.020000 0.155000
0.843750 1.020000 0.155000
0.900000 1.020000 0.155000
0.000000 0.000000 0.222500
0.056250 0.000000 0.222500
0.112500 0.000000 0.222500
0.168750 0.000000 0.222500
0.225000 0.000000 0.222500
0.281250 0.000000 0.222500
0.337500 0.000000 0.222500
0.393750 0.000000 0.222500
0.450000 0.000000 0.222500
0.506250 0.000000 0.222500
0.562500 0.000000 0.222500
0.618750 0.000000 0.222500
0.675000 0.000000 0.222500
0.731250 0.000000 0.222500
0.787500 0.000000 0.222500
0.843750 0.000000 0.222500
0.900000 0.000000 0.222500
0.000000 0.063750 0.222500
0.056250 0.063750 0.222500
0.112500 0.063750 0.222500
