public/luts/cool_teal.cube
TITLE "Teal & Orange"
LUT_3D_SIZE 9
0.000000 0.030000 0.120000
0.011378 0.028405 0.113622
0.142756 0.026811 0.107244
0.274134 0.025216 0.100866
0.405512 0.023622 0.094488
0.536890 0.022027 0.088110
0.668268 0.020433 0.081732
0.799646 0.018839 0.075354
0.931024 0.017244 0.068976
0.000000 0.149636 0.098544
0.032834 0.148041 0.092166
0.164212 0.146447 0.085788
0.295590 0.144852 0.079410
0.426968 0.143258 0.073032
0.558346 0.141663 0.066654
0.689724 0.140069 0.060276
0.821102 0.138475 0.053898
0.952480 0.136880 0.047520
0.000000 0.269272 0.077088
0.054290 0.267678 0.070710
0.185668 0.266083 0.064332
0.317046 0.264489 0.057954
0.448424 0.262894 0.051576
0.579802 0.261300 0.045198
0.711180 0.259705 0.038820
0.842558 0.258111 0.032442
0.973936 0.256516 0.026064
0.000000 0.388908 0.055632
0.075746 0.387313 0.049254
0.207124 0.385719 0.042876
0.338502 0.384124 0.036498
0.469880 0.382530 0.030120
0.601258 0.380935 0.023742
0.732636 0.379341 0.017364
0.864014 0.377746 0.010986
0.995392 0.376152 0.004608
0.000000 0.508544 0.034176
0.097202 0.506950 0.027798
0.228580 0.505355 0.021420
0.359958 0.503761 0.015042
0.491336 0.502166 0.008664
0.622714 0.500571 0.002286
0.753410 0.499318 0.000000
0.883725 0.498255 0.000000
1.000000 0.497192 0.000000
0.000000 0.628180 0.012720
0.118658 0.626586 0.006342
0.250030 0.624994 0.000000
0.380345 0.623931 0.000000
0.510660 0.622868 0.000000
0.640975 0.621805 0.000000
0.771290 0.620742 0.000000
0.901605 0.619679 0.000000
1.000000 0.618616 0.000000
0.007280 0.748544 0.000000
0.137595 0.747481 0.000000
0.267910 0.746418 0.000000
0.398225 0.745355 0.000000
0.528540 0.744292 0.000000
0.658855 0.743229 0.000000
0.789170 0.742166 0.000000
0.919485 0.741103 0.000000
1.000000 0.740040 0.000000
0.025160 0.869968 0.000000
0.155475 0.868905 0.000000
0.285790 0.867842 0.000000
0.416105 0.866779 0.000000
0.546420 0.865716 0.000000
0.676735 0.864653 0.000000
0.807050 0.863590 0.000000
0.937365 0.862527 0.000000
1.000000 0.861464 0.000000
0.043040 0.991392 0.000000
0.173355 0.990329 0.000000
0.303670 0.989266 0.000000
0.433985 0.988203 0.000000
0.564300 0.987140 0.000000
0.694615 0.986077 0.000000
0.824930 0.985014 0.000000
0.955245 0.983951 0.000000
1.000000 0.982888 0.000000
0.000000 0.029458 0.242834
0.013544 0.027864 0.236456
0.144922 0.026270 0.230078
0.276300 0.024675 0.223700
0.407678 0.023080 0.217322
0.539056 0.021486 0.210944
0.670434 0.019891 0.204566
0.801812 0.018297 0.198188
0.933190 0.016702 0.191810
0.000000 0.149094 0.221378
0.035000 0.147500 0.215000
0.166378 0.145905 0.208622
0.297756 0.144311 0.202244
0.429134 0.142716 0.195866
0.560512 0.141122 0.189488
0.691890 0.139527 0.183110
0.823268 0.137933 0.176732
0.954646 0.136339 0.170354
0.000000 0.268730 0.199922
0.056456 0.267136 0.193544
0.187834 0.265541 0.187166
0.319212 0.263947 0.180788
0.450590 0.262352 0.174410
0.581968 0.260758 0.168032
0.713346 0.259163 0.161654
0.844724 0.257569 0.155276
0.976102 0.255974 0.148898
0.000000 0.388367 0.178466
0.077912 0.386772 0.172088
0.209290 0.385178 0.165710
0.340668 0.383583 0.159332
0.472046 0.381989 0.152954
0.603424 0.380394 0.146576
0.734802 0.378800 0.140198
0.866180 0.377205 0.133820
0.997558 0.375611 0.127442
0.000000 0.508003 0.157010
0.099368 0.506408 0.150632
0.230746 0.504814 0.144254
0.362124 0.503219 0.137876
0.493502 0.501625 0.131498
0.624880 0.500030 0.125120
0.755215 0.498957 0.120828
0.885530 0.497894 0.116576
1.000000 0.496831 0.112324
0.000000 0.627638 0.135554
0.120824 0.626044 0.129176
0.251835 0.624633 0.123532
0.382150 0.623570 0.119280
0.512465 0.622507 0.115028
0.642780 0.621444 0.110776
0.773095 0.620381 0.106524
0.903410 0.619318 0.102272
1.000000 0.618255 0.098020
0.009085 0.748183 0.117732
0.139400 0.747120 0.113480
0.269715 0.746057 0.109228
0.400030 0.744994 0.104976
0.530345 0.743931 0.100724
0.660660 0.742868 0.096472
0.790975 0.741805 0.092220
0.921290 0.740742 0.087968
1.000000 0.739679 0.083716
0.026965 0.869607 0.103428
0.157280 0.868544 0.099176
0.287595 0.867481 0.094924
0.417910 0.866418 0.090672
0.548225 0.865355 0.086420
0.678540 0.864292 0.082168
0.808855 0.863229 0.077916
0.939170 0.862166 0.073664
1.000000 0.861103 0.069412
0.044845 0.991031 0.089124
0.175160 0.989968 0.084872
0.305475 0.988905 0.080620
0.435790 0.987842 0.076368
0.566105 0.986779 0.072116
0.696420 0.985716 0.067864
0.826735 0.984653 0.063612
0.957050 0.983590 0.059360
1.000000 0.982527 0.055108
0.000000 0.028917 0.365668
0.015710 0.027322 0.359290
0.147088 0.025728 0.352912
0.278466 0.024133 0.346534
0.409844 0.022539 0.340156
0.541222 0.020944 0.333778
0.672600 0.019350 0.327400
0.803978 0.017756 0.321022
0.935356 0.016161 0.314644
0.000000 0.148553 0.344212
0.037166 0.146958 0.337834
0.168544 0.145364 0.331456
0.299922 0.143769 0.325078
0.431300 0.142175 0.318700
0.562678 0.140580 0.312322
0.694056 0.138986 0.305944
0.825434 0.137391 0.299566
0.956812 0.135797 0.293188
0.000000 0.268189 0.322756
0.058622 0.266595 0.316378
0.190000 0.265000 0.310000
0.321378 0.263406 0.303622
0.452756 0.261811 0.297244
0.584134 0.260217 0.290866
0.715512 0.258622 0.284488
0.846890 0.257028 0.278110
0.978268 0.255433 0.271732
0.000000 0.387825 0.301300
0.080078 0.386230 0.294922
0.211456 0.384636 0.288544
0.342834 0.383041 0.282166
0.474212 0.381447 0.275788
0.605590 0.379852 0.269410
0.736968 0.378258 0.263032
0.868346 0.376663 0.256654
0.999724 0.375069 0.250276
0.000000 0.507461 0.279844
0.101534 0.505866 0.273466
0.232912 0.504272 0.267088
0.364290 0.502677 0.260710
0.495668 0.501083 0.254332
0.626705 0.499659 0.248636
0.757020 0.498596 0.244384
0.887335 0.497533 0.240132
1.000000 0.496470 0.235880
0.000000 0.627097 0.258388
0.122990 0.625502 0.252010
0.253640 0.624272 0.247088
0.383955 0.623209 0.242836
0.514270 0.622146 0.238584
0.644585 0.621083 0.234332
0.774900 0.620020 0.230080
0.905215 0.618957 0.225828
1.000000 0.617894 0.221576
0.010890 0.747822 0.241288
0.141205 0.746759 0.237036
0.271520 0.745696 0.232784
0.401835 0.744633 0.228532
0.532150 0.743570 0.224280
0.662465 0.742507 0.220028
0.792780 0.741444 0.215776
0.923095 0.740381 0.211524
1.000000 0.739318 0.207272
0.028770 0.869246 0.226984
0.159085 0.868183 0.222732
0.289400 0.867120 0.218480
0.419715 0.866057 0.214228
0.550030 0.864994 0.209976
0.680345 0.863931 0.205724
0.810660 0.862868 0.201472
0.940975 0.861805 0.197220
1.000000 0.860742 0.192968
0.046650 0.990670 0.212680
0.176965 0.989607 0.208428
0.307280 0.988544 0.204176
0.437595 0.987481 0.199924
0.567910 0.986418 0.195672
0.698225 0.985355 0.191420
0.828540 0.984292 0.187168
0.958855 0.983229 0.182916
1.000000 0.982166 0.178664
0.000000 0.028375 0.488502
0.017876 0.026781 0.482124
0.149254 0.025187 0.475746
0.280632 0.023592 0.469368
0.412010 0.021997 0.462990
0.543388 0.020403 0.456612
0.674766 0.018808 0.450234
0.806144 0.017214 0.443856
0.937522 0.015619 0.437478
0.000000 0.148011 0.467046
0.039332 0.146417 0.460668
0.170710 0.144822 0.454290
0.302088 0.143228 0.447912
0.433466 0.141633 0.441534
0.564844 0.140039 0.435156
0.696222 0.138444 0.428778
0.827600 0.136850 0.422400
0.958978 0.135256 0.416022
0.000000 0.267647 0.445590
0.060788 0.266053 0.439212
0.192166 0.264458 0.432834
0.323544 0.262864 0.426456
0.454922 0.261269 0.420078
0.586300 0.259675 0.413700
0.717678 0.258080 0.407322
0.849056 0.256486 0.400944
0.980434 0.254891 0.394566
0.000000 0.387284 0.424134
0.082244 0.385689 0.417756
0.213622 0.384095 0.411378
0.345000 0.382500 0.405000
0.476378 0.380906 0.398622
0.607756 0.379311 0.392244
0.739134 0.377717 0.385866
0.870512 0.376122 0.379488
1.000000 0.374685 0.373740
0.000000 0.506919 0.402678
0.103700 0.505325 0.396300
0.235078 0.503730 0.389922
0.366456 0.502136 0.383544
0.497834 0.500541 0.377166
0.628510 0.499298 0.372192
0.758825 0.498235 0.367940
0.889140 0.497172 0.363688
1.000000 0.496109 0.359436
0.000000 0.626556 0.381222
0.125130 0.624974 0.374896
0.255445 0.623911 0.370644
0.385760 0.622848 0.366392
0.516075 0.621785 0.362140
0.646390 0.620722 0.357888
0.776705 0.619659 0.353636
0.907020 0.618596 0.349384
1.000000 0.617533 0.345132
0.012695 0.747461 0.364844
0.143010 0.746398 0.360592
0.273325 0.745335 0.356340
0.403640 0.744272 0.352088
0.533955 0.743209 0.347836
0.664270 0.742146 0.343584
0.794585 0.741083 0.339332
0.924900 0.740020 0.335080
1.000000 0.738957 0.330828
0.030575 0.868885 0.350540
0.160890 0.867822 0.346288
0.291205 0.866759 0.342036
0.421520 0.865696 0.337784
0.551835 0.864633 0.333532
0.682150 0.863570 0.329280
0.812465 0.862507 0.325028
0.942780 0.861444 0.320776
1.000000 0.860381 0.316524
0.048455 0.990309 0.336236
0.178770 0.989246 0.331984
0.309085 0.988183 0.327732
0.439400 0.987120 0.323480
0.569715 0.986057 0.319228
0.700030 0.984994 0.314976
0.830345 0.983931 0.310724
0.960660 0.982868 0.306472
1.000000 0.981805 0.302220
0.000000 0.027834 0.611336
0.020042 0.026239 0.604958
0.151420 0.024645 0.598580
0.282798 0.023050 0.592202
0.414176 0.021456 0.585824
0.545554 0.019862 0.579446
0.676932 0.018267 0.573068
0.808310 0.016672 0.566690
0.939688 0.015078 0.560312
0.000000 0.147470 0.589880
0.041498 0.145875 0.583502
0.172876 0.144281 0.577124
0.304254 0.142686 0.570746
0.435632 0.141092 0.564368
0.567010 0.139497 0.557990
0.698388 0.137903 0.551612
0.829766 0.136308 0.545234
0.961144 0.134714 0.538856
0.000000 0.267106 0.568424
0.062954 0.265512 0.562046
0.194332 0.263917 0.555668
0.325710 0.262323 0.549290
0.457088 0.260728 0.542912
0.588466 0.259134 0.536534
0.719844 0.257539 0.530156
0.851222 0.255945 0.523778
0.982600 0.254350 0.517400
0.000000 0.386742 0.546968
0.084410 0.385147 0.540590
0.215788 0.383553 0.534212
0.347166 0.381958 0.527834
0.478544 0.380364 0.521456
0.609922 0.378769 0.515078
0.741300 0.377175 0.508700
0.872678 0.375580 0.502322
1.000000 0.374324 0.497296
0.000000 0.506378 0.525512
0.105866 0.504784 0.519134
0.237244 0.503189 0.512756
0.368622 0.501595 0.506378
0.500000 0.500000 0.500000
0.630315 0.498937 0.495748
0.760630 0.497874 0.491496
0.890945 0.496811 0.487244
1.000000 0.495748 0.482992
0.000000 0.626014 0.504056
0.126935 0.624613 0.498452
0.257250 0.623550 0.494200
0.387565 0.622487 0.489948
0.517880 0.621424 0.485696
0.648195 0.620361 0.481444
0.778510 0.619298 0.477192
0.908825 0.618235 0.472940
1.000000 0.617172 0.468688
0.014500 0.747100 0.488400
0.144815 0.746037 0.484148
0.275130 0.744974 0.479896
0.405445 0.743911 0.475644
0.535760 0.742848 0.471392
0.666075 0.741785 0.467140
0.796390 0.740722 0.462888
0.926705 0.739659 0.458636
1.000000 0.738596 0.454384
0.032380 0.868524 0.474096
0.162695 0.867461 0.469844
0.293010 0.866398 0.465592
0.423325 0.865335 0.461340
0.553640 0.864272 0.457088
0.683955 0.863209 0.452836
0.814270 0.862146 0.448584
0.944585 0.861083 0.444332
1.000000 0.860020 0.440080
0.050260 0.989948 0.459792
0.180575 0.988885 0.455540
0.310890 0.987822 0.451288
0.441205 0.986759 0.447036
0.571520 0.985696 0.442784
0.701835 0.984633 0.438532
0.832150 0.983570 0.434280
0.962465 0.982507 0.430028
1.000000 0.981444 0.425776
0.000000 0.027293 0.734170
0.022208 0.025698 0.727792
0.153586 0.024103 0.721414
0.284964 0.022509 0.715036
0.416342 0.020914 0.708658
0.547720 0.019320 0.702280
0.679098 0.017725 0.695902
0.810476 0.016131 0.689524
0.941854 0.014537 0.683146
0.000000 0.146928 0.712714
0.043664 0.145334 0.706336
0.175042 0.143739 0.699958
0.306420 0.142145 0.693580
0.437798 0.140550 0.687202
0.569176 0.138956 0.680824
0.700554 0.137361 0.674446
0.831932 0.135767 0.668068
0.963310 0.134173 0.661690
0.000000 0.266564 0.691258
0.065120 0.264970 0.684880
0.196498 0.263375 0.678502
0.327876 0.261781 0.672124
0.459254 0.260186 0.665746
0.590632 0.258592 0.659368
0.722010 0.256997 0.652990
0.853388 0.255403 0.646612
0.984766 0.253808 0.640234
0.000000 0.386201 0.669802
0.086576 0.384606 0.663424
0.217954 0.383012 0.657046
0.349332 0.381417 0.650668
0.480710 0.379823 0.644290
0.612088 0.378228 0.637912
0.743466 0.376634 0.631534
0.874844 0.375039 0.625156
1.000000 0.373963 0.620852
0.000000 0.505837 0.648346
0.108032 0.504242 0.641968
0.239410 0.502648 0.635590
0.370788 0.501053 0.629212
0.501805 0.499639 0.623556
0.632120 0.498576 0.619304
0.762435 0.497513 0.615052
0.892750 0.496450 0.610800
1.000000 0.495387 0.606548
0.000000 0.625472 0.626890
0.128740 0.624252 0.622008
0.259055 0.623189 0.617756
0.389370 0.622126 0.613504
0.519685 0.621063 0.609252
0.650000 0.620000 0.605000
0.780315 0.618937 0.600748
0.910630 0.617874 0.596496
1.000000 0.616811 0.592244
0.016305 0.746739 0.611956
0.146620 0.745676 0.607704
0.276935 0.744613 0.603452
0.407250 0.743550 0.599200
0.537565 0.742487 0.594948
0.667880 0.741424 0.590696
0.798195 0.740361 0.586444
0.928510 0.739298 0.582192
1.000000 0.738235 0.577940
0.034185 0.868163 0.597652
0.164500 0.867100 0.593400
0.294815 0.866037 0.589148
0.425130 0.864974 0.584896
0.555445 0.863911 0.580644
0.685760 0.862848 0.576392
0.816075 0.861785 0.572140
0.946390 0.860722 0.567888
1.000000 0.859659 0.563636
0.052065 0.989587 0.583348
0.182380 0.988524 0.579096
0.312695 0.987461 0.574844
0.443010 0.986398 0.570592
0.573325 0.985335 0.566340
0.703640 0.984272 0.562088
0.833955 0.983209 0.557836
0.964270 0.982146 0.553584
1.000000 0.981083 0.549332
0.000000 0.026751 0.857004
0.024374 0.025156 0.850626
0.155752 0.023562 0.844248
0.287130 0.021967 0.837870
0.418508 0.020373 0.831492
0.549886 0.018779 0.825114
0.681264 0.017184 0.818736
0.812642 0.015589 0.812358
0.944020 0.013995 0.805980
0.000000 0.146387 0.835548
0.045830 0.144792 0.829170
0.177208 0.143198 0.822792
0.308586 0.141603 0.816414
0.439964 0.140009 0.810036
0.571342 0.138414 0.803658
0.702720 0.136820 0.797280
0.834098 0.135225 0.790902
0.965476 0.133631 0.784524
0.000000 0.266023 0.814092
0.067286 0.264429 0.807714
0.198664 0.262834 0.801336
0.330042 0.261240 0.794958
0.461420 0.259645 0.788580
0.592798 0.258051 0.782202
0.724176 0.256456 0.775824
0.855554 0.254862 0.769446
0.986932 0.253267 0.763068
0.000000 0.385659 0.792636
0.088742 0.384064 0.786258
0.220120 0.382470 0.779880
0.351498 0.380875 0.773502
0.482876 0.379281 0.767124
0.614254 0.377686 0.760746
0.745632 0.376092 0.754368
0.876675 0.374665 0.748660
1.000000 0.373602 0.744408
0.000000 0.505295 0.771180
0.110198 0.503700 0.764802
0.241576 0.502106 0.758424
0.372954 0.500511 0.752046
0.503610 0.499278 0.747112
0.633925 0.498215 0.742860
0.764240 0.497152 0.738608
0.894555 0.496089 0.734356
1.000000 0.495026 0.730104
0.000230 0.624954 0.749816
0.130545 0.623891 0.745564
0.260860 0.622828 0.741312
0.391175 0.621765 0.737060
0.521490 0.620702 0.732808
0.651805 0.619639 0.728556
0.782120 0.618576 0.724304
0.912435 0.617513 0.720052
1.000000 0.616450 0.715800
0.018110 0.746378 0.735512
0.148425 0.745315 0.731260
0.278740 0.744252 0.727008
0.409055 0.743189 0.722756
0.539370 0.742126 0.718504
0.669685 0.741063 0.714252
0.800000 0.740000 0.710000
0.930315 0.738937 0.705748
1.000000 0.737874 0.701496
0.035990 0.867802 0.721208
0.166305 0.866739 0.716956
0.296620 0.865676 0.712704
0.426935 0.864613 0.708452
0.557250 0.863550 0.704200
0.687565 0.862487 0.699948
0.817880 0.861424 0.695696
0.948195 0.860361 0.691444
1.000000 0.859298 0.687192
0.053870 0.989226 0.706904
0.184185 0.988163 0.702652
0.314500 0.987100 0.698400
0.444815 0.986037 0.694148
0.575130 0.984974 0.689896
0.705445 0.983911 0.685644
0.835760 0.982848 0.681392
0.966075 0.981785 0.677140
1.000000 0.980722 0.672888
0.000000 0.026210 0.979838
0.026540 0.024615 0.973460
0.157918 0.023020 0.967082
0.289296 0.021426 0.960704
0.420674 0.019831 0.954326
0.552052 0.018237 0.947948
0.683430 0.016642 0.941570
0.814808 0.015048 0.935192
0.946186 0.013454 0.928814
0.000000 0.145845 0.958382
0.047996 0.144251 0.952004
0.179374 0.142656 0.945626
0.310752 0.141062 0.939248
0.442130 0.139467 0.932870
0.573508 0.137873 0.926492
0.704886 0.136278 0.920114
0.836264 0.134684 0.913736
0.967642 0.133089 0.907358
0.000000 0.265481 0.936926
0.069452 0.263887 0.930548
0.200830 0.262292 0.924170
0.332208 0.260698 0.917792
0.463586 0.259103 0.911414
0.594964 0.257509 0.905036
0.726342 0.255914 0.898658
0.857720 0.254320 0.892280
0.989098 0.252725 0.885902
0.000000 0.385118 0.915470
0.090908 0.383523 0.909092
0.222286 0.381929 0.902714
0.353664 0.380334 0.896336
0.485042 0.378740 0.889958
0.616420 0.377145 0.883580
0.747798 0.375551 0.877202
0.878480 0.374304 0.872216
1.000000 0.373241 0.867964
0.000000 0.504753 0.894014
0.112364 0.503159 0.887636
0.243742 0.501564 0.881258
0.375100 0.499980 0.874920
0.505415 0.498917 0.870668
0.635730 0.497854 0.866416
0.766045 0.496791 0.862164
0.896360 0.495728 0.857912
1.000000 0.494665 0.853660
0.002035 0.624593 0.873372
0.132350 0.623530 0.869120
0.262665 0.622467 0.864868
0.392980 0.621404 0.860616
0.523295 0.620341 0.856364
0.653610 0.619278 0.852112
0.783925 0.618215 0.847860
0.914240 0.617152 0.843608
1.000000 0.616089 0.839356
0.019915 0.746017 0.859068
0.150230 0.744954 0.854816
0.280545 0.743891 0.850564
0.410860 0.742828 0.846312
0.541175 0.741765 0.842060
0.671490 0.740702 0.837808
0.801805 0.739639 0.833556
0.932120 0.738576 0.829304
1.000000 0.737513 0.825052
0.037795 0.867441 0.844764
0.168110 0.866378 0.840512
0.298425 0.865315 0.836260
0.428740 0.864252 0.832008
0.559055 0.863189 0.827756
0.689370 0.862126 0.823504
0.819685 0.861063 0.819252
0.950000 0.860000 0.815000
1.000000 0.858937 0.810748
0.055675 0.988865 0.830460
0.185990 0.987802 0.826208
0.316305 0.986739 0.821956
0.446620 0.985676 0.817704
0.576935 0.984613 0.813452
0.707250 0.983550 0.809200
0.837565 0.982487 0.804948
0.967880 0.981424 0.800696
1.000000 0.980361 0.796444
0.000000 0.025668 1.000000
0.028706 0.024073 1.000000
0.160084 0.022479 1.000000
0.291462 0.020885 1.000000
0.422840 0.019290 1.000000
0.554218 0.017695 1.000000
0.685596 0.016101 1.000000
0.816974 0.014507 1.000000
0.948352 0.012912 1.000000
0.000000 0.145304 1.000000
0.050162 0.143709 1.000000
0.181540 0.142115 1.000000
0.312918 0.140520 1.000000
0.444296 0.138926 1.000000
0.575674 0.137331 1.000000
0.707052 0.135737 1.000000
0.838430 0.134142 1.000000
0.969808 0.132548 1.000000
0.000000 0.264940 1.000000
0.071618 0.263346 1.000000
0.202996 0.261751 1.000000
0.334374 0.260157 1.000000
0.465752 0.258562 1.000000
0.597130 0.256968 1.000000
0.728508 0.255373 1.000000
0.859886 0.253779 1.000000
0.991264 0.252184 1.000000
0.000000 0.384576 1.000000
0.093074 0.382981 1.000000
0.224452 0.381387 1.000000
0.355830 0.379792 1.000000
0.487208 0.378198 1.000000
0.618586 0.376603 1.000000
0.749964 0.375009 1.000000
0.880285 0.373943 0.995772
1.000000 0.372880 0.991520
0.000000 0.504212 1.000000
0.114530 0.502618 1.000000
0.245908 0.501023 1.000000
0.376905 0.499619 0.998476
0.507220 0.498556 0.994224
0.637535 0.497493 0.989972
0.767850 0.496430 0.985720
0.898165 0.495367 0.981468
1.000000 0.494304 0.977216
0.003840 0.624232 0.996928
0.134155 0.623169 0.992676
0.264470 0.622106 0.988424
0.394785 0.621043 0.984172
0.525100 0.619980 0.979920
0.655415 0.618917 0.975668
0.785730 0.617854 0.971416
0.916045 0.616791 0.967164
1.000000 0.615728 0.962912
0.021720 0.745656 0.982624
0.152035 0.744593 0.978372
0.282350 0.743530 0.974120
0.412665 0.742467 0.969868
0.542980 0.741404 0.965616
0.673295 0.740341 0.961364
0.803610 0.739278 0.957112
0.933925 0.738215 0.952860
1.000000 0.737152 0.948608
0.039600 0.867080 0.968320
0.169915 0.866017 0.964068
0.300230 0.864954 0.959816
0.430545 0.863891 0.955564
0.560860 0.862828 0.951312
0.691175 0.861765 0.947060
0.821490 0.860702 0.942808
0.951805 0.859639 0.938556
1.000000 0.858576 0.934304
0.057480 0.988504 0.954016
0.187795 0.987441 0.949764
0.318110 0.986378 0.945512
0.448425 0.985315 0.941260
0.578740 0.984252 0.937008
0.709055 0.983189 0.932756
0.839370 0.982126 0.928504
0.969685 0.981063 0.924252
1.000000 0.980000 0.920000
