public/luts/cool_teal.cube
TITLE "Teal & Orange"
LUT_3D_SIZE 5
0.000000 0.030000 0.120000
0.142756 0.026811 0.107244
0.405512 0.023622 0.094488
0.668268 0.020433 0.081732
0.931024 0.017244 0.068976
0.000000 0.269272 0.077088
0.185668 0.266083 0.064332
0.448424 0.262894 0.051576
0.711180 0.259705 0.038820
0.973936 0.256516 0.026064
0.000000 0.508544 0.034176
0.228580 0.505355 0.021420
0.491336 0.502166 0.008664
0.753410 0.499318 0.000000
1.000000 0.497192 0.000000
0.007280 0.748544 0.000000
0.267910 0.746418 0.000000
0.528540 0.744292 0.000000
0.789170 0.742166 0.000000
1.000000 0.740040 0.000000
0.043040 0.991392 0.000000
0.303670 0.989266 0.000000
0.564300 0.987140 0.000000
0.824930 0.985014 0.000000
1.000000 0.982888 0.000000
0.000000 0.028917 0.365668
0.147088 0.025728 0.352912
0.409844 0.022539 0.340156
0.672600 0.019350 0.327400
0.935356 0.016161 0.314644
0.000000 0.268189 0.322756
0.190000 0.265000 0.310000
0.452756 0.261811 0.297244
0.715512 0.258622 0.284488
0.978268 0.255433 0.271732
0.000000 0.507461 0.279844
0.232912 0.504272 0.267088
0.495668 0.501083 0.254332
0.757020 0.498596 0.244384
1.000000 0.496470 0.235880
0.010890 0.747822 0.241288
0.271520 0.745696 0.232784
0.532150 0.743570 0.224280
0.792780 0.741444 0.215776
1.000000 0.739318 0.207272
0.046650 0.990670 0.212680
0.307280 0.988544 0.204176
0.567910 0.986418 0.195672
0.828540 0.984292 0.187168
1.000000 0.982166 0.178664
0.000000 0.027834 0.611336
0.151420 0.024645 0.598580
0.414176 0.021456 0.585824
0.676932 0.018267 0.573068
0.939688 0.015078 0.560312
0.000000 0.267106 0.568424
0.194332 0.263917 0.555668
0.457088 0.260728 0.542912
0.719844 0.257539 0.530156
0.982600 0.254350 0.517400
0.000000 0.506378 0.525512
0.237244 0.503189 0.512756
0.500000 0.500000 0.500000
0.760630 0.497874 0.491496
1.000000 0.495748 0.482992
0.014500 0.747100 0.488400
0.275130 0.744974 0.479896
0.535760 0.742848 0.471392
0.796390 0.740722 0.462888
1.000000 0.738596 0.454384
0.050260 0.989948 0.459792
0.310890 0.987822 0.451288
0.571520 0.985696 0.442784
0.832150 0.983570 0.434280
1.000000 0.981444 0.425776
0.000000 0.026751 0.857004
0.155752 0.023562 0.844248
0.418508 0.020373 0.831492
0.681264 0.017184 0.818736
0.944020 0.013995 0.805980
0.000000 0.266023 0.814092
0.198664 0.262834 0.801336
0.461420 0.259645 0.788580
0.724176 0.256456 0.775824
0.986932 0.253267 0.763068
0.000000 0.505295 0.771180
0.241576 0.502106 0.758424
0.503610 0.499278 0.747112
0.764240 0.497152 0.738608
1.000000 0.495026 0.730104
0.018110 0.746378 0.735512
0.278740 0.744252 0.727008
0.539370 0.742126 0.718504
0.800000 0.740000 0.710000
1.000000 0.737874 0.701496
0.053870 0.989226 0.706904
0.314500 0.987100 0.698400
0.575130 0.984974 0.689896
0.835760 0.982848 0.681392
1.000000 0.980722 0.672888
0.000000 0.025668 1.000000
0.160084 0.022479 1.000000
0.422840 0.019290 1.000000
0.685596 0.016101 1.000000
0.948352 0.012912 1.000000
0.000000 0.264940 1.000000
0.202996 0.261751 1.000000
0.465752 0.258562 1.000000
0.728508 0.255373 1.000000
0.991264 0.252184 1.000000
0.000000 0.504212 1.000000
0.245908 0.501023 1.000000
0.507220 0.498556 0.994224
0.767850 0.496430 0.985720
1.000000 0.494304 0.977216
0.021720 0.745656 0.982624
0.282350 0.743530 0.974120
0.542980 0.741404 0.965616
0.803610 0.739278 0.957112
1.000000 0.737152 0.948608
0.057480 0.988504 0.954016
0.318110 0.986378 0.945512
0.578740 0.984252 0.937008
0.839370 0.982126 0.928504
1.000000 0.980000 0.920000
