public/luts/high_contrast.cube
TITLE "High Contrast"
LUT_3D_SIZE 5
0.000000 0.000000 0.000000
0.164938 0.000000 0.000000
0.500000 0.000000 0.000000
0.835062 0.000000 0.000000
1.000000 0.000000 0.000000
0.000000 0.164938 0.000000
0.164938 0.164938 0.000000
0.500000 0.164938 0.000000
0.835062 0.164938 0.000000
1.000000 0.164938 0.000000
0.000000 0.500000 0.000000
0.164938 0.500000 0.000000
0.500000 0.500000 0.000000
0.835062 0.500000 0.000000
1.000000 0.500000 0.000000
0.000000 0.835062 0.000000
0.164938 0.835062 0.000000
0.500000 0.835062 0.000000
0.835062 0.835062 0.000000
1.000000 0.835062 0.000000
0.000000 1.000000 0.000000
0.164938 1.000000 0.000000
0.500000 1.000000 0.000000
0.835062 1.000000 0.000000
1.000000 1.000000 0.000000
0.000000 0.000000 0.164938
0.164938 0.000000 0.164938
0.500000 0.000000 0.164938
0.835062 0.000000 0.164938
1.000000 0.000000 0.164938
0.000000 0.164938 0.164938
0.164938 0.164938 0.164938
0.500000 0.164938 0.164938
0.835062 0.164938 0.164938
1.000000 0.164938 0.164938
0.000000 0.500000 0.164938
0.164938 0.500000 0.164938
0.500000 0.500000 0.164938
0.835062 0.500000 0.164938
1.000000 0.500000 0.164938
0.000000 0.835062 0.164938
0.164938 0.835062 0.164938
0.500000 0.835062 0.164938
0.835062 0.835062 0.164938
1.000000 0.835062 0.164938
0.000000 1.000000 0.164938
0.164938 1.000000 0.164938
0.500000 1.000000 0.164938
0.835062 1.000000 0.164938
1.000000 1.000000 0.164938
0.000000 0.000000 0.500000
0.164938 0.000000 0.500000
0.500000 0.000000 0.500000
0.835062 0.000000 0.500000
1.000000 0.000000 0.500000
0.000000 0.164938 0.500000
0.164938 0.164938 0.500000
0.500000 0.164938 0.500000
0.835062 0.164938 0.500000
1.000000 0.164938 0.500000
0.000000 0.500000 0.500000
0.164938 0.500000 0.500000
0.500000 0.500000 0.500000
0.835062 0.500000 0.500000
1.000000 0.500000 0.500000
0.000000 0.835062 0.500000
0.164938 0.835062 0.500000
0.500000 0.835062 0.500000
0.835062 0.835062 0.500000
1.000000 0.835062 0.500000
0.000000 1.000000 0.500000
0.164938 1.000000 0.500000
0.500000 1.000000 0.500000
0.835062 1.000000 0.500000
1.000000 1.000000 0.500000
0.000000 0.000000 0.835062
0.164938 0.000000 0.835062
0.500000 0.000000 0.835062
0.835062 0.000000 0.835062
1.000000 0.000000 0.835062
0.000000 0.164938 0.835062
0.164938 0.164938 0.835062
0.500000 0.164938 0.835062
0.835062 0.164938 0.835062
1.000000 0.164938 0.835062
0.000000 0.500000 0.835062
0.164938 0.500000 0.835062
0.500000 0.500000 0.835062
0.835062 0.500000 0.835062
1.000000 0.500000 0.835062
0.000000 0.835062 0.835062
0.164938 0.835062 0.835062
0.500000 0.835062 0.835062
0.835062 0.835062 0.835062
1.000000 0.835062 0.835062
0.000000 1.000000 0.835062
0.164938 1.000000 0.835062
0.500000 1.000000 0.835062
0.835062 1.000000 0.835062
1.000000 1.000000 0.835062
0.000000 0.000000 1.000000
0.164938 0.000000 1.000000
0.500000 0.000000 1.000000
0.835062 0.000000 1.000000
1.000000 0.000000 1.000000
0.000000 0.164938 1.000000
0.164938 0.164938 1.000000
0.500000 0.164938 1.000000
0.835062 0.164938 1.000000
1.000000 0.164938 1.000000
0.000000 0.500000 1.000000
0.164938 0.500000 1.000000
0.500000 0.500000 1.000000
0.835062 0.500000 1.000000
1.000000 0.500000 1.000000
0.000000 0.835062 1.000000
0.164938 0.835062 1.000000
0.500000 0.835062 1.000000
0.835062 0.835062 1.000000
1.000000 0.835062 1.000000
0.000000 1.000000 1.000000
0.164938 1.000000 1.000000
0.500000 1.000000 1.000000
0.835062 1.000000 1.000000
1.000000 1.000000 1.000000
