public/luts/high_contrast.cube
TITLE "High Contrast"
LUT_3D_SIZE 33
0.000000 0.000000 0.000000
0.005921 0.000000 0.000000
0.017948 0.000000 0.000000
0.034338 0.000000 0.000000
0.054409 0.000000 0.000000
0.077755 0.000000 0.000000
0.104093 0.000000 0.000000
0.133209 0.000000 0.000000
0.164938 0.000000 0.000000
0.199143 0.000000 0.000000
0.235710 0.000000 0.000000
0.274540 0.000000 0.000000
0.315550 0.000000 0.000000
0.358664 0.000000 0.000000
0.403815 0.000000 0.000000
0.450945 0.000000 0.000000
0.500000 0.000000 0.000000
0.549055 0.000000 0.000000
0.596185 0.000000 0.000000
0.641336 0.000000 0.000000
0.684450 0.000000 0.000000
0.725460 0.000000 0.000000
0.764290 0.000000 0.000000
0.800857 0.000000 0.000000
0.835062 0.000000 0.000000
0.866791 0.000000 0.000000
0.895907 0.000000 0.000000
0.922245 0.000000 0.000000
0.945591 0.000000 0.000000
0.965662 0.000000 0.000000
0.982052 0.000000 0.000000
0.994079 0.000000 0.000000
1.000000 0.000000 0.000000
0.000000 0.005921 0.000000
0.005921 0.005921 0.000000
0.017948 0.005921 0.000000
0.034338 0.005921 0.000000
0.054409 0.005921 0.000000
0.077755 0.005921 0.000000
0.104093 0.005921 0.000000
0.133209 0.005921 0.000000
0.164938 0.005921 0.000000
0.199143 0.005921 0.000000
0.235710 0.005921 0.000000
0.274540 0.005921 0.000000
0.315550 0.005921 0.000000
0.358664 0.005921 0.000000
0.403815 0.005921 0.000000
0.450945 0.005921 0.000000
0.500000 0.005921 0.000000
0.549055 0.005921 0.000000
0.596185 0.005921 0.000000
0.641336 0.005921 0.000000
0.684450 0.005921 0.000000
0.725460 0.005921 0.000000
0.764290 0.005921 0.000000
0.800857 0.005921 0.000000
0.835062 0.005921 0.000000
0.866791 0.005921 0.000000
0.895907 0.005921 0.000000
0.922245 0.005921 0.000000
0.945591 0.005921 0.000000
0.965662 0.005921 0.000000
0.982052 0.005921 0.000000
0.994079 0.005921 0.000000
1.000000 0.005921 0.000000
0.000000 0.017948 0.000000
0.005921 0.017948 0.000000
0.017948 0.017948 0.000000
0.034338 0.017948 0.000000
0.054409 0.017948 0.000000
0.077755 0.017948 0.000000
0.104093 0.017948 0.000000
0.133209 0.017948 0.000000
0.164938 0.017948 0.000000
0.199143 0.017948 0.000000
0.235710 0.017948 0.000000
0.274540 0.017948 0.000000
0.315550 0.017948 0.000000
0.358664 0.017948 0.000000
0.403815 0.017948 0.000000
0.450945 0.017948 0.000000
0.500000 0.017948 0.000000
0.549055 0.017948 0.000000
0.596185 0.017948 0.000000
0.641336 0.017948 0.000000
0.684450 0.017948 0.000000
0.725460 0.017948 0.000000
0.764290 0.017948 0.000000
0.800857 0.017948 0.000000
0.835062 0.017948 0.000000
0.866791 0.017948 0.000000
0.895907 0.017948 0.000000
0.922245 0.017948 0.000000
0.945591 0.017948 0.000000
0.965662 0.017948 0.000000
0.982052 0.017948 0.000000
0.994079 0.017948 0.000000
1.000000 0.017948 0.000000
0.000000 0.034338 0.000000
0.005921 0.034338 0.000000
0.017948 0.034338 0.000000
0.034338 0.034338 0.000000
0.054409 0.034338 0.000000
0.077755 0.034338 0.000000
0.104093 0.034338 0.000000
0.133209 0.034338 0.000000
0.164938 0.034338 0.000000
0.199143 0.034338 0.000000
0.235710 0.034338 0.000000
0.274540 0.034338 0.000000
0.315550 0.034338 0.000000
0.358664 0.034338 0.000000
0.403815 0.034338 0.000000
0.450945 0.034338 0.000000
0.500000 0.034338 0.000000
0.549055 0.034338 0.000000
0.596185 0.034338 0.000000
0.641336 0.034338 0.000000
0.684450 0.034338 0.000000
0.725460 0.034338 0.000000
0.764290 0.034338 0.000000
0.800857 0.034338 0.000000
0.835062 0.034338 0.000000
0.866791 0.034338 0.000000
0.895907 0.034338 0.000000
0.922245 0.034338 0.000000
0.945591 0.034338 0.000000
0.965662 0.034338 0.000000
0.982052 0.034338 0.000000
0.994079 0.034338 0.000000
1.000000 0.034338 0.000000
0.000000 0.054409 0.000000
0.005921 0.054409 0.000000
0.017948 0.054409 0.000000
0.034338 0.054409 0.000000
0.054409 0.054409 0.000000
0.077755 0.054409 0.000000
0.104093 0.054409 0.000000
0.133209 0.054409 0.000000
0.164938 0.054409 0.000000
0.199143 0.054409 0.000000
0.235710 0.054409 0.000000
0.274540 0.054409 0.000000
0.315550 0.054409 0.000000
0.358664 0.054409 0.000000
0.403815 0.054409 0.000000
0.450945 0.054409 0.000000
0.500000 0.054409 0.000000
0.549055 0.054409 0.000000
0.596185 0.054409 0.000000
0.641336 0.054409 0.000000
0.684450 0.054409 0.000000
0.725460 0.054409 0.000000
0.764290 0.054409 0.000000
0.800857 0.054409 0.000000
0.835062 0.054409 0.000000
0.866791 0.054409 0.000000
0.895907 0.054409 0.000000
0.922245 0.054409 0.000000
0.945591 0.054409 0.000000
0.965662 0.054409 0.000000
0.982052 0.054409 0.000000
0.994079 0.054409 0.000000
1.000000 0.054409 0.000000
0.000000 0.077755 0.000000
0.005921 0.077755 0.000000
0.017948 0.077755 0.000000
0.034338 0.077755 0.000000
0.054409 0.077755 0.000000
0.077755 0.077755 0.000000
0.104093 0.077755 0.000000
0.133209 0.077755 0.000000
0.164938 0.077755 0.000000
0.199143 0.077755 0.000000
0.235710 0.077755 0.000000
0.274540 0.077755 0.000000
0.315550 0.077755 0.000000
0.358664 0.077755 0.000000
0.403815 0.077755 0.000000
0.450945 0.077755 0.000000
0.500000 0.077755 0.000000
0.549055 0.077755 0.000000
0.596185 0.077755 0.000000
0.641336 0.077755 0.000000
0.684450 0.077755 0.000000
0.725460 0.077755 0.000000
0.764290 0.077755 0.000000
0.800857 0.077755 0.000000
0.835062 0.077755 0.000000
0.866791 0.077755 0.000000
0.895907 0.077755 0.000000
0.922245 0.077755 0.000000
0.945591 0.077755 0.000000
0.965662 0.077755 0.000000
0.982052 0.077755 0.000000
0.994079 0.077755 0.000000
1.000000 0.077755 0.000000
0.000000 0.104093 0.000000
0.005921 0.104093 0.000000
0.017948 0.104093 0.000000
0.034338 0.104093 0.000000
0.054409 0.104093 0.000000
0.077755 0.104093 0.000000
0.104093 0.104093 0.000000
0.133209 0.104093 0.000000
0.164938 0.104093 0.000000
0.199143 0.104093 0.000000
0.235710 0.104093 0.000000
0.274540 0.104093 0.000000
0.315550 0.104093 0.000000
0.358664 0.104093 0.000000
0.403815 0.104093 0.000000
0.450945 0.104093 0.000000
0.500000 0.104093 0.000000
0.549055 0.104093 0.000000
0.596185 0.104093 0.000000
0.641336 0.104093 0.000000
0.684450 0.104093 0.000000
0.725460 0.104093 0.000000
0.764290 0.104093 0.000000
0.800857 0.104093 0.000000
0.835062 0.104093 0.000000
0.866791 0.104093 0.000000
0.895907 0.104093 0.000000
0.922245 0.104093 0.000000
0.945591 0.104093 0.000000
0.965662 0.104093 0.000000
0.982052 0.104093 0.000000
0.994079 0.104093 0.000000
1.000000 0.104093 0.000000
0.000000 0.133209 0.000000
0.005921 0.133209 0.000000
0.017948 0.133209 0.000000
0.034338 0.133209 0.000000
0.054409 0.133209 0.000000
0.077755 0.133209 0.000000
0.104093 0.133209 0.000000
0.133209 0.133209 0.000000
0.164938 0.133209 0.000000
0.199143 0.133209 0.000000
0.235710 0.133209 0.000000
0.274540 0.133209 0.000000
0.315550 0.133209 0.000000
0.358664 0.133209 0.000000
0.403815 0.133209 0.000000
0.450945 0.133209 0.000000
0.500000 0.133209 0.000000
0.549055 0.133209 0.000000
0.596185 0.133209 0.000000
0.641336 0.133209 0.000000
0.684450 0.133209 0.000000
0.725460 0.133209 0.000000
0.764290 0.133209 0.000000
0.800857 0.133209 0.000000
0.835062 0.133209 0.000000
0.866791 0.133209 0.000000
0.895907 0.133209 0.000000
0.922245 0.133209 0.000000
0.945591 0.133209 0.000000
0.965662 0.133209 0.000000
0.982052 0.133209 0.000000
0.994079 0.133209 0.000000
1.000000 0.133209 0.000000
0.000000 0.164938 0.000000
0.005921 0.164938 0.000000
0.017948 0.164938 0.000000
0.034338 0.164938 0.000000
0.054409 0.164938 0.000000
0.077755 0.164938 0.000000
0.104093 0.164938 0.000000
0.133209 0.164938 0.000000
0.164938 0.164938 0.000000
0.199143 0.164938 0.000000
0.235710 0.164938 0.000000
0.274540 0.164938 0.000000
0.315550 0.164938 0.000000
0.358664 0.164938 0.000000
0.403815 0.164938 0.000000
0.450945 0.164938 0.000000
0.500000 0.164938 0.000000
0.549055 0.164938 0.000000
0.596185 0.164938 0.000000
0.641336 0.164938 0.000000
0.684450 0.164938 0.000000
0.725460 0.164938 0.000000
0.764290 0.164938 0.000000
0.800857 0.164938 0.000000
0.835062 0.164938 0.000000
0.866791 0.164938 0.000000
0.895907 0.164938 0.000000
0.922245 0.164938 0.000000
0.945591 0.164938 0.000000
0.965662 0.164938 0.000000
0.982052 0.164938 0.000000
0.994079 0.164938 0.000000
1.000000 0.164938 0.000000
0.000000 0.199143 0.000000
0.005921 0.199143 0.000000
0.017948 0.199143 0.000000
0.034338 0.199143 0.000000
0.054409 0.199143 0.000000
0.077755 0.199143 0.000000
0.104093 0.199143 0.000000
0.133209 0.199143 0.000000
0.164938 0.199143 0.000000
0.199143 0.199143 0.000000
0.235710 0.199143 0.000000
0.274540 0.199143 0.000000
0.315550 0.199143 0.000000
0.358664 0.199143 0.000000
0.403815 0.199143 0.000000
0.450945 0.199143 0.000000
0.500000 0.199143 0.000000
0.549055 0.199143 0.000000
0.596185 0.199143 0.000000
0.641336 0.199143 0.000000
0.684450 0.199143 0.000000
0.725460 0.199143 0.000000
0.764290 0.199143 0.000000
0.800857 0.199143 0.000000
0.835062 0.199143 0.000000
0.866791 0.199143 0.000000
0.895907 0.199143 0.000000
0.922245 0.199143 0.000000
0.945591 0.199143 0.000000
0.965662 0.199143 0.000000
0.982052 0.199143 0.000000
0.994079 0.199143 0.000000
1.000000 0.199143 0.000000
0.000000 0.235710 0.000000
0.005921 0.235710 0.000000
0.017948 0.235710 0.000000
0.034338 0.235710 0.000000
0.054409 0.235710 0.000000
0.077755 0.235710 0.000000
0.104093 0.235710 0.000000
0.133209 0.235710 0.000000
0.164938 0.235710 0.000000
0.199143 0.235710 0.000000
0.235710 0.235710 0.000000
0.274540 0.235710 0.000000
0.315550 0.235710 0.000000
0.358664 0.235710 0.000000
0.403815 0.235710 0.000000
0.450945 0.235710 0.000000
0.500000 0.235710 0.000000
0.549055 0.235710 0.000000
0.596185 0.235710 0.000000
0.641336 0.235710 0.000000
0.684450 0.235710 0.000000
0.725460 0.235710 0.000000
0.764290 0.235710 0.000000
0.800857 0.235710 0.000000
0.835062 0.235710 0.000000
0.866791 0.235710 0.000000
0.895907 0.235710 0.000000
0.922245 0.235710 0.000000
0.945591 0.235710 0.000000
0.965662 0.235710 0.000000
0.982052 0.235710 0.000000
0.994079 0.235710 0.000000
1.000000 0.235710 0.000000
0.000000 0.274540 0.000000
0.005921 0.274540 0.000000
0.017948 0.274540 0.000000
0.034338 0.274540 0.000000
0.054409 0.274540 0.000000
0.077755 0.274540 0.000000
0.104093 0.274540 0.000000
0.133209 0.274540 0.000000
0.164938 0.274540 0.000000
0.199143 0.274540 0.000000
0.235710 0.274540 0.000000
0.274540 0.274540 0.000000
0.315550 0.274540 0.000000
0.358664 0.274540 0.000000
0.403815 0.274540 0.000000
0.450945 0.274540 0.000000
0.500000 0.274540 0.000000
0.549055 0.274540 0.000000
0.596185 0.274540 0.000000
0.641336 0.274540 0.000000
0.684450 0.274540 0.000000
0.725460 0.274540 0.000000
0.764290 0.274540 0.000000
0.800857 0.274540 0.000000
0.835062 0.274540 0.000000
0.866791 0.274540 0.000000
0.895907 0.274540 0.000000
0.922245 0.274540 0.000000
0.945591 0.274540 0.000000
0.965662 0.274540 0.000000
0.982052 0.274540 0.000000
0.994079 0.274540 0.000000
1.000000 0.274540 0.000000
0.000000 0.315550 0.000000
0.005921 0.315550 0.000000
0.017948 0.315550 0.000000
0.034338 0.315550 0.000000
0.054409 0.315550 0.000000
0.077755 0.315550 0.000000
0.104093 0.315550 0.000000
0.133209 0.315550 0.000000
0.164938 0.315550 0.000000
0.199143 0.315550 0.000000
0.235710 0.315550 0.000000
0.274540 0.315550 0.000000
0.315550 0.315550 0.000000
0.358664 0.315550 0.000000
0.403815 0.315550 0.000000
0.450945 0.315550 0.000000
0.500000 0.315550 0.000000
0.549055 0.315550 0.000000
0.596185 0.315550 0.000000
0.641336 0.315550 0.000000
0.684450 0.315550 0.000000
0.725460 0.315550 0.000000
0.764290 0.315550 0.000000
0.800857 0.315550 0.000000
0.835062 0.315550 0.000000
0.866791 0.315550 0.000000
0.895907 0.315550 0.000000
0.922245 0.315550 0.000000
0.945591 0.315550 0.000000
0.965662 0.315550 0.000000
0.982052 0.315550 0.000000
0.994079 0.315550 0.000000
1.000000 0.315550 0.000000
0.000000 0.358664 0.000000
0.005921 0.358664 0.000000
0.017948 0.358664 0.000000
0.034338 0.358664 0.000000
0.054409 0.358664 0.000000
0.077755 0.358664 0.000000
0.104093 0.358664 0.000000
0.133209 0.358664 0.000000
0.164938 0.358664 0.000000
0.199143 0.358664 0.000000
0.235710 0.358664 0.000000
0.274540 0.358664 0.000000
0.315550 0.358664 0.000000
0.358664 0.358664 0.000000
0.403815 0.358664 0.000000
0.450945 0.358664 0.000000
0.500000 0.358664 0.000000
0.549055 0.358664 0.000000
0.596185 0.358664 0.000000
0.641336 0.358664 0.000000
0.684450 0.358664 0.000000
0.725460 0.358664 0.000000
0.764290 0.358664 0.000000
0.800857 0.358664 0.000000
0.835062 0.358664 0.000000
0.866791 0.358664 0.000000
0.895907 0.358664 0.000000
0.922245 0.358664 0.000000
0.945591 0.358664 0.000000
0.965662 0.358664 0.000000
0.982052 0.358664 0.000000
0.994079 0.358664 0.000000
1.000000 0.358664 0.000000
0.000000 0.403815 0.000000
0.005921 0.403815 0.000000
0.017948 0.403815 0.000000
0.034338 0.403815 0.000000
0.054409 0.403815 0.000000
0.077755 0.403815 0.000000
0.104093 0.403815 0.000000
0.133209 0.403815 0.000000
0.164938 0.403815 0.000000
0.199143 0.403815 0.000000
0.235710 0.403815 0.000000
0.274540 0.403815 0.000000
0.315550 0.403815 0.000000
0.358664 0.403815 0.000000
0.403815 0.403815 0.000000
0.450945 0.403815 0.000000
0.500000 0.403815 0.000000
0.549055 0.403815 0.000000
0.596185 0.403815 0.000000
0.641336 0.403815 0.000000
0.684450 0.403815 0.000000
0.725460 0.403815 0.000000
0.764290 0.403815 0.000000
0.800857 0.403815 0.000000
0.835062 0.403815 0.000000
0.866791 0.403815 0.000000
0.895907 0.403815 0.000000
0.922245 0.403815 0.000000
0.945591 0.403815 0.000000
0.965662 0.403815 0.000000
0.982052 0.403815 0.000000
0.994079 0.403815 0.000000
1.000000 0.403815 0.000000
0.000000 0.450945 0.000000
0.005921 0.450945 0.000000
0.017948 0.450945 0.000000
0.034338 0.450945 0.000000
0.054409 0.450945 0.000000
0.077755 0.450945 0.000000
0.104093 0.450945 0.000000
0.133209 0.450945 0.000000
0.164938 0.450945 0.000000
0.199143 0.450945 0.000000
0.235710 0.450945 0.000000
0.274540 0.450945 0.000000
0.315550 0.450945 0.000000
0.358664 0.450945 0.000000
0.403815 0.450945 0.000000
0.450945 0.450945 0.000000
0.500000 0.450945 0.000000
0.549055 0.450945 0.000000
0.596185 0.450945 0.000000
0.641336 0.450945 0.000000
0.684450 0.450945 0.000000
0.725460 0.450945 0.000000
0.764290 0.450945 0.000000
0.800857 0.450945 0.000000
0.835062 0.450945 0.000000
0.866791 0.450945 0.000000
0.895907 0.450945 0.000000
0.922245 0.450945 0.000000
0.945591 0.450945 0.000000
0.965662 0.450945 0.000000
0.982052 0.450945 0.000000
0.994079 0.450945 0.000000
1.000000 0.450945 0.000000
0.000000 0.500000 0.000000
0.005921 0.500000 0.000000
0.017948 0.500000 0.000000
0.034338 0.500000 0.000000
0.054409 0.500000 0.000000
0.077755 0.500000 0.000000
0.104093 0.500000 0.000000
0.133209 0.500000 0.000000
0.164938 0.500000 0.000000
0.199143 0.500000 0.000000
0.235710 0.500000 0.000000
0.274540 0.500000 0.000000
0.315550 0.500000 0.000000
0.358664 0.500000 0.000000
0.403815 0.500000 0.000000
0.450945 0.500000 0.000000
0.500000 0.500000 0.000000
0.549055 0.500000 0.000000
0.596185 0.500000 0.000000
0.641336 0.500000 0.000000
0.684450 0.500000 0.000000
0.725460 0.500000 0.000000
0.764290 0.500000 0.000000
0.800857 0.500000 0.000000
0.835062 0.500000 0.000000
0.866791 0.500000 0.000000
0.895907 0.500000 0.000000
0.922245 0.500000 0.000000
0.945591 0.500000 0.000000
0.965662 0.500000 0.000000
0.982052 0.500000 0.000000
0.994079 0.500000 0.000000
1.000000 0.500000 0.000000
0.000000 0.549055 0.000000
0.005921 0.549055 0.000000
0.017948 0.549055 0.000000
0.034338 0.549055 0.000000
0.054409 0.549055 0.000000
0.077755 0.549055 0.000000
0.104093 0.549055 0.000000
0.133209 0.549055 0.000000
0.164938 0.549055 0.000000
0.199143 0.549055 0.000000
0.235710 0.549055 0.000000
0.274540 0.549055 0.000000
0.315550 0.549055 0.000000
0.358664 0.549055 0.000000
0.403815 0.549055 0.000000
0.450945 0.549055 0.000000
0.500000 0.549055 0.000000
0.549055 0.549055 0.000000
0.596185 0.549055 0.000000
0.641336 0.549055 0.000000
0.684450 0.549055 0.000000
0.725460 0.549055 0.000000
0.764290 0.549055 0.000000
0.800857 0.549055 0.000000
0.835062 0.549055 0.000000
0.866791 0.549055 0.000000
0.895907 0.549055 0.000000
0.922245 0.549055 0.000000
0.945591 0.549055 0.000000
0.965662 0.549055 0.000000
0.982052 0.549055 0.000000
0.994079 0.549055 0.000000
1.000000 0.549055 0.000000
0.000000 0.596185 0.000000
0.005921 0.596185 0.000000
0.017948 0.596185 0.000000
0.034338 0.596185 0.000000
0.054409 0.596185 0.000000
0.077755 0.596185 0.000000
0.104093 0.596185 0.000000
0.133209 0.596185 0.000000
0.164938 0.596185 0.000000
0.199143 0.596185 0.000000
0.235710 0.596185 0.000000
0.274540 0.596185 0.000000
0.315550 0.596185 0.000000
0.358664 0.596185 0.000000
0.403815 0.596185 0.000000
0.450945 0.596185 0.000000
0.500000 0.596185 0.000000
0.549055 0.596185 0.000000
0.596185 0.596185 0.000000
0.641336 0.596185 0.000000
0.684450 0.596185 0.000000
0.725460 0.596185 0.000000
0.764290 0.596185 0.000000
0.800857 0.596185 0.000000
0.835062 0.596185 0.000000
0.866791 0.596185 0.000000
0.895907 0.596185 0.000000
0.922245 0.596185 0.000000
0.945591 0.596185 0.000000
0.965662 0.596185 0.000000
0.982052 0.596185 0.000000
0.994079 0.596185 0.000000
1.000000 0.596185 0.000000
0.000000 0.641336 0.000000
0.005921 0.641336 0.000000
0.017948 0.641336 0.000000
0.034338 0.641336 0.000000
0.054409 0.641336 0.000000
0.077755 0.641336 0.000000
0.104093 0.641336 0.000000
0.133209 0.641336 0.000000
0.164938 0.641336 0.000000
0.199143 0.641336 0.000000
0.235710 0.641336 0.000000
0.274540 0.641336 0.000000
0.315550 0.641336 0.000000
0.358664 0.641336 0.000000
0.403815 0.641336 0.000000
0.450945 0.641336 0.000000
0.500000 0.641336 0.000000
0.549055 0.641336 0.000000
0.596185 0.641336 0.000000
0.641336 0.641336 0.000000
0.684450 0.641336 0.000000
0.725460 0.641336 0.000000
0.764290 0.641336 0.000000
0.800857 0.641336 0.000000
0.835062 0.641336 0.000000
0.866791 0.641336 0.000000
0.895907 0.641336 0.000000
0.922245 0.641336 0.000000
0.945591 0.641336 0.000000
0.965662 0.641336 0.000000
0.982052 0.641336 0.000000
0.994079 0.641336 0.000000
1.000000 0.641336 0.000000
0.000000 0.684450 0.000000
0.005921 0.684450 0.000000
0.017948 0.684450 0.000000
0.034338 0.684450 0.000000
0.054409 0.684450 0.000000
0.077755 0.684450 0.000000
0.104093 0.684450 0.000000
0.133209 0.684450 0.000000
0.164938 0.684450 0.000000
0.199143 0.684450 0.000000
0.235710 0.684450 0.000000
0.274540 0.684450 0.000000
0.315550 0.684450 0.000000
0.358664 0.684450 0.000000
0.403815 0.684450 0.000000
0.450945 0.684450 0.000000
0.500000 0.684450 0.000000
0.549055 0.684450 0.000000
0.596185 0.684450 0.000000
0.641336 0.684450 0.000000
0.684450 0.684450 0.000000
0.725460 0.684450 0.000000
0.764290 0.684450 0.000000
0.800857 0.684450 0.000000
0.835062 0.684450 0.000000
0.866791 0.684450 0.000000
0.895907 0.684450 0.000000
0.922245 0.684450 0.000000
0.945591 0.684450 0.000000
0.965662 0.684450 0.000000
0.982052 0.684450 0.000000
0.994079 0.684450 0.000000
1.000000 0.684450 0.000000
0.000000 0.725460 0.000000
0.005921 0.725460 0.000000
0.017948 0.725460 0.000000
0.034338 0.725460 0.000000
0.054409 0.725460 0.000000
0.077755 0.725460 0.000000
0.104093 0.725460 0.000000
0.133209 0.725460 0.000000
0.164938 0.725460 0.000000
0.199143 0.725460 0.000000
0.235710 0.725460 0.000000
0.274540 0.725460 0.000000
0.315550 0.725460 0.000000
0.358664 0.725460 0.000000
0.403815 0.725460 0.000000
0.450945 0.725460 0.000000
0.500000 0.725460 0.000000
0.549055 0.725460 0.000000
0.596185 0.725460 0.000000
0.641336 0.725460 0.000000
0.684450 0.725460 0.000000
0.725460 0.725460 0.000000
0.764290 0.725460 0.000000
0.800857 0.725460 0.000000
0.835062 0.725460 0.000000
0.866791 0.725460 0.000000
0.895907 0.725460 0.000000
0.922245 0.725460 0.000000
0.945591 0.725460 0.000000
0.965662 0.725460 0.000000
0.982052 0.725460 0.000000
0.994079 0.725460 0.000000
1.000000 0.725460 0.000000
0.000000 0.764290 0.000000
0.005921 0.764290 0.000000
0.017948 0.764290 0.000000
0.034338 0.764290 0.000000
0.054409 0.764290 0.000000
0.077755 0.764290 0.000000
0.104093 0.764290 0.000000
0.133209 0.764290 0.000000
0.164938 0.764290 0.000000
0.199143 0.764290 0.000000
0.235710 0.764290 0.000000
0.274540 0.764290 0.000000
0.315550 0.764290 0.000000
0.358664 0.764290 0.000000
0.403815 0.764290 0.000000
0.450945 0.764290 0.000000
0.500000 0.764290 0.000000
0.549055 0.764290 0.000000
0.596185 0.764290 0.000000
0.641336 0.764290 0.000000
0.684450 0.764290 0.000000
0.725460 0.764290 0.000000
0.764290 0.764290 0.000000
0.800857 0.764290 0.000000
0.835062 0.764290 0.000000
0.866791 0.764290 0.000000
0.895907 0.764290 0.000000
0.922245 0.764290 0.000000
0.945591 0.764290 0.000000
0.965662 0.764290 0.000000
0.982052 0.764290 0.000000
0.994079 0.764290 0.000000
1.000000 0.764290 0.000000
0.000000 0.800857 0.000000
0.005921 0.800857 0.000000
0.017948 0.800857 0.000000
0.034338 0.800857 0.000000
0.054409 0.800857 0.000000
0.077755 0.800857 0.000000
0.104093 0.800857 0.000000
0.133209 0.800857 0.000000
0.164938 0.800857 0.000000
0.199143 0.800857 0.000000
0.235710 0.800857 0.000000
0.274540 0.800857 0.000000
0.315550 0.800857 0.000000
0.358664 0.800857 0.000000
0.403815 0.800857 0.000000
0.450945 0.800857 0.000000
0.500000 0.800857 0.000000
0.549055 0.800857 0.000000
0.596185 0.800857 0.000000
0.641336 0.800857 0.000000
0.684450 0.800857 0.000000
0.725460 0.800857 0.000000
0.764290 0.800857 0.000000
0.800857 0.800857 0.000000
0.835062 0.800857 0.000000
0.866791 0.800857 0.000000
0.895907 0.800857 0.000000
0.922245 0.800857 0.000000
0.945591 0.800857 0.000000
0.965662 0.800857 0.000000
0.982052 0.800857 0.000000
0.994079 0.800857 0.000000
1.000000 0.800857 0.000000
0.000000 0.835062 0.000000
0.005921 0.835062 0.000000
0.017948 0.835062 0.000000
0.034338 0.835062 0.000000
0.054409 0.835062 0.000000
0.077755 0.835062 0.000000
0.104093 0.835062 0.000000
0.133209 0.835062 0.000000
0.164938 0.835062 0.000000
0.199143 0.835062 0.000000
0.235710 0.835062 0.000000
0.274540 0.835062 0.000000
0.315550 0.835062 0.000000
0.358664 0.835062 0.000000
0.403815 0.835062 0.000000
0.450945 0.835062 0.000000
0.500000 0.835062 0.000000
0.549055 0.835062 0.000000
0.596185 0.835062 0.000000
0.641336 0.835062 0.000000
0.684450 0.835062 0.000000
0.725460 0.835062 0.000000
0.764290 0.835062 0.000000
0.800857 0.835062 0.000000
0.835062 0.835062 0.000000
0.866791 0.835062 0.000000
0.895907 0.835062 0.000000
0.922245 0.835062 0.000000
0.945591 0.835062 0.000000
0.965662 0.835062 0.000000
0.982052 0.835062 0.000000
0.994079 0.835062 0.000000
1.000000 0.835062 0.000000
0.000000 0.866791 0.000000
0.005921 0.866791 0.000000
0.017948 0.866791 0.000000
0.034338 0.866791 0.000000
0.054409 0.866791 0.000000
0.077755 0.866791 0.000000
0.104093 0.866791 0.000000
0.133209 0.866791 0.000000
0.164938 0.866791 0.000000
0.199143 0.866791 0.000000
0.235710 0.866791 0.000000
0.274540 0.866791 0.000000
0.315550 0.866791 0.000000
0.358664 0.866791 0.000000
0.403815 0.866791 0.000000
0.450945 0.866791 0.000000
0.500000 0.866791 0.000000
0.549055 0.866791 0.000000
0.596185 0.866791 0.000000
0.641336 0.866791 0.000000
0.684450 0.866791 0.000000
0.725460 0.866791 0.000000
0.764290 0.866791 0.000000
0.800857 0.866791 0.000000
0.835062 0.866791 0.000000
0.866791 0.866791 0.000000
0.895907 0.866791 0.000000
0.922245 0.866791 0.000000
0.945591 0.866791 0.000000
0.965662 0.866791 0.000000
0.982052 0.866791 0.000000
0.994079 0.866791 0.000000
1.000000 0.866791 0.000000
0.000000 0.895907 0.000000
0.005921 0.895907 0.000000
0.017948 0.895907 0.000000
0.034338 0.895907 0.000000
0.054409 0.895907 0.000000
0.077755 0.895907 0.000000
0.104093 0.895907 0.000000
0.133209 0.895907 0.000000
0.164938 0.895907 0.000000
0.199143 0.895907 0.000000
0.235710 0.895907 0.000000
0.274540 0.895907 0.000000
0.315550 0.895907 0.000000
0.358664 0.895907 0.000000
0.403815 0.895907 0.000000
0.450945 0.895907 0.000000
0.500000 0.895907 0.000000
0.549055 0.895907 0.000000
0.596185 0.895907 0.000000
0.641336 0.895907 0.000000
0.684450 0.895907 0.000000
0.725460 0.895907 0.000000
0.764290 0.895907 0.000000
0.800857 0.895907 0.000000
0.835062 0.895907 0.000000
0.866791 0.895907 0.000000
0.895907 0.895907 0.000000
0.922245 0.895907 0.000000
0.945591 0.895907 0.000000
