public/luts/high_contrast.cube
TITLE "High Contrast"
LUT_3D_SIZE 9
0.000000 0.000000 0.000000
0.054409 0.000000 0.000000
0.164938 0.000000 0.000000
0.315550 0.000000 0.000000
0.500000 0.000000 0.000000
0.684450 0.000000 0.000000
0.835062 0.000000 0.000000
0.945591 0.000000 0.000000
1.000000 0.000000 0.000000
0.000000 0.054409 0.000000
0.054409 0.054409 0.000000
0.164938 0.054409 0.000000
0.315550 0.054409 0.000000
0.500000 0.054409 0.000000
0.684450 0.054409 0.000000
0.835062 0.054409 0.000000
0.945591 0.054409 0.000000
1.000000 0.054409 0.000000
0.000000 0.164938 0.000000
0.054409 0.164938 0.000000
0.164938 0.164938 0.000000
0.315550 0.164938 0.000000
0.500000 0.164938 0.000000
0.684450 0.164938 0.000000
0.835062 0.164938 0.000000
0.945591 0.164938 0.000000
1.000000 0.164938 0.000000
0.000000 0.315550 0.000000
0.054409 0.315550 0.000000
0.164938 0.315550 0.000000
0.315550 0.315550 0.000000
0.500000 0.315550 0.000000
0.684450 0.315550 0.000000
0.835062 0.315550 0.000000
0.945591 0.315550 0.000000
1.000000 0.315550 0.000000
0.000000 0.500000 0.000000
0.054409 0.500000 0.000000
0.164938 0.500000 0.000000
0.315550 0.500000 0.000000
0.500000 0.500000 0.000000
0.684450 0.500000 0.000000
0.835062 0.500000 0.000000
0.945591 0.500000 0.000000
1.000000 0.500000 0.000000
0.000000 0.684450 0.000000
0.054409 0.684450 0.000000
0.164938 0.684450 0.000000
0.315550 0.684450 0.000000
0.500000 0.684450 0.000000
0.684450 0.684450 0.000000
0.835062 0.684450 0.000000
0.945591 0.684450 0.000000
1.000000 0.684450 0.000000
0.000000 0.835062 0.000000
0.054409 0.835062 0.000000
0.164938 0.835062 0.000000
0.315550 0.835062 0.000000
0.500000 0.835062 0.000000
0.684450 0.835062 0.000000
0.835062 0.835062 0.000000
0.945591 0.835062 0.000000
1.000000 0.835062 0.000000
0.000000 0.945591 0.000000
0.054409 0.945591 0.000000
0.164938 0.945591 0.000000
0.315550 0.945591 0.000000
0.500000 0.945591 0.000000
0.684450 0.945591 0.000000
0.835062 0.945591 0.000000
0.945591 0.945591 0.000000
1.000000 0.945591 0.000000
0.000000 1.000000 0.000000
0.054409 1.000000 0.000000
0.164938 1.000000 0.000000
0.315550 1.000000 0.000000
0.500000 1.000000 0.000000
0.684450 1.000000 0.000000
0.835062 1.000000 0.000000
0.945591 1.000000 0.000000
1.000000 1.000000 0.000000
0.000000 0.000000 0.054409
0.054409 0.000000 0.054409
0.164938 0.000000 0.054409
0.315550 0.000000 0.054409
0.500000 0.000000 0.054409
0.684450 0.000000 0.054409
0.835062 0.000000 0.054409
0.945591 0.000000 0.054409
1.000000 0.000000 0.054409
0.000000 0.054409 0.054409
0.054409 0.054409 0.054409
0.164938 0.054409 0.054409
0.315550 0.054409 0.054409
0.500000 0.054409 0.054409
0.684450 0.054409 0.054409
0.835062 0.054409 0.054409
0.945591 0.054409 0.054409
1.000000 0.054409 0.054409
0.000000 0.164938 0.054409
0.054409 0.164938 0.054409
0.164938 0.164938 0.054409
0.315550 0.164938 0.054409
0.500000 0.164938 0.054409
0.684450 0.164938 0.054409
0.835062 0.164938 0.054409
0.945591 0.164938 0.054409
1.000000 0.164938 0.054409
0.000000 0.315550 0.054409
0.054409 0.315550 0.054409
0.164938 0.315550 0.054409
0.315550 0.315550 0.054409
0.500000 0.315550 0.054409
0.684450 0.315550 0.054409
0.835062 0.315550 0.054409
0.945591 0.315550 0.054409
1.000000 0.315550 0.054409
0.000000 0.500000 0.054409
0.054409 0.500000 0.054409
0.164938 0.500000 0.054409
0.315550 0.500000 0.054409
0.500000 0.500000 0.054409
0.684450 0.500000 0.054409
0.835062 0.500000 0.054409
0.945591 0.500000 0.054409
1.000000 0.500000 0.054409
0.000000 0.684450 0.054409
0.054409 0.684450 0.054409
0.164938 0.684450 0.054409
0.315550 0.684450 0.054409
0.500000 0.684450 0.054409
0.684450 0.684450 0.054409
0.835062 0.684450 0.054409
0.945591 0.684450 0.054409
1.000000 0.684450 0.054409
0.000000 0.835062 0.054409
0.054409 0.835062 0.054409
0.164938 0.835062 0.054409
0.315550 0.835062 0.054409
0.500000 0.835062 0.054409
0.684450 0.835062 0.054409
0.835062 0.835062 0.054409
0.945591 0.835062 0.054409
1.000000 0.835062 0.054409
0.000000 0.945591 0.054409
0.054409 0.945591 0.054409
0.164938 0.945591 0.054409
0.315550 0.945591 0.054409
0.500000 0.945591 0.054409
0.684450 0.945591 0.054409
0.835062 0.945591 0.054409
0.945591 0.945591 0.054409
1.000000 0.945591 0.054409
0.000000 1.000000 0.054409
0.054409 1.000000 0.054409
0.164938 1.000000 0.054409
0.315550 1.000000 0.054409
0.500000 1.000000 0.054409
0.684450 1.000000 0.054409
0.835062 1.000000 0.054409
0.945591 1.000000 0.054409
1.000000 1.000000 0.054409
0.000000 0.000000 0.164938
0.054409 0.000000 0.164938
0.164938 0.000000 0.164938
0.315550 0.000000 0.164938
0.500000 0.000000 0.164938
0.684450 0.000000 0.164938
0.835062 0.000000 0.164938
0.945591 0.000000 0.164938
1.000000 0.000000 0.164938
0.000000 0.054409 0.164938
0.054409 0.054409 0.164938
0.164938 0.054409 0.164938
0.315550 0.054409 0.164938
0.500000 0.054409 0.164938
0.684450 0.054409 0.164938
0.835062 0.054409 0.164938
0.945591 0.054409 0.164938
1.000000 0.054409 0.164938
0.000000 0.164938 0.164938
0.054409 0.164938 0.164938
0.164938 0.164938 0.164938
0.315550 0.164938 0.164938
0.500000 0.164938 0.164938
0.684450 0.164938 0.164938
0.835062 0.164938 0.164938
0.945591 0.164938 0.164938
1.000000 0.164938 0.164938
0.000000 0.315550 0.164938
0.054409 0.315550 0.164938
0.164938 0.315550 0.164938
0.315550 0.315550 0.164938
0.500000 0.315550 0.164938
0.684450 0.315550 0.164938
0.835062 0.315550 0.164938
0.945591 0.315550 0.164938
1.000000 0.315550 0.164938
0.000000 0.500000 0.164938
0.054409 0.500000 0.164938
0.164938 0.500000 0.164938
0.315550 0.500000 0.164938
0.500000 0.500000 0.164938
0.684450 0.500000 0.164938
0.835062 0.500000 0.164938
0.945591 0.500000 0.164938
1.000000 0.500000 0.164938
0.000000 0.684450 0.164938
0.054409 0.684450 0.164938
0.164938 0.684450 0.164938
0.315550 0.684450 0.164938
0.500000 0.684450 0.164938
0.684450 0.684450 0.164938
0.835062 0.684450 0.164938
0.945591 0.684450 0.164938
1.000000 0.684450 0.164938
0.000000 0.835062 0.164938
0.054409 0.835062 0.164938
0.164938 0.835062 0.164938
0.315550 0.835062 0.164938
0.500000 0.835062 0.164938
0.684450 0.835062 0.164938
0.835062 0.835062 0.164938
0.945591 0.835062 0.164938
1.000000 0.835062 0.164938
0.000000 0.945591 0.164938
0.054409 0.945591 0.164938
0.164938 0.945591 0.164938
0.315550 0.945591 0.164938
0.500000 0.945591 0.164938
0.684450 0.945591 0.164938
0.835062 0.945591 0.164938
0.945591 0.945591 0.164938
1.000000 0.945591 0.164938
0.000000 1.000000 0.164938
0.054409 1.000000 0.164938
0.164938 1.000000 0.164938
0.315550 1.000000 0.164938
0.500000 1.000000 0.164938
0.684450 1.000000 0.164938
0.835062 1.000000 0.164938
0.945591 1.000000 0.164938
1.000000 1.000000 0.164938
0.000000 0.000000 0.315550
0.054409 0.000000 0.315550
0.164938 0.000000 0.315550
0.315550 0.000000 0.315550
0.500000 0.000000 0.315550
0.684450 0.000000 0.315550
0.835062 0.000000 0.315550
0.945591 0.000000 0.315550
1.000000 0.000000 0.315550
0.000000 0.054409 0.315550
0.054409 0.054409 0.315550
0.164938 0.054409 0.315550
0.315550 0.054409 0.315550
0.500000 0.054409 0.315550
0.684450 0.054409 0.315550
0.835062 0.054409 0.315550
0.945591 0.054409 0.315550
1.000000 0.054409 0.315550
0.000000 0.164938 0.315550
0.054409 0.164938 0.315550
0.164938 0.164938 0.315550
0.315550 0.164938 0.315550
0.500000 0.164938 0.315550
0.684450 0.164938 0.315550
0.835062 0.164938 0.315550
0.945591 0.164938 0.315550
1.000000 0.164938 0.315550
0.000000 0.315550 0.315550
0.054409 0.315550 0.315550
0.164938 0.315550 0.315550
0.315550 0.315550 0.315550
0.500000 0.315550 0.315550
0.684450 0.315550 0.315550
0.835062 0.315550 0.315550
0.945591 0.315550 0.315550
1.000000 0.315550 0.315550
0.000000 0.500000 0.315550
0.054409 0.500000 0.315550
0.164938 0.500000 0.315550
0.315550 0.500000 0.315550
0.500000 0.500000 0.315550
0.684450 0.500000 0.315550
0.835062 0.500000 0.315550
0.945591 0.500000 0.315550
1.000000 0.500000 0.315550
0.000000 0.684450 0.315550
0.054409 0.684450 0.315550
0.164938 0.684450 0.315550
0.315550 0.684450 0.315550
0.500000 0.684450 0.315550
0.684450 0.684450 0.315550
0.835062 0.684450 0.315550
0.945591 0.684450 0.315550
1.000000 0.684450 0.315550
0.000000 0.835062 0.315550
0.054409 0.835062 0.315550
0.164938 0.835062 0.315550
0.315550 0.835062 0.315550
0.500000 0.835062 0.315550
0.684450 0.835062 0.315550
0.835062 0.835062 0.315550
0.945591 0.835062 0.315550
1.000000 0.835062 0.315550
0.000000 0.945591 0.315550
0.054409 0.945591 0.315550
0.164938 0.945591 0.315550
0.315550 0.945591 0.315550
0.500000 0.945591 0.315550
0.684450 0.945591 0.315550
0.835062 0.945591 0.315550
0.945591 0.945591 0.315550
1.000000 0.945591 0.315550
0.000000 1.000000 0.315550
0.054409 1.000000 0.315550
0.164938 1.000000 0.315550
0.315550 1.000000 0.315550
0.500000 1.000000 0.315550
0.684450 1.000000 0.315550
0.835062 1.000000 0.315550
0.945591 1.000000 0.315550
1.000000 1.000000 0.315550
0.000000 0.000000 0.500000
0.054409 0.000000 0.500000
0.164938 0.000000 0.500000
0.315550 0.000000 0.500000
0.500000 0.000000 0.500000
0.684450 0.000000 0.500000
0.835062 0.000000 0.500000
0.945591 0.000000 0.500000
1.000000 0.000000 0.500000
0.000000 0.054409 0.500000
0.054409 0.054409 0.500000
0.164938 0.054409 0.500000
0.315550 0.054409 0.500000
0.500000 0.054409 0.500000
0.684450 0.054409 0.500000
0.835062 0.054409 0.500000
0.945591 0.054409 0.500000
1.000000 0.054409 0.500000
0.000000 0.164938 0.500000
0.054409 0.164938 0.500000
0.164938 0.164938 0.500000
0.315550 0.164938 0.500000
0.500000 0.164938 0.500000
0.684450 0.164938 0.500000
0.835062 0.164938 0.500000
0.945591 0.164938 0.500000
1.000000 0.164938 0.500000
0.000000 0.315550 0.500000
0.054409 0.315550 0.500000
0.164938 0.315550 0.500000
0.315550 0.315550 0.500000
0.500000 0.315550 0.500000
0.684450 0.315550 0.500000
0.835062 0.315550 0.500000
0.945591 0.315550 0.500000
1.000000 0.315550 0.500000
0.000000 0.500000 0.500000
0.054409 0.500000 0.500000
0.164938 0.500000 0.500000
0.315550 0.500000 0.500000
0.500000 0.500000 0.500000
0.684450 0.500000 0.500000
0.835062 0.500000 0.500000
0.945591 0.500000 0.500000
1.000000 0.500000 0.500000
0.000000 0.684450 0.500000
0.054409 0.684450 0.500000
0.164938 0.684450 0.500000
0.315550 0.684450 0.500000
0.500000 0.684450 0.500000
0.684450 0.684450 0.500000
0.835062 0.684450 0.500000
0.945591 0.684450 0.500000
1.000000 0.684450 0.500000
0.000000 0.835062 0.500000
0.054409 0.835062 0.500000
0.164938 0.835062 0.500000
0.315550 0.835062 0.500000
0.500000 0.835062 0.500000
0.684450 0.835062 0.500000
0.835062 0.835062 0.500000
0.945591 0.835062 0.500000
1.000000 0.835062 0.500000
0.000000 0.945591 0.500000
0.054409 0.945591 0.500000
0.164938 0.945591 0.500000
0.315550 0.945591 0.500000
0.500000 0.945591 0.500000
0.684450 0.945591 0.500000
0.835062 0.945591 0.500000
0.945591 0.945591 0.500000
1.000000 0.945591 0.500000
0.000000 1.000000 0.500000
0.054409 1.000000 0.500000
0.164938 1.000000 0.500000
0.315550 1.000000 0.500000
0.500000 1.000000 0.500000
0.684450 1.000000 0.500000
0.835062 1.000000 0.500000
0.945591 1.000000 0.500000
1.000000 1.000000 0.500000
0.000000 0.000000 0.684450
0.054409 0.000000 0.684450
0.164938 0.000000 0.684450
0.315550 0.000000 0.684450
0.500000 0.000000 0.684450
0.684450 0.000000 0.684450
0.835062 0.000000 0.684450
0.945591 0.000000 0.684450
1.000000 0.000000 0.684450
0.000000 0.054409 0.684450
0.054409 0.054409 0.684450
0.164938 0.054409 0.684450
0.315550 0.054409 0.684450
0.500000 0.054409 0.684450
0.684450 0.054409 0.684450
0.835062 0.054409 0.684450
0.945591 0.054409 0.684450
1.000000 0.054409 0.684450
0.000000 0.164938 0.684450
0.054409 0.164938 0.684450
0.164938 0.164938 0.684450
0.315550 0.164938 0.684450
0.500000 0.164938 0.684450
0.684450 0.164938 0.684450
0.835062 0.164938 0.684450
0.945591 0.164938 0.684450
1.000000 0.164938 0.684450
0.000000 0.315550 0.684450
0.054409 0.315550 0.684450
0.164938 0.315550 0.684450
0.315550 0.315550 0.684450
0.500000 0.315550 0.684450
0.684450 0.315550 0.684450
0.835062 0.315550 0.684450
0.945591 0.315550 0.684450
1.000000 0.315550 0.684450
0.000000 0.500000 0.684450
0.054409 0.500000 0.684450
0.164938 0.500000 0.684450
0.315550 0.500000 0.684450
0.500000 0.500000 0.684450
0.684450 0.500000 0.684450
0.835062 0.500000 0.684450
0.945591 0.500000 0.684450
1.000000 0.500000 0.684450
0.000000 0.684450 0.684450
0.054409 0.684450 0.684450
0.164938 0.684450 0.684450
0.315550 0.684450 0.684450
0.500000 0.684450 0.684450
0.684450 0.684450 0.684450
0.835062 0.684450 0.684450
0.945591 0.684450 0.684450
1.000000 0.684450 0.684450
0.000000 0.835062 0.684450
0.054409 0.835062 0.684450
0.164938 0.835062 0.684450
0.315550 0.835062 0.684450
0.500000 0.835062 0.684450
0.684450 0.835062 0.684450
0.835062 0.835062 0.684450
0.945591 0.835062 0.684450
1.000000 0.835062 0.684450
0.000000 0.945591 0.684450
0.054409 0.945591 0.684450
0.164938 0.945591 0.684450
0.315550 0.945591 0.684450
0.500000 0.945591 0.684450
0.684450 0.945591 0.684450
0.835062 0.945591 0.684450
0.945591 0.945591 0.684450
1.000000 0.945591 0.684450
0.000000 1.000000 0.684450
0.054409 1.000000 0.684450
0.164938 1.000000 0.684450
0.315550 1.000000 0.684450
0.500000 1.000000 0.684450
0.684450 1.000000 0.684450
0.835062 1.000000 0.684450
0.945591 1.000000 0.684450
1.000000 1.000000 0.684450
0.000000 0.000000 0.835062
0.054409 0.000000 0.835062
0.164938 0.000000 0.835062
0.315550 0.000000 0.835062
0.500000 0.000000 0.835062
0.684450 0.000000 0.835062
0.835062 0.000000 0.835062
0.945591 0.000000 0.835062
1.000000 0.000000 0.835062
0.000000 0.054409 0.835062
0.054409 0.054409 0.835062
0.164938 0.054409 0.835062
0.315550 0.054409 0.835062
0.500000 0.054409 0.835062
0.684450 0.054409 0.835062
0.835062 0.054409 0.835062
0.945591 0.054409 0.835062
1.000000 0.054409 0.835062
0.000000 0.164938 0.835062
0.054409 0.164938 0.835062
0.164938 0.164938 0.835062
0.315550 0.164938 0.835062
0.500000 0.164938 0.835062
0.684450 0.164938 0.835062
0.835062 0.164938 0.835062
0.945591 0.164938 0.835062
1.000000 0.164938 0.835062
0.000000 0.315550 0.835062
0.054409 0.315550 0.835062
0.164938 0.315550 0.835062
0.315550 0.315550 0.835062
0.500000 0.315550 0.835062
0.684450 0.315550 0.835062
0.835062 0.315550 0.835062
0.945591 0.315550 0.835062
1.000000 0.315550 0.835062
0.000000 0.500000 0.835062
0.054409 0.500000 0.835062
0.164938 0.500000 0.835062
0.315550 0.500000 0.835062
0.500000 0.500000 0.835062
0.684450 0.500000 0.835062
0.835062 0.500000 0.835062
0.945591 0.500000 0.835062
1.000000 0.500000 0.835062
0.000000 0.684450 0.835062
0.054409 0.684450 0.835062
0.164938 0.684450 0.835062
0.315550 0.684450 0.835062
0.500000 0.684450 0.835062
0.684450 0.684450 0.835062
0.835062 0.684450 0.835062
0.945591 0.684450 0.835062
1.000000 0.684450 0.835062
0.000000 0.835062 0.835062
0.054409 0.835062 0.835062
0.164938 0.835062 0.835062
0.315550 0.835062 0.835062
0.500000 0.835062 0.835062
0.684450 0.835062 0.835062
0.835062 0.835062 0.835062
0.945591 0.835062 0.835062
1.000000 0.835062 0.835062
0.000000 0.945591 0.835062
0.054409 0.945591 0.835062
0.164938 0.945591 0.835062
0.315550 0.945591 0.835062
0.500000 0.945591 0.835062
0.684450 0.945591 0.835062
0.835062 0.945591 0.835062
0.945591 0.945591 0.835062
1.000000 0.945591 0.835062
0.000000 1.000000 0.835062
0.054409 1.000000 0.835062
0.164938 1.000000 0.835062
0.315550 1.000000 0.835062
0.500000 1.000000 0.835062
0.684450 1.000000 0.835062
0.835062 1.000000 0.835062
0.945591 1.000000 0.835062
1.000000 1.000000 0.835062
0.000000 0.000000 0.945591
0.054409 0.000000 0.945591
0.164938 0.000000 0.945591
0.315550 0.000000 0.945591
0.500000 0.000000 0.945591
0.684450 0.000000 0.945591
0.835062 0.000000 0.945591
0.945591 0.000000 0.945591
1.000000 0.000000 0.945591
0.000000 0.054409 0.945591
0.054409 0.054409 0.945591
0.164938 0.054409 0.945591
0.315550 0.054409 0.945591
0.500000 0.054409 0.945591
0.684450 0.054409 0.945591
0.835062 0.054409 0.945591
0.945591 0.054409 0.945591
1.000000 0.054409 0.945591
0.000000 0.164938 0.945591
0.054409 0.164938 0.945591
0.164938 0.164938 0.945591
0.315550 0.164938 0.945591
0.500000 0.164938 0.945591
0.684450 0.164938 0.945591
0.835062 0.164938 0.945591
0.945591 0.164938 0.945591
1.000000 0.164938 0.945591
0.000000 0.315550 0.945591
0.054409 0.315550 0.945591
0.164938 0.315550 0.945591
0.315550 0.315550 0.945591
0.500000 0.315550 0.945591
0.684450 0.315550 0.945591
0.835062 0.315550 0.945591
0.945591 0.315550 0.945591
1.000000 0.315550 0.945591
0.000000 0.500000 0.945591
0.054409 0.500000 0.945591
0.164938 0.500000 0.945591
0.315550 0.500000 0.945591
0.500000 0.500000 0.945591
0.684450 0.500000 0.945591
0.835062 0.500000 0.945591
0.945591 0.500000 0.945591
1.000000 0.500000 0.945591
0.000000 0.684450 0.945591
0.054409 0.684450 0.945591
0.164938 0.684450 0.945591
0.315550 0.684450 0.945591
0.500000 0.684450 0.945591
0.684450 0.684450 0.945591
0.835062 0.684450 0.945591
0.945591 0.684450 0.945591
1.000000 0.684450 0.945591
0.000000 0.835062 0.945591
0.054409 0.835062 0.945591
0.164938 0.835062 0.945591
0.315550 0.835062 0.945591
0.500000 0.835062 0.945591
0.684450 0.835062 0.945591
0.835062 0.835062 0.945591
0.945591 0.835062 0.945591
1.000000 0.835062 0.945591
0.000000 0.945591 0.945591
0.054409 0.945591 0.945591
0.164938 0.945591 0.945591
0.315550 0.945591 0.945591
0.500000 0.945591 0.945591
0.684450 0.945591 0.945591
0.835062 0.945591 0.945591
0.945591 0.945591 0.945591
1.000000 0.945591 0.945591
0.000000 1.000000 0.945591
0.054409 1.000000 0.945591
0.164938 1.000000 0.945591
0.315550 1.000000 0.945591
0.500000 1.000000 0.945591
0.684450 1.000000 0.945591
0.835062 1.000000 0.945591
0.945591 1.000000 0.945591
1.000000 1.000000 0.945591
0.000000 0.000000 1.000000
0.054409 0.000000 1.000000
0.164938 0.000000 1.000000
0.315550 0.000000 1.000000
0.500000 0.000000 1.000000
0.684450 0.000000 1.000000
0.835062 0.000000 1.000000
0.945591 0.000000 1.000000
1.000000 0.000000 1.000000
0.000000 0.054409 1.000000
0.054409 0.054409 1.000000
0.164938 0.054409 1.000000
0.315550 0.054409 1.000000
0.500000 0.054409 1.000000
0.684450 0.054409 1.000000
0.835062 0.054409 1.000000
0.945591 0.054409 1.000000
1.000000 0.054409 1.000000
0.000000 0.164938 1.000000
0.054409 0.164938 1.000000
0.164938 0.164938 1.000000
0.315550 0.164938 1.000000
0.500000 0.164938 1.000000
0.684450 0.164938 1.000000
0.835062 0.164938 1.000000
0.945591 0.164938 1.000000
1.000000 0.164938 1.000000
0.000000 0.315550 1.000000
0.054409 0.315550 1.000000
0.164938 0.315550 1.000000
0.315550 0.315550 1.000000
0.500000 0.315550 1.000000
0.684450 0.315550 1.000000
0.835062 0.315550 1.000000
0.945591 0.315550 1.000000
1.000000 0.315550 1.000000
0.000000 0.500000 1.000000
0.054409 0.500000 1.000000
0.164938 0.500000 1.000000
0.315550 0.500000 1.000000
0.500000 0.500000 1.000000
0.684450 0.500000 1.000000
0.835062 0.500000 1.000000
0.945591 0.500000 1.000000
1.000000 0.500000 1.000000
0.000000 0.684450 1.000000
0.054409 0.684450 1.000000
0.164938 0.684450 1.000000
0.315550 0.684450 1.000000
0.500000 0.684450 1.000000
0.684450 0.684450 1.000000
0.835062 0.684450 1.000000
0.945591 0.684450 1.000000
1.000000 0.684450 1.000000
0.000000 0.835062 1.000000
0.054409 0.835062 1.000000
0.164938 0.835062 1.000000
0.315550 0.835062 1.000000
0.500000 0.835062 1.000000
0.684450 0.835062 1.000000
0.835062 0.835062 1.000000
0.945591 0.835062 1.000000
1.000000 0.835062 1.000000
0.000000 0.945591 1.000000
0.054409 0.945591 1.000000
0.164938 0.945591 1.000000
0.315550 0.945591 1.000000
0.500000 0.945591 1.000000
0.684450 0.945591 1.000000
0.835062 0.945591 1.000000
0.945591 0.945591 1.000000
1.000000 0.945591 1.000000
0.000000 1.000000 1.000000
0.054409 1.000000 1.000000
0.164938 1.000000 1.000000
0.315550 1.000000 1.000000
0.500000 1.000000 1.000000
0.684450 1.000000 1.000000
0.835062 1.000000 1.000000
0.945591 1.000000 1.000000
1.000000 1.000000 1.000000
