public/luts/log_to_rec709.cube
TITLE "SLog2 to Rec.709"
LUT_3D_SIZE 33
0.000000 0.000000 0.000000
0.006399 0.000000 0.000000
0.007557 0.000000 0.000000
0.008924 0.000000 0.000000
0.010538 0.000000 0.000000
0.012445 0.000000 0.000000
0.014696 0.000000 0.000000
0.017355 0.000000 0.000000
0.020495 0.000000 0.000000
0.024203 0.000000 0.000000
0.028582 0.000000 0.000000
0.033753 0.000000 0.000000
0.039860 0.000000 0.000000
0.047071 0.000000 0.000000
0.055588 0.000000 0.000000
0.065645 0.000000 0.000000
0.077521 0.000000 0.000000
0.091454 0.000000 0.000000
0.106253 0.000000 0.000000
0.122203 0.000000 0.000000
0.139391 0.000000 0.000000
0.157915 0.000000 0.000000
0.177878 0.000000 0.000000
0.199393 0.000000 0.000000
0.222579 0.000000 0.000000
0.247567 0.000000 0.000000
0.274496 0.000000 0.000000
0.303519 0.000000 0.000000
0.334796 0.000000 0.000000
0.368504 0.000000 0.000000
0.404831 0.000000 0.000000
0.443980 0.000000 0.000000
0.486172 0.000000 0.000000
0.000000 0.006399 0.000000
0.006399 0.006399 0.000000
0.007557 0.006399 0.000000
0.008924 0.006399 0.000000
0.010538 0.006399 0.000000
0.012445 0.006399 0.000000
0.014696 0.006399 0.000000
0.017355 0.006399 0.000000
0.020495 0.006399 0.000000
0.024203 0.006399 0.000000
0.028582 0.006399 0.000000
0.033753 0.006399 0.000000
0.039860 0.006399 0.000000
0.047071 0.006399 0.000000
0.055588 0.006399 0.000000
0.065645 0.006399 0.000000
0.077521 0.006399 0.000000
0.091454 0.006399 0.000000
0.106253 0.006399 0.000000
0.122203 0.006399 0.000000
0.139391 0.006399 0.000000
0.157915 0.006399 0.000000
0.177878 0.006399 0.000000
0.199393 0.006399 0.000000
0.222579 0.006399 0.000000
0.247567 0.006399 0.000000
0.274496 0.006399 0.000000
0.303519 0.006399 0.000000
0.334796 0.006399 0.000000
0.368504 0.006399 0.000000
0.404831 0.006399 0.000000
0.443980 0.006399 0.000000
0.486172 0.006399 0.000000
0.000000 0.007557 0.000000
0.006399 0.007557 0.000000
0.007557 0.007557 0.000000
0.008924 0.007557 0.000000
0.010538 0.007557 0.000000
0.012445 0.007557 0.000000
0.014696 0.007557 0.000000
0.017355 0.007557 0.000000
0.020495 0.007557 0.000000
0.024203 0.007557 0.000000
0.028582 0.007557 0.000000
0.033753 0.007557 0.000000
0.039860 0.007557 0.000000
0.047071 0.007557 0.000000
0.055588 0.007557 0.000000
0.065645 0.007557 0.000000
0.077521 0.007557 0.000000
0.091454 0.007557 0.000000
0.106253 0.007557 0.000000
0.122203 0.007557 0.000000
0.139391 0.007557 0.000000
0.157915 0.007557 0.000000
0.177878 0.007557 0.000000
0.199393 0.007557 0.000000
0.222579 0.007557 0.000000
0.247567 0.007557 0.000000
0.274496 0.007557 0.000000
0.303519 0.007557 0.000000
0.334796 0.007557 0.000000
0.368504 0.007557 0.000000
0.404831 0.007557 0.000000
0.443980 0.007557 0.000000
0.486172 0.007557 0.000000
0.000000 0.008924 0.000000
0.006399 0.008924 0.000000
0.007557 0.008924 0.000000
0.008924 0.008924 0.000000
0.010538 0.008924 0.000000
0.012445 0.008924 0.000000
0.014696 0.008924 0.000000
0.017355 0.008924 0.000000
0.020495 0.008924 0.000000
0.024203 0.008924 0.000000
0.028582 0.008924 0.000000
0.033753 0.008924 0.000000
0.039860 0.008924 0.000000
0.047071 0.008924 0.000000
0.055588 0.008924 0.000000
0.065645 0.008924 0.000000
0.077521 0.008924 0.000000
0.091454 0.008924 0.000000
0.106253 0.008924 0.000000
0.122203 0.008924 0.000000
0.139391 0.008924 0.000000
0.157915 0.008924 0.000000
0.177878 0.008924 0.000000
0.199393 0.008924 0.000000
0.222579 0.008924 0.000000
0.247567 0.008924 0.000000
0.274496 0.008924 0.000000
0.303519 0.008924 0.000000
0.334796 0.008924 0.000000
0.368504 0.008924 0.000000
0.404831 0.008924 0.000000
0.443980 0.008924 0.000000
0.486172 0.008924 0.000000
0.000000 0.010538 0.000000
0.006399 0.010538 0.000000
0.007557 0.010538 0.000000
0.008924 0.010538 0.000000
0.010538 0.010538 0.000000
0.012445 0.010538 0.000000
0.014696 0.010538 0.000000
0.017355 0.010538 0.000000
0.020495 0.010538 0.000000
0.024203 0.010538 0.000000
0.028582 0.010538 0.000000
0.033753 0.010538 0.000000
0.039860 0.010538 0.000000
0.047071 0.010538 0.000000
0.055588 0.010538 0.000000
0.065645 0.010538 0.000000
0.077521 0.010538 0.000000
0.091454 0.010538 0.000000
0.106253 0.010538 0.000000
0.122203 0.010538 0.000000
0.139391 0.010538 0.000000
0.157915 0.010538 0.000000
0.177878 0.010538 0.000000
0.199393 0.010538 0.000000
0.222579 0.010538 0.000000
0.247567 0.010538 0.000000
0.274496 0.010538 0.000000
0.303519 0.010538 0.000000
0.334796 0.010538 0.000000
0.368504 0.010538 0.000000
0.404831 0.010538 0.000000
0.443980 0.010538 0.000000
0.486172 0.010538 0.000000
0.000000 0.012445 0.000000
0.006399 0.012445 0.000000
0.007557 0.012445 0.000000
0.008924 0.012445 0.000000
0.010538 0.012445 0.000000
0.012445 0.012445 0.000000
0.014696 0.012445 0.000000
0.017355 0.012445 0.000000
0.020495 0.012445 0.000000
0.024203 0.012445 0.000000
0.028582 0.012445 0.000000
0.033753 0.012445 0.000000
0.039860 0.012445 0.000000
0.047071 0.012445 0.000000
0.055588 0.012445 0.000000
0.065645 0.012445 0.000000
0.077521 0.012445 0.000000
0.091454 0.012445 0.000000
0.106253 0.012445 0.000000
0.122203 0.012445 0.000000
0.139391 0.012445 0.000000
0.157915 0.012445 0.000000
0.177878 0.012445 0.000000
0.199393 0.012445 0.000000
0.222579 0.012445 0.000000
0.247567 0.012445 0.000000
0.274496 0.012445 0.000000
0.303519 0.012445 0.000000
0.334796 0.012445 0.000000
0.368504 0.012445 0.000000
0.404831 0.012445 0.000000
0.443980 0.012445 0.000000
0.486172 0.012445 0.000000
0.000000 0.014696 0.000000
0.006399 0.014696 0.000000
0.007557 0.014696 0.000000
0.008924 0.014696 0.000000
0.010538 0.014696 0.000000
0.012445 0.014696 0.000000
0.014696 0.014696 0.000000
0.017355 0.014696 0.000000
0.020495 0.014696 0.000000
0.024203 0.014696 0.000000
0.028582 0.014696 0.000000
0.033753 0.014696 0.000000
0.039860 0.014696 0.000000
0.047071 0.014696 0.000000
0.055588 0.014696 0.000000
0.065645 0.014696 0.000000
0.077521 0.014696 0.000000
0.091454 0.014696 0.000000
0.106253 0.014696 0.000000
0.122203 0.014696 0.000000
0.139391 0.014696 0.000000
0.157915 0.014696 0.000000
0.177878 0.014696 0.000000
0.199393 0.014696 0.000000
0.222579 0.014696 0.000000
0.247567 0.014696 0.000000
0.274496 0.014696 0.000000
0.303519 0.014696 0.000000
0.334796 0.014696 0.000000
0.368504 0.014696 0.000000
0.404831 0.014696 0.000000
0.443980 0.014696 0.000000
0.486172 0.014696 0.000000
0.000000 0.017355 0.000000
0.006399 0.017355 0.000000
0.007557 0.017355 0.000000
0.008924 0.017355 0.000000
0.010538 0.017355 0.000000
0.012445 0.017355 0.000000
0.014696 0.017355 0.000000
0.017355 0.017355 0.000000
0.020495 0.017355 0.000000
0.024203 0.017355 0.000000
0.028582 0.017355 0.000000
0.033753 0.017355 0.000000
0.039860 0.017355 0.000000
0.047071 0.017355 0.000000
0.055588 0.017355 0.000000
0.065645 0.017355 0.000000
0.077521 0.017355 0.000000
0.091454 0.017355 0.000000
0.106253 0.017355 0.000000
0.122203 0.017355 0.000000
0.139391 0.017355 0.000000
0.157915 0.017355 0.000000
0.177878 0.017355 0.000000
0.199393 0.017355 0.000000
0.222579 0.017355 0.000000
0.247567 0.017355 0.000000
0.274496 0.017355 0.000000
0.303519 0.017355 0.000000
0.334796 0.017355 0.000000
0.368504 0.017355 0.000000
0.404831 0.017355 0.000000
0.443980 0.017355 0.000000
0.486172 0.017355 0.000000
0.000000 0.020495 0.000000
0.006399 0.020495 0.000000
0.007557 0.020495 0.000000
0.008924 0.020495 0.000000
0.010538 0.020495 0.000000
0.012445 0.020495 0.000000
0.014696 0.020495 0.000000
0.017355 0.020495 0.000000
0.020495 0.020495 0.000000
0.024203 0.020495 0.000000
0.028582 0.020495 0.000000
0.033753 0.020495 0.000000
0.039860 0.020495 0.000000
0.047071 0.020495 0.000000
0.055588 0.020495 0.000000
0.065645 0.020495 0.000000
0.077521 0.020495 0.000000
0.091454 0.020495 0.000000
0.106253 0.020495 0.000000
0.122203 0.020495 0.000000
0.139391 0.020495 0.000000
0.157915 0.020495 0.000000
0.177878 0.020495 0.000000
0.199393 0.020495 0.000000
0.222579 0.020495 0.000000
0.247567 0.020495 0.000000
0.274496 0.020495 0.000000
0.303519 0.020495 0.000000
0.334796 0.020495 0.000000
0.368504 0.020495 0.000000
0.404831 0.020495 0.000000
0.443980 0.020495 0.000000
0.486172 0.020495 0.000000
0.000000 0.024203 0.000000
0.006399 0.024203 0.000000
0.007557 0.024203 0.000000
0.008924 0.024203 0.000000
0.010538 0.024203 0.000000
0.012445 0.024203 0.000000
0.014696 0.024203 0.000000
0.017355 0.024203 0.000000
0.020495 0.024203 0.000000
0.024203 0.024203 0.000000
0.028582 0.024203 0.000000
0.033753 0.024203 0.000000
0.039860 0.024203 0.000000
0.047071 0.024203 0.000000
0.055588 0.024203 0.000000
0.065645 0.024203 0.000000
0.077521 0.024203 0.000000
0.091454 0.024203 0.000000
0.106253 0.024203 0.000000
0.122203 0.024203 0.000000
0.139391 0.024203 0.000000
0.157915 0.024203 0.000000
0.177878 0.024203 0.000000
0.199393 0.024203 0.000000
0.222579 0.024203 0.000000
0.247567 0.024203 0.000000
0.274496 0.024203 0.000000
0.303519 0.024203 0.000000
0.334796 0.024203 0.000000
0.368504 0.024203 0.000000
0.404831 0.024203 0.000000
0.443980 0.024203 0.000000
0.486172 0.024203 0.000000
0.000000 0.028582 0.000000
0.006399 0.028582 0.000000
0.007557 0.028582 0.000000
0.008924 0.028582 0.000000
0.010538 0.028582 0.000000
0.012445 0.028582 0.000000
0.014696 0.028582 0.000000
0.017355 0.028582 0.000000
0.020495 0.028582 0.000000
0.024203 0.028582 0.000000
0.028582 0.028582 0.000000
0.033753 0.028582 0.000000
0.039860 0.028582 0.000000
0.047071 0.028582 0.000000
0.055588 0.028582 0.000000
0.065645 0.028582 0.000000
0.077521 0.028582 0.000000
0.091454 0.028582 0.000000
0.106253 0.028582 0.000000
0.122203 0.028582 0.000000
0.139391 0.028582 0.000000
0.157915 0.028582 0.000000
0.177878 0.028582 0.000000
0.199393 0.028582 0.000000
0.222579 0.028582 0.000000
0.247567 0.028582 0.000000
0.274496 0.028582 0.000000
0.303519 0.028582 0.000000
0.334796 0.028582 0.000000
0.368504 0.028582 0.000000
0.404831 0.028582 0.000000
0.443980 0.028582 0.000000
0.486172 0.028582 0.000000
0.000000 0.033753 0.000000
0.006399 0.033753 0.000000
0.007557 0.033753 0.000000
0.008924 0.033753 0.000000
0.010538 0.033753 0.000000
0.012445 0.033753 0.000000
0.014696 0.033753 0.000000
0.017355 0.033753 0.000000
0.020495 0.033753 0.000000
0.024203 0.033753 0.000000
0.028582 0.033753 0.000000
0.033753 0.033753 0.000000
0.039860 0.033753 0.000000
0.047071 0.033753 0.000000
0.055588 0.033753 0.000000
0.065645 0.033753 0.000000
0.077521 0.033753 0.000000
0.091454 0.033753 0.000000
0.106253 0.033753 0.000000
0.122203 0.033753 0.000000
0.139391 0.033753 0.000000
0.157915 0.033753 0.000000
0.177878 0.033753 0.000000
0.199393 0.033753 0.000000
0.222579 0.033753 0.000000
0.247567 0.033753 0.000000
0.274496 0.033753 0.000000
0.303519 0.033753 0.000000
0.334796 0.033753 0.000000
0.368504 0.033753 0.000000
0.404831 0.033753 0.000000
0.443980 0.033753 0.000000
0.486172 0.033753 0.000000
0.000000 0.039860 0.000000
0.006399 0.039860 0.000000
0.007557 0.039860 0.000000
0.008924 0.039860 0.000000
0.010538 0.039860 0.000000
0.012445 0.039860 0.000000
0.014696 0.039860 0.000000
0.017355 0.039860 0.000000
0.020495 0.039860 0.000000
0.024203 0.039860 0.000000
0.028582 0.039860 0.000000
0.033753 0.039860 0.000000
0.039860 0.039860 0.000000
0.047071 0.039860 0.000000
0.055588 0.039860 0.000000
0.065645 0.039860 0.000000
0.077521 0.039860 0.000000
0.091454 0.039860 0.000000
0.106253 0.039860 0.000000
0.122203 0.039860 0.000000
0.139391 0.039860 0.000000
0.157915 0.039860 0.000000
0.177878 0.039860 0.000000
0.199393 0.039860 0.000000
0.222579 0.039860 0.000000
0.247567 0.039860 0.000000
0.274496 0.039860 0.000000
0.303519 0.039860 0.000000
0.334796 0.039860 0.000000
0.368504 0.039860 0.000000
0.404831 0.039860 0.000000
0.443980 0.039860 0.000000
0.486172 0.039860 0.000000
0.000000 0.047071 0.000000
0.006399 0.047071 0.000000
0.007557 0.047071 0.000000
0.008924 0.047071 0.000000
0.010538 0.047071 0.000000
0.012445 0.047071 0.000000
0.014696 0.047071 0.000000
0.017355 0.047071 0.000000
0.020495 0.047071 0.000000
0.024203 0.047071 0.000000
0.028582 0.047071 0.000000
0.033753 0.047071 0.000000
0.039860 0.047071 0.000000
0.047071 0.047071 0.000000
0.055588 0.047071 0.000000
0.065645 0.047071 0.000000
0.077521 0.047071 0.000000
0.091454 0.047071 0.000000
0.106253 0.047071 0.000000
0.122203 0.047071 0.000000
0.139391 0.047071 0.000000
0.157915 0.047071 0.000000
0.177878 0.047071 0.000000
0.199393 0.047071 0.000000
0.222579 0.047071 0.000000
0.247567 0.047071 0.000000
0.274496 0.047071 0.000000
0.303519 0.047071 0.000000
0.334796 0.047071 0.000000
0.368504 0.047071 0.000000
0.404831 0.047071 0.000000
0.443980 0.047071 0.000000
0.486172 0.047071 0.000000
0.000000 0.055588 0.000000
0.006399 0.055588 0.000000
0.007557 0.055588 0.000000
0.008924 0.055588 0.000000
0.010538 0.055588 0.000000
0.012445 0.055588 0.000000
0.014696 0.055588 0.000000
0.017355 0.055588 0.000000
0.020495 0.055588 0.000000
0.024203 0.055588 0.000000
0.028582 0.055588 0.000000
0.033753 0.055588 0.000000
0.039860 0.055588 0.000000
0.047071 0.055588 0.000000
0.055588 0.055588 0.000000
0.065645 0.055588 0.000000
0.077521 0.055588 0.000000
0.091454 0.055588 0.000000
0.106253 0.055588 0.000000
0.122203 0.055588 0.000000
0.139391 0.055588 0.000000
0.157915 0.055588 0.000000
0.177878 0.055588 0.000000
0.199393 0.055588 0.000000
0.222579 0.055588 0.000000
0.247567 0.055588 0.000000
0.274496 0.055588 0.000000
0.303519 0.055588 0.000000
0.334796 0.055588 0.000000
0.368504 0.055588 0.000000
0.404831 0.055588 0.000000
0.443980 0.055588 0.000000
0.486172 0.055588 0.000000
0.000000 0.065645 0.000000
0.006399 0.065645 0.000000
0.007557 0.065645 0.000000
0.008924 0.065645 0.000000
0.010538 0.065645 0.000000
0.012445 0.065645 0.000000
0.014696 0.065645 0.000000
0.017355 0.065645 0.000000
0.020495 0.065645 0.000000
0.024203 0.065645 0.000000
0.028582 0.065645 0.000000
0.033753 0.065645 0.000000
0.039860 0.065645 0.000000
0.047071 0.065645 0.000000
0.055588 0.065645 0.000000
0.065645 0.065645 0.000000
0.077521 0.065645 0.000000
0.091454 0.065645 0.000000
0.106253 0.065645 0.000000
0.122203 0.065645 0.000000
0.139391 0.065645 0.000000
0.157915 0.065645 0.000000
0.177878 0.065645 0.000000
0.199393 0.065645 0.000000
0.222579 0.065645 0.000000
0.247567 0.065645 0.000000
0.274496 0.065645 0.000000
0.303519 0.065645 0.000000
0.334796 0.065645 0.000000
0.368504 0.065645 0.000000
0.404831 0.065645 0.000000
0.443980 0.065645 0.000000
0.486172 0.065645 0.000000
0.000000 0.077521 0.000000
0.006399 0.077521 0.000000
0.007557 0.077521 0.000000
0.008924 0.077521 0.000000
0.010538 0.077521 0.000000
0.012445 0.077521 0.000000
0.014696 0.077521 0.000000
0.017355 0.077521 0.000000
0.020495 0.077521 0.000000
0.024203 0.077521 0.000000
0.028582 0.077521 0.000000
0.033753 0.077521 0.000000
0.039860 0.077521 0.000000
0.047071 0.077521 0.000000
0.055588 0.077521 0.000000
0.065645 0.077521 0.000000
0.077521 0.077521 0.000000
0.091454 0.077521 0.000000
0.106253 0.077521 0.000000
0.122203 0.077521 0.000000
0.139391 0.077521 0.000000
0.157915 0.077521 0.000000
0.177878 0.077521 0.000000
0.199393 0.077521 0.000000
0.222579 0.077521 0.000000
0.247567 0.077521 0.000000
0.274496 0.077521 0.000000
0.303519 0.077521 0.000000
0.334796 0.077521 0.000000
0.368504 0.077521 0.000000
0.404831 0.077521 0.000000
0.443980 0.077521 0.000000
0.486172 0.077521 0.000000
0.000000 0.091454 0.000000
0.006399 0.091454 0.000000
0.007557 0.091454 0.000000
0.008924 0.091454 0.000000
0.010538 0.091454 0.000000
0.012445 0.091454 0.000000
0.014696 0.091454 0.000000
0.017355 0.091454 0.000000
0.020495 0.091454 0.000000
0.024203 0.091454 0.000000
0.028582 0.091454 0.000000
0.033753 0.091454 0.000000
0.039860 0.091454 0.000000
0.047071 0.091454 0.000000
0.055588 0.091454 0.000000
0.065645 0.091454 0.000000
0.077521 0.091454 0.000000
0.091454 0.091454 0.000000
0.106253 0.091454 0.000000
0.122203 0.091454 0.000000
0.139391 0.091454 0.000000
0.157915 0.091454 0.000000
0.177878 0.091454 0.000000
0.199393 0.091454 0.000000
0.222579 0.091454 0.000000
0.247567 0.091454 0.000000
0.274496 0.091454 0.000000
0.303519 0.091454 0.000000
0.334796 0.091454 0.000000
0.368504 0.091454 0.000000
0.404831 0.091454 0.000000
0.443980 0.091454 0.000000
0.486172 0.091454 0.000000
0.000000 0.106253 0.000000
0.006399 0.106253 0.000000
0.007557 0.106253 0.000000
0.008924 0.106253 0.000000
0.010538 0.106253 0.000000
0.012445 0.106253 0.000000
0.014696 0.106253 0.000000
0.017355 0.106253 0.000000
0.020495 0.106253 0.000000
0.024203 0.106253 0.000000
0.028582 0.106253 0.000000
0.033753 0.106253 0.000000
0.039860 0.106253 0.000000
0.047071 0.106253 0.000000
0.055588 0.106253 0.000000
0.065645 0.106253 0.000000
0.077521 0.106253 0.000000
0.091454 0.106253 0.000000
0.106253 0.106253 0.000000
0.122203 0.106253 0.000000
0.139391 0.106253 0.000000
0.157915 0.106253 0.000000
0.177878 0.106253 0.000000
0.199393 0.106253 0.000000
0.222579 0.106253 0.000000
0.247567 0.106253 0.000000
0.274496 0.106253 0.000000
0.303519 0.106253 0.000000
0.334796 0.106253 0.000000
0.368504 0.106253 0.000000
0.404831 0.106253 0.000000
0.443980 0.106253 0.000000
0.486172 0.106253 0.000000
0.000000 0.122203 0.000000
0.006399 0.122203 0.000000
0.007557 0.122203 0.000000
0.008924 0.122203 0.000000
0.010538 0.122203 0.000000
0.012445 0.122203 0.000000
0.014696 0.122203 0.000000
0.017355 0.122203 0.000000
0.020495 0.122203 0.000000
0.024203 0.122203 0.000000
0.028582 0.122203 0.000000
0.033753 0.122203 0.000000
0.039860 0.122203 0.000000
0.047071 0.122203 0.000000
0.055588 0.122203 0.000000
0.065645 0.122203 0.000000
0.077521 0.122203 0.000000
0.091454 0.122203 0.000000
0.106253 0.122203 0.000000
0.122203 0.122203 0.000000
0.139391 0.122203 0.000000
0.157915 0.122203 0.000000
0.177878 0.122203 0.000000
0.199393 0.122203 0.000000
0.222579 0.122203 0.000000
0.247567 0.122203 0.000000
0.274496 0.122203 0.000000
0.303519 0.122203 0.000000
0.334796 0.122203 0.000000
0.368504 0.122203 0.000000
0.404831 0.122203 0.000000
0.443980 0.122203 0.000000
0.486172 0.122203 0.000000
0.000000 0.139391 0.000000
0.006399 0.139391 0.000000
0.007557 0.139391 0.000000
0.008924 0.139391 0.000000
0.010538 0.139391 0.000000
0.012445 0.139391 0.000000
0.014696 0.139391 0.000000
0.017355 0.139391 0.000000
0.020495 0.139391 0.000000
0.024203 0.139391 0.000000
0.028582 0.139391 0.000000
0.033753 0.139391 0.000000
0.039860 0.139391 0.000000
0.047071 0.139391 0.000000
0.055588 0.139391 0.000000
0.065645 0.139391 0.000000
0.077521 0.139391 0.000000
0.091454 0.139391 0.000000
0.106253 0.139391 0.000000
0.122203 0.139391 0.000000
0.139391 0.139391 0.000000
0.157915 0.139391 0.000000
0.177878 0.139391 0.000000
0.199393 0.139391 0.000000
0.222579 0.139391 0.000000
0.247567 0.139391 0.000000
0.274496 0.139391 0.000000
0.303519 0.139391 0.000000
0.334796 0.139391 0.000000
0.368504 0.139391 0.000000
0.404831 0.139391 0.000000
0.443980 0.139391 0.000000
0.486172 0.139391 0.000000
0.000000 0.157915 0.000000
0.006399 0.157915 0.000000
0.007557 0.157915 0.000000
0.008924 0.157915 0.000000
0.010538 0.157915 0.000000
0.012445 0.157915 0.000000
0.014696 0.157915 0.000000
0.017355 0.157915 0.000000
0.020495 0.157915 0.000000
0.024203 0.157915 0.000000
0.028582 0.157915 0.000000
0.033753 0.157915 0.000000
0.039860 0.157915 0.000000
0.047071 0.157915 0.000000
0.055588 0.157915 0.000000
0.065645 0.157915 0.000000
0.077521 0.157915 0.000000
0.091454 0.157915 0.000000
0.106253 0.157915 0.000000
0.122203 0.157915 0.000000
0.139391 0.157915 0.000000
0.157915 0.157915 0.000000
0.177878 0.157915 0.000000
0.199393 0.157915 0.000000
0.222579 0.157915 0.000000
0.247567 0.157915 0.000000
0.274496 0.157915 0.000000
0.303519 0.157915 0.000000
0.334796 0.157915 0.000000
0.368504 0.157915 0.000000
0.404831 0.157915 0.000000
0.443980 0.157915 0.000000
0.486172 0.157915 0.000000
0.000000 0.177878 0.000000
0.006399 0.177878 0.000000
0.007557 0.177878 0.000000
0.008924 0.177878 0.000000
0.010538 0.177878 0.000000
0.012445 0.177878 0.000000
0.014696 0.177878 0.000000
0.017355 0.177878 0.000000
0.020495 0.177878 0.000000
0.024203 0.177878 0.000000
0.028582 0.177878 0.000000
0.033753 0.177878 0.000000
0.039860 0.177878 0.000000
0.047071 0.177878 0.000000
0.055588 0.177878 0.000000
0.065645 0.177878 0.000000
0.077521 0.177878 0.000000
0.091454 0.177878 0.000000
0.106253 0.177878 0.000000
0.122203 0.177878 0.000000
0.139391 0.177878 0.000000
0.157915 0.177878 0.000000
0.177878 0.177878 0.000000
0.199393 0.177878 0.000000
0.222579 0.177878 0.000000
0.247567 0.177878 0.000000
0.274496 0.177878 0.000000
0.303519 0.177878 0.000000
0.334796 0.177878 0.000000
0.368504 0.177878 0.000000
0.404831 0.177878 0.000000
0.443980 0.177878 0.000000
0.486172 0.177878 0.000000
0.000000 0.199393 0.000000
0.006399 0.199393 0.000000
0.007557 0.199393 0.000000
0.008924 0.199393 0.000000
0.010538 0.199393 0.000000
0.012445 0.199393 0.000000
0.014696 0.199393 0.000000
0.017355 0.199393 0.000000
0.020495 0.199393 0.000000
0.024203 0.199393 0.000000
0.028582 0.199393 0.000000
0.033753 0.199393 0.000000
0.039860 0.199393 0.000000
0.047071 0.199393 0.000000
0.055588 0.199393 0.000000
0.065645 0.199393 0.000000
0.077521 0.199393 0.000000
0.091454 0.199393 0.000000
0.106253 0.199393 0.000000
0.122203 0.199393 0.000000
0.139391 0.199393 0.000000
0.157915 0.199393 0.000000
0.177878 0.199393 0.000000
0.199393 0.199393 0.000000
0.222579 0.199393 0.000000
0.247567 0.199393 0.000000
0.274496 0.199393 0.000000
0.303519 0.199393 0.000000
0.334796 0.199393 0.000000
0.368504 0.199393 0.000000
0.404831 0.199393 0.000000
0.443980 0.199393 0.000000
0.486172 0.199393 0.000000
0.000000 0.222579 0.000000
0.006399 0.222579 0.000000
0.007557 0.222579 0.000000
0.008924 0.222579 0.000000
0.010538 0.222579 0.000000
0.012445 0.222579 0.000000
0.014696 0.222579 0.000000
0.017355 0.222579 0.000000
0.020495 0.222579 0.000000
0.024203 0.222579 0.000000
0.028582 0.222579 0.000000
0.033753 0.222579 0.000000
0.039860 0.222579 0.000000
0.047071 0.222579 0.000000
0.055588 0.222579 0.000000
0.065645 0.222579 0.000000
0.077521 0.222579 0.000000
0.091454 0.222579 0.000000
0.106253 0.222579 0.000000
0.122203 0.222579 0.000000
0.139391 0.222579 0.000000
0.157915 0.222579 0.000000
0.177878 0.222579 0.000000
0.199393 0.222579 0.000000
0.222579 0.222579 0.000000
0.247567 0.222579 0.000000
0.274496 0.222579 0.000000
0.303519 0.222579 0.000000
0.334796 0.222579 0.000000
0.368504 0.222579 0.000000
0.404831 0.222579 0.000000
0.443980 0.222579 0.000000
0.486172 0.222579 0.000000
0.000000 0.247567 0.000000
0.006399 0.247567 0.000000
0.007557 0.247567 0.000000
0.008924 0.247567 0.000000
0.010538 0.247567 0.000000
0.012445 0.247567 0.000000
0.014696 0.247567 0.000000
0.017355 0.247567 0.000000
0.020495 0.247567 0.000000
0.024203 0.247567 0.000000
0.028582 0.247567 0.000000
0.033753 0.247567 0.000000
0.039860 0.247567 0.000000
0.047071 0.247567 0.000000
0.055588 0.247567 0.000000
0.065645 0.247567 0.000000
0.077521 0.247567 0.000000
0.091454 0.247567 0.000000
0.106253 0.247567 0.000000
0.122203 0.247567 0.000000
0.139391 0.247567 0.000000
0.157915 0.247567 0.000000
0.177878 0.247567 0.000000
0.199393 0.247567 0.000000
0.222579 0.247567 0.000000
0.247567 0.247567 0.000000
0.274496 0.247567 0.000000
0.303519 0.247567 0.000000
0.334796 0.247567 0.000000
0.368504 0.247567 0.000000
0.404831 0.247567 0.000000
0.443980 0.247567 0.000000
0.486172 0.247567 0.000000
0.000000 0.274496 0.000000
0.006399 0.274496 0.000000
0.007557 0.274496 0.000000
0.008924 0.274496 0.000000
0.010538 0.274496 0.000000
0.012445 0.274496 0.000000
0.014696 0.274496 0.000000
0.017355 0.274496 0.000000
0.020495 0.274496 0.000000
0.024203 0.274496 0.000000
0.028582 0.274496 0.000000
0.033753 0.274496 0.000000
0.039860 0.274496 0.000000
0.047071 0.274496 0.000000
0.055588 0.274496 0.000000
0.065645 0.274496 0.000000
0.077521 0.274496 0.000000
0.091454 0.274496 0.000000
0.106253 0.274496 0.000000
0.122203 0.274496 0.000000
0.139391 0.274496 0.000000
0.157915 0.274496 0.000000
0.177878 0.274496 0.000000
0.199393 0.274496 0.000000
0.222579 0.274496 0.000000
0.247567 0.274496 0.000000
0.274496 0.274496 0.000000
0.303519 0.274496 0.000000
0.334796 0.274496 0.000000
