public/luts/log_to_rec709.cube
TITLE "SLog2 to Rec.709"
LUT_3D_SIZE 9
0.000000 0.000000 0.000000
0.010538 0.000000 0.000000
0.020495 0.000000 0.000000
0.039860 0.000000 0.000000
0.077521 0.000000 0.000000
0.139391 0.000000 0.000000
0.222579 0.000000 0.000000
0.334796 0.000000 0.000000
0.486172 0.000000 0.000000
0.000000 0.010538 0.000000
0.010538 0.010538 0.000000
0.020495 0.010538 0.000000
0.039860 0.010538 0.000000
0.077521 0.010538 0.000000
0.139391 0.010538 0.000000
0.222579 0.010538 0.000000
0.334796 0.010538 0.000000
0.486172 0.010538 0.000000
0.000000 0.020495 0.000000
0.010538 0.020495 0.000000
0.020495 0.020495 0.000000
0.039860 0.020495 0.000000
0.077521 0.020495 0.000000
0.139391 0.020495 0.000000
0.222579 0.020495 0.000000
0.334796 0.020495 0.000000
0.486172 0.020495 0.000000
0.000000 0.039860 0.000000
0.010538 0.039860 0.000000
0.020495 0.039860 0.000000
0.039860 0.039860 0.000000
0.077521 0.039860 0.000000
0.139391 0.039860 0.000000
0.222579 0.039860 0.000000
0.334796 0.039860 0.000000
0.486172 0.039860 0.000000
0.000000 0.077521 0.000000
0.010538 0.077521 0.000000
0.020495 0.077521 0.000000
0.039860 0.077521 0.000000
0.077521 0.077521 0.000000
0.139391 0.077521 0.000000
0.222579 0.077521 0.000000
0.334796 0.077521 0.000000
0.486172 0.077521 0.000000
0.000000 0.139391 0.000000
0.010538 0.139391 0.000000
0.020495 0.139391 0.000000
0.039860 0.139391 0.000000
0.077521 0.139391 0.000000
0.139391 0.139391 0.000000
0.222579 0.139391 0.000000
0.334796 0.139391 0.000000
0.486172 0.139391 0.000000
0.000000 0.222579 0.000000
0.010538 0.222579 0.000000
0.020495 0.222579 0.000000
0.039860 0.222579 0.000000
0.077521 0.222579 0.000000
0.139391 0.222579 0.000000
0.222579 0.222579 0.000000
0.334796 0.222579 0.000000
0.486172 0.222579 0.000000
0.000000 0.334796 0.000000
0.010538 0.334796 0.000000
0.020495 0.334796 0.000000
0.039860 0.334796 0.000000
0.077521 0.334796 0.000000
0.139391 0.334796 0.000000
0.222579 0.334796 0.000000
0.334796 0.334796 0.000000
0.486172 0.334796 0.000000
0.000000 0.486172 0.000000
0.010538 0.486172 0.000000
0.020495 0.486172 0.000000
0.039860 0.486172 0.000000
0.077521 0.486172 0.000000
0.139391 0.486172 0.000000
0.222579 0.486172 0.000000
0.334796 0.486172 0.000000
0.486172 0.486172 0.000000
0.000000 0.000000 0.010538
0.010538 0.000000 0.010538
0.020495 0.000000 0.010538
0.039860 0.000000 0.010538
0.077521 0.000000 0.010538
0.139391 0.000000 0.010538
0.222579 0.000000 0.010538
0.334796 0.000000 0.010538
0.486172 0.000000 0.010538
0.000000 0.010538 0.010538
0.010538 0.010538 0.010538
0.020495 0.010538 0.010538
0.039860 0.010538 0.010538
0.077521 0.010538 0.010538
0.139391 0.010538 0.010538
0.222579 0.010538 0.010538
0.334796 0.010538 0.010538
0.486172 0.010538 0.010538
0.000000 0.020495 0.010538
0.010538 0.020495 0.010538
0.020495 0.020495 0.010538
0.039860 0.020495 0.010538
0.077521 0.020495 0.010538
0.139391 0.020495 0.010538
0.222579 0.020495 0.010538
0.334796 0.020495 0.010538
0.486172 0.020495 0.010538
0.000000 0.039860 0.010538
0.010538 0.039860 0.010538
0.020495 0.039860 0.010538
0.039860 0.039860 0.010538
0.077521 0.039860 0.010538
0.139391 0.039860 0.010538
0.222579 0.039860 0.010538
0.334796 0.039860 0.010538
0.486172 0.039860 0.010538
0.000000 0.077521 0.010538
0.010538 0.077521 0.010538
0.020495 0.077521 0.010538
0.039860 0.077521 0.010538
0.077521 0.077521 0.010538
0.139391 0.077521 0.010538
0.222579 0.077521 0.010538
0.334796 0.077521 0.010538
0.486172 0.077521 0.010538
0.000000 0.139391 0.010538
0.010538 0.139391 0.010538
0.020495 0.139391 0.010538
0.039860 0.139391 0.010538
0.077521 0.139391 0.010538
0.139391 0.139391 0.010538
0.222579 0.139391 0.010538
0.334796 0.139391 0.010538
0.486172 0.139391 0.010538
0.000000 0.222579 0.010538
0.010538 0.222579 0.010538
0.020495 0.222579 0.010538
0.039860 0.222579 0.010538
0.077521 0.222579 0.010538
0.139391 0.222579 0.010538
0.222579 0.222579 0.010538
0.334796 0.222579 0.010538
0.486172 0.222579 0.010538
0.000000 0.334796 0.010538
0.010538 0.334796 0.010538
0.020495 0.334796 0.010538
0.039860 0.334796 0.010538
0.077521 0.334796 0.010538
0.139391 0.334796 0.010538
0.222579 0.334796 0.010538
0.334796 0.334796 0.010538
0.486172 0.334796 0.010538
0.000000 0.486172 0.010538
0.010538 0.486172 0.010538
0.020495 0.486172 0.010538
0.039860 0.486172 0.010538
0.077521 0.486172 0.010538
0.139391 0.486172 0.010538
0.222579 0.486172 0.010538
0.334796 0.486172 0.010538
0.486172 0.486172 0.010538
0.000000 0.000000 0.020495
0.010538 0.000000 0.020495
0.020495 0.000000 0.020495
0.039860 0.000000 0.020495
0.077521 0.000000 0.020495
0.139391 0.000000 0.020495
0.222579 0.000000 0.020495
0.334796 0.000000 0.020495
0.486172 0.000000 0.020495
0.000000 0.010538 0.020495
0.010538 0.010538 0.020495
0.020495 0.010538 0.020495
0.039860 0.010538 0.020495
0.077521 0.010538 0.020495
0.139391 0.010538 0.020495
0.222579 0.010538 0.020495
0.334796 0.010538 0.020495
0.486172 0.010538 0.020495
0.000000 0.020495 0.020495
0.010538 0.020495 0.020495
0.020495 0.020495 0.020495
0.039860 0.020495 0.020495
0.077521 0.020495 0.020495
0.139391 0.020495 0.020495
0.222579 0.020495 0.020495
0.334796 0.020495 0.020495
0.486172 0.020495 0.020495
0.000000 0.039860 0.020495
0.010538 0.039860 0.020495
0.020495 0.039860 0.020495
0.039860 0.039860 0.020495
0.077521 0.039860 0.020495
0.139391 0.039860 0.020495
0.222579 0.039860 0.020495
0.334796 0.039860 0.020495
0.486172 0.039860 0.020495
0.000000 0.077521 0.020495
0.010538 0.077521 0.020495
0.020495 0.077521 0.020495
0.039860 0.077521 0.020495
0.077521 0.077521 0.020495
0.139391 0.077521 0.020495
0.222579 0.077521 0.020495
0.334796 0.077521 0.020495
0.486172 0.077521 0.020495
0.000000 0.139391 0.020495
0.010538 0.139391 0.020495
0.020495 0.139391 0.020495
0.039860 0.139391 0.020495
0.077521 0.139391 0.020495
0.139391 0.139391 0.020495
0.222579 0.139391 0.020495
0.334796 0.139391 0.020495
0.486172 0.139391 0.020495
0.000000 0.222579 0.020495
0.010538 0.222579 0.020495
0.020495 0.222579 0.020495
0.039860 0.222579 0.020495
0.077521 0.222579 0.020495
0.139391 0.222579 0.020495
0.222579 0.222579 0.020495
0.334796 0.222579 0.020495
0.486172 0.222579 0.020495
0.000000 0.334796 0.020495
0.010538 0.334796 0.020495
0.020495 0.334796 0.020495
0.039860 0.334796 0.020495
0.077521 0.334796 0.020495
0.139391 0.334796 0.020495
0.222579 0.334796 0.020495
0.334796 0.334796 0.020495
0.486172 0.334796 0.020495
0.000000 0.486172 0.020495
0.010538 0.486172 0.020495
0.020495 0.486172 0.020495
0.039860 0.486172 0.020495
0.077521 0.486172 0.020495
0.139391 0.486172 0.020495
0.222579 0.486172 0.020495
0.334796 0.486172 0.020495
0.486172 0.486172 0.020495
0.000000 0.000000 0.039860
0.010538 0.000000 0.039860
0.020495 0.000000 0.039860
0.039860 0.000000 0.039860
0.077521 0.000000 0.039860
0.139391 0.000000 0.039860
0.222579 0.000000 0.039860
0.334796 0.000000 0.039860
0.486172 0.000000 0.039860
0.000000 0.010538 0.039860
0.010538 0.010538 0.039860
0.020495 0.010538 0.039860
0.039860 0.010538 0.039860
0.077521 0.010538 0.039860
0.139391 0.010538 0.039860
0.222579 0.010538 0.039860
0.334796 0.010538 0.039860
0.486172 0.010538 0.039860
0.000000 0.020495 0.039860
0.010538 0.020495 0.039860
0.020495 0.020495 0.039860
0.039860 0.020495 0.039860
0.077521 0.020495 0.039860
0.139391 0.020495 0.039860
0.222579 0.020495 0.039860
0.334796 0.020495 0.039860
0.486172 0.020495 0.039860
0.000000 0.039860 0.039860
0.010538 0.039860 0.039860
0.020495 0.039860 0.039860
0.039860 0.039860 0.039860
0.077521 0.039860 0.039860
0.139391 0.039860 0.039860
0.222579 0.039860 0.039860
0.334796 0.039860 0.039860
0.486172 0.039860 0.039860
0.000000 0.077521 0.039860
0.010538 0.077521 0.039860
0.020495 0.077521 0.039860
0.039860 0.077521 0.039860
0.077521 0.077521 0.039860
0.139391 0.077521 0.039860
0.222579 0.077521 0.039860
0.334796 0.077521 0.039860
0.486172 0.077521 0.039860
0.000000 0.139391 0.039860
0.010538 0.139391 0.039860
0.020495 0.139391 0.039860
0.039860 0.139391 0.039860
0.077521 0.139391 0.039860
0.139391 0.139391 0.039860
0.222579 0.139391 0.039860
0.334796 0.139391 0.039860
0.486172 0.139391 0.039860
0.000000 0.222579 0.039860
0.010538 0.222579 0.039860
0.020495 0.222579 0.039860
0.039860 0.222579 0.039860
0.077521 0.222579 0.039860
0.139391 0.222579 0.039860
0.222579 0.222579 0.039860
0.334796 0.222579 0.039860
0.486172 0.222579 0.039860
0.000000 0.334796 0.039860
0.010538 0.334796 0.039860
0.020495 0.334796 0.039860
0.039860 0.334796 0.039860
0.077521 0.334796 0.039860
0.139391 0.334796 0.039860
0.222579 0.334796 0.039860
0.334796 0.334796 0.039860
0.486172 0.334796 0.039860
0.000000 0.486172 0.039860
0.010538 0.486172 0.039860
0.020495 0.486172 0.039860
0.039860 0.486172 0.039860
0.077521 0.486172 0.039860
0.139391 0.486172 0.039860
0.222579 0.486172 0.039860
0.334796 0.486172 0.039860
0.486172 0.486172 0.039860
0.000000 0.000000 0.077521
0.010538 0.000000 0.077521
0.020495 0.000000 0.077521
0.039860 0.000000 0.077521
0.077521 0.000000 0.077521
0.139391 0.000000 0.077521
0.222579 0.000000 0.077521
0.334796 0.000000 0.077521
0.486172 0.000000 0.077521
0.000000 0.010538 0.077521
0.010538 0.010538 0.077521
0.020495 0.010538 0.077521
0.039860 0.010538 0.077521
0.077521 0.010538 0.077521
0.139391 0.010538 0.077521
0.222579 0.010538 0.077521
0.334796 0.010538 0.077521
0.486172 0.010538 0.077521
0.000000 0.020495 0.077521
0.010538 0.020495 0.077521
0.020495 0.020495 0.077521
0.039860 0.020495 0.077521
0.077521 0.020495 0.077521
0.139391 0.020495 0.077521
0.222579 0.020495 0.077521
0.334796 0.020495 0.077521
0.486172 0.020495 0.077521
0.000000 0.039860 0.077521
0.010538 0.039860 0.077521
0.020495 0.039860 0.077521
0.039860 0.039860 0.077521
0.077521 0.039860 0.077521
0.139391 0.039860 0.077521
0.222579 0.039860 0.077521
0.334796 0.039860 0.077521
0.486172 0.039860 0.077521
0.000000 0.077521 0.077521
0.010538 0.077521 0.077521
0.020495 0.077521 0.077521
0.039860 0.077521 0.077521
0.077521 0.077521 0.077521
0.139391 0.077521 0.077521
0.222579 0.077521 0.077521
0.334796 0.077521 0.077521
0.486172 0.077521 0.077521
0.000000 0.139391 0.077521
0.010538 0.139391 0.077521
0.020495 0.139391 0.077521
0.039860 0.139391 0.077521
0.077521 0.139391 0.077521
0.139391 0.139391 0.077521
0.222579 0.139391 0.077521
0.334796 0.139391 0.077521
0.486172 0.139391 0.077521
0.000000 0.222579 0.077521
0.010538 0.222579 0.077521
0.020495 0.222579 0.077521
0.039860 0.222579 0.077521
0.077521 0.222579 0.077521
0.139391 0.222579 0.077521
0.222579 0.222579 0.077521
0.334796 0.222579 0.077521
0.486172 0.222579 0.077521
0.000000 0.334796 0.077521
0.010538 0.334796 0.077521
0.020495 0.334796 0.077521
0.039860 0.334796 0.077521
0.077521 0.334796 0.077521
0.139391 0.334796 0.077521
0.222579 0.334796 0.077521
0.334796 0.334796 0.077521
0.486172 0.334796 0.077521
0.000000 0.486172 0.077521
0.010538 0.486172 0.077521
0.020495 0.486172 0.077521
0.039860 0.486172 0.077521
0.077521 0.486172 0.077521
0.139391 0.486172 0.077521
0.222579 0.486172 0.077521
0.334796 0.486172 0.077521
0.486172 0.486172 0.077521
0.000000 0.000000 0.139391
0.010538 0.000000 0.139391
0.020495 0.000000 0.139391
0.039860 0.000000 0.139391
0.077521 0.000000 0.139391
0.139391 0.000000 0.139391
0.222579 0.000000 0.139391
0.334796 0.000000 0.139391
0.486172 0.000000 0.139391
0.000000 0.010538 0.139391
0.010538 0.010538 0.139391
0.020495 0.010538 0.139391
0.039860 0.010538 0.139391
0.077521 0.010538 0.139391
0.139391 0.010538 0.139391
0.222579 0.010538 0.139391
0.334796 0.010538 0.139391
0.486172 0.010538 0.139391
0.000000 0.020495 0.139391
0.010538 0.020495 0.139391
0.020495 0.020495 0.139391
0.039860 0.020495 0.139391
0.077521 0.020495 0.139391
0.139391 0.020495 0.139391
0.222579 0.020495 0.139391
0.334796 0.020495 0.139391
0.486172 0.020495 0.139391
0.000000 0.039860 0.139391
0.010538 0.039860 0.139391
0.020495 0.039860 0.139391
0.039860 0.039860 0.139391
0.077521 0.039860 0.139391
0.139391 0.039860 0.139391
0.222579 0.039860 0.139391
0.334796 0.039860 0.139391
0.486172 0.039860 0.139391
0.000000 0.077521 0.139391
0.010538 0.077521 0.139391
0.020495 0.077521 0.139391
0.039860 0.077521 0.139391
0.077521 0.077521 0.139391
0.139391 0.077521 0.139391
0.222579 0.077521 0.139391
0.334796 0.077521 0.139391
0.486172 0.077521 0.139391
0.000000 0.139391 0.139391
0.010538 0.139391 0.139391
0.020495 0.139391 0.139391
0.039860 0.139391 0.139391
0.077521 0.139391 0.139391
0.139391 0.139391 0.139391
0.222579 0.139391 0.139391
0.334796 0.139391 0.139391
0.486172 0.139391 0.139391
0.000000 0.222579 0.139391
0.010538 0.222579 0.139391
0.020495 0.222579 0.139391
0.039860 0.222579 0.139391
0.077521 0.222579 0.139391
0.139391 0.222579 0.139391
0.222579 0.222579 0.139391
0.334796 0.222579 0.139391
0.486172 0.222579 0.139391
0.000000 0.334796 0.139391
0.010538 0.334796 0.139391
0.020495 0.334796 0.139391
0.039860 0.334796 0.139391
0.077521 0.334796 0.139391
0.139391 0.334796 0.139391
0.222579 0.334796 0.139391
0.334796 0.334796 0.139391
0.486172 0.334796 0.139391
0.000000 0.486172 0.139391
0.010538 0.486172 0.139391
0.020495 0.486172 0.139391
0.039860 0.486172 0.139391
0.077521 0.486172 0.139391
0.139391 0.486172 0.139391
0.222579 0.486172 0.139391
0.334796 0.486172 0.139391
0.486172 0.486172 0.139391
0.000000 0.000000 0.222579
0.010538 0.000000 0.222579
0.020495 0.000000 0.222579
0.039860 0.000000 0.222579
0.077521 0.000000 0.222579
0.139391 0.000000 0.222579
0.222579 0.000000 0.222579
0.334796 0.000000 0.222579
0.486172 0.000000 0.222579
0.000000 0.010538 0.222579
0.010538 0.010538 0.222579
0.020495 0.010538 0.222579
0.039860 0.010538 0.222579
0.077521 0.010538 0.222579
0.139391 0.010538 0.222579
0.222579 0.010538 0.222579
0.334796 0.010538 0.222579
0.486172 0.010538 0.222579
0.000000 0.020495 0.222579
0.010538 0.020495 0.222579
0.020495 0.020495 0.222579
0.039860 0.020495 0.222579
0.077521 0.020495 0.222579
0.139391 0.020495 0.222579
0.222579 0.020495 0.222579
0.334796 0.020495 0.222579
0.486172 0.020495 0.222579
0.000000 0.039860 0.222579
0.010538 0.039860 0.222579
0.020495 0.039860 0.222579
0.039860 0.039860 0.222579
0.077521 0.039860 0.222579
0.139391 0.039860 0.222579
0.222579 0.039860 0.222579
0.334796 0.039860 0.222579
0.486172 0.039860 0.222579
0.000000 0.077521 0.222579
0.010538 0.077521 0.222579
0.020495 0.077521 0.222579
0.039860 0.077521 0.222579
0.077521 0.077521 0.222579
0.139391 0.077521 0.222579
0.222579 0.077521 0.222579
0.334796 0.077521 0.222579
0.486172 0.077521 0.222579
0.000000 0.139391 0.222579
0.010538 0.139391 0.222579
0.020495 0.139391 0.222579
0.039860 0.139391 0.222579
0.077521 0.139391 0.222579
0.139391 0.139391 0.222579
0.222579 0.139391 0.222579
0.334796 0.139391 0.222579
0.486172 0.139391 0.222579
0.000000 0.222579 0.222579
0.010538 0.222579 0.222579
0.020495 0.222579 0.222579
0.039860 0.222579 0.222579
0.077521 0.222579 0.222579
0.139391 0.222579 0.222579
0.222579 0.222579 0.222579
0.334796 0.222579 0.222579
0.486172 0.222579 0.222579
0.000000 0.334796 0.222579
0.010538 0.334796 0.222579
0.020495 0.334796 0.222579
0.039860 0.334796 0.222579
0.077521 0.334796 0.222579
0.139391 0.334796 0.222579
0.222579 0.334796 0.222579
0.334796 0.334796 0.222579
0.486172 0.334796 0.222579
0.000000 0.486172 0.222579
0.010538 0.486172 0.222579
0.020495 0.486172 0.222579
0.039860 0.486172 0.222579
0.077521 0.486172 0.222579
0.139391 0.486172 0.222579
0.222579 0.486172 0.222579
0.334796 0.486172 0.222579
0.486172 0.486172 0.222579
0.000000 0.000000 0.334796
0.010538 0.000000 0.334796
0.020495 0.000000 0.334796
0.039860 0.000000 0.334796
0.077521 0.000000 0.334796
0.139391 0.000000 0.334796
0.222579 0.000000 0.334796
0.334796 0.000000 0.334796
0.486172 0.000000 0.334796
0.000000 0.010538 0.334796
0.010538 0.010538 0.334796
0.020495 0.010538 0.334796
0.039860 0.010538 0.334796
0.077521 0.010538 0.334796
0.139391 0.010538 0.334796
0.222579 0.010538 0.334796
0.334796 0.010538 0.334796
0.486172 0.010538 0.334796
0.000000 0.020495 0.334796
0.010538 0.020495 0.334796
0.020495 0.020495 0.334796
0.039860 0.020495 0.334796
0.077521 0.020495 0.334796
0.139391 0.020495 0.334796
0.222579 0.020495 0.334796
0.334796 0.020495 0.334796
0.486172 0.020495 0.334796
0.000000 0.039860 0.334796
0.010538 0.039860 0.334796
0.020495 0.039860 0.334796
0.039860 0.039860 0.334796
0.077521 0.039860 0.334796
0.139391 0.039860 0.334796
0.222579 0.039860 0.334796
0.334796 0.039860 0.334796
0.486172 0.039860 0.334796
0.000000 0.077521 0.334796
0.010538 0.077521 0.334796
0.020495 0.077521 0.334796
0.039860 0.077521 0.334796
0.077521 0.077521 0.334796
0.139391 0.077521 0.334796
0.222579 0.077521 0.334796
0.334796 0.077521 0.334796
0.486172 0.077521 0.334796
0.000000 0.139391 0.334796
0.010538 0.139391 0.334796
0.020495 0.139391 0.334796
0.039860 0.139391 0.334796
0.077521 0.139391 0.334796
0.139391 0.139391 0.334796
0.222579 0.139391 0.334796
0.334796 0.139391 0.334796
0.486172 0.139391 0.334796
0.000000 0.222579 0.334796
0.010538 0.222579 0.334796
0.020495 0.222579 0.334796
0.039860 0.222579 0.334796
0.077521 0.222579 0.334796
0.139391 0.222579 0.334796
0.222579 0.222579 0.334796
0.334796 0.222579 0.334796
0.486172 0.222579 0.334796
0.000000 0.334796 0.334796
0.010538 0.334796 0.334796
0.020495 0.334796 0.334796
0.039860 0.334796 0.334796
0.077521 0.334796 0.334796
0.139391 0.334796 0.334796
0.222579 0.334796 0.334796
0.334796 0.334796 0.334796
0.486172 0.334796 0.334796
0.000000 0.486172 0.334796
0.010538 0.486172 0.334796
0.020495 0.486172 0.334796
0.039860 0.486172 0.334796
0.077521 0.486172 0.334796
0.139391 0.486172 0.334796
0.222579 0.486172 0.334796
0.334796 0.486172 0.334796
0.486172 0.486172 0.334796
0.000000 0.000000 0.486172
0.010538 0.000000 0.486172
0.020495 0.000000 0.486172
0.039860 0.000000 0.486172
0.077521 0.000000 0.486172
0.139391 0.000000 0.486172
0.222579 0.000000 0.486172
0.334796 0.000000 0.486172
0.486172 0.000000 0.486172
0.000000 0.010538 0.486172
0.010538 0.010538 0.486172
0.020495 0.010538 0.486172
0.039860 0.010538 0.486172
0.077521 0.010538 0.486172
0.139391 0.010538 0.486172
0.222579 0.010538 0.486172
0.334796 0.010538 0.486172
0.486172 0.010538 0.486172
0.000000 0.020495 0.486172
0.010538 0.020495 0.486172
0.020495 0.020495 0.486172
0.039860 0.020495 0.486172
0.077521 0.020495 0.486172
0.139391 0.020495 0.486172
0.222579 0.020495 0.486172
0.334796 0.020495 0.486172
0.486172 0.020495 0.486172
0.000000 0.039860 0.486172
0.010538 0.039860 0.486172
0.020495 0.039860 0.486172
0.039860 0.039860 0.486172
0.077521 0.039860 0.486172
0.139391 0.039860 0.486172
0.222579 0.039860 0.486172
0.334796 0.039860 0.486172
0.486172 0.039860 0.486172
0.000000 0.077521 0.486172
0.010538 0.077521 0.486172
0.020495 0.077521 0.486172
0.039860 0.077521 0.486172
0.077521 0.077521 0.486172
0.139391 0.077521 0.486172
0.222579 0.077521 0.486172
0.334796 0.077521 0.486172
0.486172 0.077521 0.486172
0.000000 0.139391 0.486172
0.010538 0.139391 0.486172
0.020495 0.139391 0.486172
0.039860 0.139391 0.486172
0.077521 0.139391 0.486172
0.139391 0.139391 0.486172
0.222579 0.139391 0.486172
0.334796 0.139391 0.486172
0.486172 0.139391 0.486172
0.000000 0.222579 0.486172
0.010538 0.222579 0.486172
0.020495 0.222579 0.486172
0.039860 0.222579 0.486172
0.077521 0.222579 0.486172
0.139391 0.222579 0.486172
0.222579 0.222579 0.486172
0.334796 0.222579 0.486172
0.486172 0.222579 0.486172
0.000000 0.334796 0.486172
0.010538 0.334796 0.486172
0.020495 0.334796 0.486172
0.039860 0.334796 0.486172
0.077521 0.334796 0.486172
0.139391 0.334796 0.486172
0.222579 0.334796 0.486172
0.334796 0.334796 0.486172
0.486172 0.334796 0.486172
0.000000 0.486172 0.486172
0.010538 0.486172 0.486172
0.020495 0.486172 0.486172
0.039860 0.486172 0.486172
0.077521 0.486172 0.486172
0.139391 0.486172 0.486172
0.222579 0.486172 0.486172
0.334796 0.486172 0.486172
0.486172 0.486172 0.486172
