public/luts/log_to_rec709.cube
TITLE "SLog2 to Rec.709"
LUT_3D_SIZE 5
0.000000 0.000000 0.000000
0.020495 0.000000 0.000000
0.077521 0.000000 0.000000
0.222579 0.000000 0.000000
0.486172 0.000000 0.000000
0.000000 0.020495 0.000000
0.020495 0.020495 0.000000
0.077521 0.020495 0.000000
0.222579 0.020495 0.000000
0.486172 0.020495 0.000000
0.000000 0.077521 0.000000
0.020495 0.077521 0.000000
0.077521 0.077521 0.000000
0.222579 0.077521 0.000000
0.486172 0.077521 0.000000
0.000000 0.222579 0.000000
0.020495 0.222579 0.000000
0.077521 0.222579 0.000000
0.222579 0.222579 0.000000
0.486172 0.222579 0.000000
0.000000 0.486172 0.000000
0.020495 0.486172 0.000000
0.077521 0.486172 0.000000
0.222579 0.486172 0.000000
0.486172 0.486172 0.000000
0.000000 0.000000 0.020495
0.020495 0.000000 0.020495
0.077521 0.000000 0.020495
0.222579 0.000000 0.020495
0.486172 0.000000 0.020495
0.000000 0.020495 0.020495
0.020495 0.020495 0.020495
0.077521 0.020495 0.020495
0.222579 0.020495 0.020495
0.486172 0.020495 0.020495
0.000000 0.077521 0.020495
0.020495 0.077521 0.020495
0.077521 0.077521 0.020495
0.222579 0.077521 0.020495
0.486172 0.077521 0.020495
0.000000 0.222579 0.020495
0.020495 0.222579 0.020495
0.077521 0.222579 0.020495
0.222579 0.222579 0.020495
0.486172 0.222579 0.020495
0.000000 0.486172 0.020495
0.020495 0.486172 0.020495
0.077521 0.486172 0.020495
0.222579 0.486172 0.020495
0.486172 0.486172 0.020495
0.000000 0.000000 0.077521
0.020495 0.000000 0.077521
0.077521 0.000000 0.077521
0.222579 0.000000 0.077521
0.486172 0.000000 0.077521
0.000000 0.020495 0.077521
0.020495 0.020495 0.077521
0.077521 0.020495 0.077521
0.222579 0.020495 0.077521
0.486172 0.020495 0.077521
0.000000 0.077521 0.077521
0.020495 0.077521 0.077521
0.077521 0.077521 0.077521
0.222579 0.077521 0.077521
0.486172 0.077521 0.077521
0.000000 0.222579 0.077521
0.020495 0.222579 0.077521
0.077521 0.222579 0.077521
0.222579 0.222579 0.077521
0.486172 0.222579 0.077521
0.000000 0.486172 0.077521
0.020495 0.486172 0.077521
0.077521 0.486172 0.077521
0.222579 0.486172 0.077521
0.486172 0.486172 0.077521
0.000000 0.000000 0.222579
0.020495 0.000000 0.222579
0.077521 0.000000 0.222579
0.222579 0.000000 0.222579
0.486172 0.000000 0.222579
0.000000 0.020495 0.222579
0.020495 0.020495 0.222579
0.077521 0.020495 0.222579
0.222579 0.020495 0.222579
0.486172 0.020495 0.222579
0.000000 0.077521 0.222579
0.020495 0.077521 0.222579
0.077521 0.077521 0.222579
0.222579 0.077521 0.222579
0.486172 0.077521 0.222579
0.000000 0.222579 0.222579
0.020495 0.222579 0.222579
0.077521 0.222579 0.222579
0.222579 0.222579 0.222579
0.486172 0.222579 0.222579
0.000000 0.486172 0.222579
0.020495 0.486172 0.222579
0.077521 0.486172 0.222579
0.222579 0.486172 0.222579
0.486172 0.486172 0.222579
0.000000 0.000000 0.486172
0.020495 0.000000 0.486172
0.077521 0.000000 0.486172
0.222579 0.000000 0.486172
0.486172 0.000000 0.486172
0.000000 0.020495 0.486172
0.020495 0.020495 0.486172
0.077521 0.020495 0.486172
0.222579 0.020495 0.486172
0.486172 0.020495 0.486172
0.000000 0.077521 0.486172
0.020495 0.077521 0.486172
0.077521 0.077521 0.486172
0.222579 0.077521 0.486172
0.486172 0.077521 0.486172
0.000000 0.222579 0.486172
0.020495 0.222579 0.486172
0.077521 0.222579 0.486172
0.222579 0.222579 0.486172
0.486172 0.222579 0.486172
0.000000 0.486172 0.486172
0.020495 0.486172 0.486172
0.077521 0.486172 0.486172
0.222579 0.486172 0.486172
0.486172 0.486172 0.486172
