public/luts/warm_vintage.cube
TITLE "Warm Vintage"
LUT_3D_SIZE 5
0.063000 0.062200 0.060200
0.305250 0.062200 0.060200
0.547500 0.062200 0.060200
0.789750 0.062200 0.060200
1.000000 0.062200 0.060200
0.063000 0.290050 0.060200
0.305250 0.290050 0.060200
0.547500 0.290050 0.060200
0.789750 0.290050 0.060200
1.000000 0.290050 0.060200
0.063000 0.517900 0.060200
0.305250 0.517900 0.060200
0.547500 0.517900 0.060200
0.789750 0.517900 0.060200
1.000000 0.517900 0.060200
0.063000 0.745750 0.060200
0.305250 0.745750 0.060200
0.547500 0.745750 0.060200
0.789750 0.745750 0.060200
1.000000 0.745750 0.060200
0.063000 0.973600 0.060200
0.305250 0.973600 0.060200
0.547500 0.973600 0.060200
0.789750 0.973600 0.060200
1.000000 0.973600 0.060200
0.063000 0.062200 0.253800
0.305250 0.062200 0.253800
0.547500 0.062200 0.253800
0.789750 0.062200 0.253800
1.000000 0.062200 0.253800
0.063000 0.290050 0.253800
0.305250 0.290050 0.253800
0.547500 0.290050 0.253800
0.789750 0.290050 0.253800
1.000000 0.290050 0.253800
0.063000 0.517900 0.253800
0.305250 0.517900 0.253800
0.547500 0.517900 0.253800
0.789750 0.517900 0.253800
1.000000 0.517900 0.253800
0.063000 0.745750 0.253800
0.305250 0.745750 0.253800
0.547500 0.745750 0.253800
0.789750 0.745750 0.253800
1.000000 0.745750 0.253800
0.063000 0.973600 0.253800
0.305250 0.973600 0.253800
0.547500 0.973600 0.253800
0.789750 0.973600 0.253800
1.000000 0.973600 0.253800
0.063000 0.062200 0.447400
0.305250 0.062200 0.447400
0.547500 0.062200 0.447400
0.789750 0.062200 0.447400
1.000000 0.062200 0.447400
0.063000 0.290050 0.447400
0.305250 0.290050 0.447400
0.547500 0.290050 0.447400
0.789750 0.290050 0.447400
1.000000 0.290050 0.447400
0.063000 0.517900 0.447400
0.305250 0.517900 0.447400
0.547500 0.517900 0.447400
0.789750 0.517900 0.447400
1.000000 0.517900 0.447400
0.063000 0.745750 0.447400
0.305250 0.745750 0.447400
0.547500 0.745750 0.447400
0.789750 0.745750 0.447400
1.000000 0.745750 0.447400
0.063000 0.973600 0.447400
0.305250 0.973600 0.447400
0.547500 0.973600 0.447400
0.789750 0.973600 0.447400
1.000000 0.973600 0.447400
0.063000 0.062200 0.641000
0.305250 0.062200 0.641000
0.547500 0.062200 0.641000
0.789750 0.062200 0.641000
1.000000 0.062200 0.641000
0.063000 0.290050 0.641000
0.305250 0.290050 0.641000
0.547500 0.290050 0.641000
0.789750 0.290050 0.641000
1.000000 0.290050 0.641000
0.063000 0.517900 0.641000
0.305250 0.517900 0.641000
0.547500 0.517900 0.641000
0.789750 0.517900 0.641000
1.000000 0.517900 0.641000
0.063000 0.745750 0.641000
0.305250 0.745750 0.641000
0.547500 0.745750 0.641000
0.789750 0.745750 0.641000
1.000000 0.745750 0.641000
0.063000 0.973600 0.641000
0.305250 0.973600 0.641000
0.547500 0.973600 0.641000
0.789750 0.973600 0.641000
1.000000 0.973600 0.641000
0.063000 0.062200 0.834600
0.305250 0.062200 0.834600
0.547500 0.062200 0.834600
0.789750 0.062200 0.834600
1.000000 0.062200 0.834600
0.063000 0.290050 0.834600
0.305250 0.290050 0.834600
0.547500 0.290050 0.834600
0.789750 0.290050 0.834600
1.000000 0.290050 0.834600
0.063000 0.517900 0.834600
0.305250 0.517900 0.834600
0.547500 0.517900 0.834600
0.789750 0.517900 0.834600
1.000000 0.517900 0.834600
0.063000 0.745750 0.834600
0.305250 0.745750 0.834600
0.547500 0.745750 0.834600
0.789750 0.745750 0.834600
1.000000 0.745750 0.834600
0.063000 0.973600 0.834600
0.305250 0.973600 0.834600
0.547500 0.973600 0.834600
0.789750 0.973600 0.834600
1.000000 0.973600 0.834600
