public/luts/warm_vintage.cube
TITLE "Warm Vintage"
LUT_3D_SIZE 9
0.063000 0.062200 0.060200
0.184125 0.062200 0.060200
0.305250 0.062200 0.060200
0.426375 0.062200 0.060200
0.547500 0.062200 0.060200
0.668625 0.062200 0.060200
0.789750 0.062200 0.060200
0.910875 0.062200 0.060200
1.000000 0.062200 0.060200
0.063000 0.176125 0.060200
0.184125 0.176125 0.060200
0.305250 0.176125 0.060200
0.426375 0.176125 0.060200
0.547500 0.176125 0.060200
0.668625 0.176125 0.060200
0.789750 0.176125 0.060200
0.910875 0.176125 0.060200
1.000000 0.176125 0.060200
0.063000 0.290050 0.060200
0.184125 0.290050 0.060200
0.305250 0.290050 0.060200
0.426375 0.290050 0.060200
0.547500 0.290050 0.060200
0.668625 0.290050 0.060200
0.789750 0.290050 0.060200
0.910875 0.290050 0.060200
1.000000 0.290050 0.060200
0.063000 0.403975 0.060200
0.184125 0.403975 0.060200
0.305250 0.403975 0.060200
0.426375 0.403975 0.060200
0.547500 0.403975 0.060200
0.668625 0.403975 0.060200
0.789750 0.403975 0.060200
0.910875 0.403975 0.060200
1.000000 0.403975 0.060200
0.063000 0.517900 0.060200
0.184125 0.517900 0.060200
0.305250 0.517900 0.060200
0.426375 0.517900 0.060200
0.547500 0.517900 0.060200
0.668625 0.517900 0.060200
0.789750 0.517900 0.060200
0.910875 0.517900 0.060200
1.000000 0.517900 0.060200
0.063000 0.631825 0.060200
0.184125 0.631825 0.060200
0.305250 0.631825 0.060200
0.426375 0.631825 0.060200
0.547500 0.631825 0.060200
0.668625 0.631825 0.060200
0.789750 0.631825 0.060200
0.910875 0.631825 0.060200
1.000000 0.631825 0.060200
0.063000 0.745750 0.060200
0.184125 0.745750 0.060200
0.305250 0.745750 0.060200
0.426375 0.745750 0.060200
0.547500 0.745750 0.060200
0.668625 0.745750 0.060200
0.789750 0.745750 0.060200
0.910875 0.745750 0.060200
1.000000 0.745750 0.060200
0.063000 0.859675 0.060200
0.184125 0.859675 0.060200
0.305250 0.859675 0.060200
0.426375 0.859675 0.060200
0.547500 0.859675 0.060200
0.668625 0.859675 0.060200
0.789750 0.859675 0.060200
0.910875 0.859675 0.060200
1.000000 0.859675 0.060200
0.063000 0.973600 0.060200
0.184125 0.973600 0.060200
0.305250 0.973600 0.060200
0.426375 0.973600 0.060200
0.547500 0.973600 0.060200
0.668625 0.973600 0.060200
0.789750 0.973600 0.060200
0.910875 0.973600 0.060200
1.000000 0.973600 0.060200
0.063000 0.062200 0.157000
0.184125 0.062200 0.157000
0.305250 0.062200 0.157000
0.426375 0.062200 0.157000
0.547500 0.062200 0.157000
0.668625 0.062200 0.157000
0.789750 0.062200 0.157000
0.910875 0.062200 0.157000
1.000000 0.062200 0.157000
0.063000 0.176125 0.157000
0.184125 0.176125 0.157000
0.305250 0.176125 0.157000
0.426375 0.176125 0.157000
0.547500 0.176125 0.157000
0.668625 0.176125 0.157000
0.789750 0.176125 0.157000
0.910875 0.176125 0.157000
1.000000 0.176125 0.157000
0.063000 0.290050 0.157000
0.184125 0.290050 0.157000
0.305250 0.290050 0.157000
0.426375 0.290050 0.157000
0.547500 0.290050 0.157000
0.668625 0.290050 0.157000
0.789750 0.290050 0.157000
0.910875 0.290050 0.157000
1.000000 0.290050 0.157000
0.063000 0.403975 0.157000
0.184125 0.403975 0.157000
0.305250 0.403975 0.157000
0.426375 0.403975 0.157000
0.547500 0.403975 0.157000
0.668625 0.403975 0.157000
0.789750 0.403975 0.157000
0.910875 0.403975 0.157000
1.000000 0.403975 0.157000
0.063000 0.517900 0.157000
0.184125 0.517900 0.157000
0.305250 0.517900 0.157000
0.426375 0.517900 0.157000
0.547500 0.517900 0.157000
0.668625 0.517900 0.157000
0.789750 0.517900 0.157000
0.910875 0.517900 0.157000
1.000000 0.517900 0.157000
0.063000 0.631825 0.157000
0.184125 0.631825 0.157000
0.305250 0.631825 0.157000
0.426375 0.631825 0.157000
0.547500 0.631825 0.157000
0.668625 0.631825 0.157000
0.789750 0.631825 0.157000
0.910875 0.631825 0.157000
1.000000 0.631825 0.157000
0.063000 0.745750 0.157000
0.184125 0.745750 0.157000
0.305250 0.745750 0.157000
0.426375 0.745750 0.157000
0.547500 0.745750 0.157000
0.668625 0.745750 0.157000
0.789750 0.745750 0.157000
0.910875 0.745750 0.157000
1.000000 0.745750 0.157000
0.063000 0.859675 0.157000
0.184125 0.859675 0.157000
0.305250 0.859675 0.157000
0.426375 0.859675 0.157000
0.547500 0.859675 0.157000
0.668625 0.859675 0.157000
0.789750 0.859675 0.157000
0.910875 0.859675 0.157000
1.000000 0.859675 0.157000
0.063000 0.973600 0.157000
0.184125 0.973600 0.157000
0.305250 0.973600 0.157000
0.426375 0.973600 0.157000
0.547500 0.973600 0.157000
0.668625 0.973600 0.157000
0.789750 0.973600 0.157000
0.910875 0.973600 0.157000
1.000000 0.973600 0.157000
0.063000 0.062200 0.253800
0.184125 0.062200 0.253800
0.305250 0.062200 0.253800
0.426375 0.062200 0.253800
0.547500 0.062200 0.253800
0.668625 0.062200 0.253800
0.789750 0.062200 0.253800
0.910875 0.062200 0.253800
1.000000 0.062200 0.253800
0.063000 0.176125 0.253800
0.184125 0.176125 0.253800
0.305250 0.176125 0.253800
0.426375 0.176125 0.253800
0.547500 0.176125 0.253800
0.668625 0.176125 0.253800
0.789750 0.176125 0.253800
0.910875 0.176125 0.253800
1.000000 0.176125 0.253800
0.063000 0.290050 0.253800
0.184125 0.290050 0.253800
0.305250 0.290050 0.253800
0.426375 0.290050 0.253800
0.547500 0.290050 0.253800
0.668625 0.290050 0.253800
0.789750 0.290050 0.253800
0.910875 0.290050 0.253800
1.000000 0.290050 0.253800
0.063000 0.403975 0.253800
0.184125 0.403975 0.253800
0.305250 0.403975 0.253800
0.426375 0.403975 0.253800
0.547500 0.403975 0.253800
0.668625 0.403975 0.253800
0.789750 0.403975 0.253800
0.910875 0.403975 0.253800
1.000000 0.403975 0.253800
0.063000 0.517900 0.253800
0.184125 0.517900 0.253800
0.305250 0.517900 0.253800
0.426375 0.517900 0.253800
0.547500 0.517900 0.253800
0.668625 0.517900 0.253800
0.789750 0.517900 0.253800
0.910875 0.517900 0.253800
1.000000 0.517900 0.253800
0.063000 0.631825 0.253800
0.184125 0.631825 0.253800
0.305250 0.631825 0.253800
0.426375 0.631825 0.253800
0.547500 0.631825 0.253800
0.668625 0.631825 0.253800
0.789750 0.631825 0.253800
0.910875 0.631825 0.253800
1.000000 0.631825 0.253800
0.063000 0.745750 0.253800
0.184125 0.745750 0.253800
0.305250 0.745750 0.253800
0.426375 0.745750 0.253800
0.547500 0.745750 0.253800
0.668625 0.745750 0.253800
0.789750 0.745750 0.253800
0.910875 0.745750 0.253800
1.000000 0.745750 0.253800
0.063000 0.859675 0.253800
0.184125 0.859675 0.253800
0.305250 0.859675 0.253800
0.426375 0.859675 0.253800
0.547500 0.859675 0.253800
0.668625 0.859675 0.253800
0.789750 0.859675 0.253800
0.910875 0.859675 0.253800
1.000000 0.859675 0.253800
0.063000 0.973600 0.253800
0.184125 0.973600 0.253800
0.305250 0.973600 0.253800
0.426375 0.973600 0.253800
0.547500 0.973600 0.253800
0.668625 0.973600 0.253800
0.789750 0.973600 0.253800
0.910875 0.973600 0.253800
1.000000 0.973600 0.253800
0.063000 0.062200 0.350600
0.184125 0.062200 0.350600
0.305250 0.062200 0.350600
0.426375 0.062200 0.350600
0.547500 0.062200 0.350600
0.668625 0.062200 0.350600
0.789750 0.062200 0.350600
0.910875 0.062200 0.350600
1.000000 0.062200 0.350600
0.063000 0.176125 0.350600
0.184125 0.176125 0.350600
0.305250 0.176125 0.350600
0.426375 0.176125 0.350600
0.547500 0.176125 0.350600
0.668625 0.176125 0.350600
0.789750 0.176125 0.350600
0.910875 0.176125 0.350600
1.000000 0.176125 0.350600
0.063000 0.290050 0.350600
0.184125 0.290050 0.350600
0.305250 0.290050 0.350600
0.426375 0.290050 0.350600
0.547500 0.290050 0.350600
0.668625 0.290050 0.350600
0.789750 0.290050 0.350600
0.910875 0.290050 0.350600
1.000000 0.290050 0.350600
0.063000 0.403975 0.350600
0.184125 0.403975 0.350600
0.305250 0.403975 0.350600
0.426375 0.403975 0.350600
0.547500 0.403975 0.350600
0.668625 0.403975 0.350600
0.789750 0.403975 0.350600
0.910875 0.403975 0.350600
1.000000 0.403975 0.350600
0.063000 0.517900 0.350600
0.184125 0.517900 0.350600
0.305250 0.517900 0.350600
0.426375 0.517900 0.350600
0.547500 0.517900 0.350600
0.668625 0.517900 0.350600
0.789750 0.517900 0.350600
0.910875 0.517900 0.350600
1.000000 0.517900 0.350600
0.063000 0.631825 0.350600
0.184125 0.631825 0.350600
0.305250 0.631825 0.350600
0.426375 0.631825 0.350600
0.547500 0.631825 0.350600
0.668625 0.631825 0.350600
0.789750 0.631825 0.350600
0.910875 0.631825 0.350600
1.000000 0.631825 0.350600
0.063000 0.745750 0.350600
0.184125 0.745750 0.350600
0.305250 0.745750 0.350600
0.426375 0.745750 0.350600
0.547500 0.745750 0.350600
0.668625 0.745750 0.350600
0.789750 0.745750 0.350600
0.910875 0.745750 0.350600
1.000000 0.745750 0.350600
0.063000 0.859675 0.350600
0.184125 0.859675 0.350600
0.305250 0.859675 0.350600
0.426375 0.859675 0.350600
0.547500 0.859675 0.350600
0.668625 0.859675 0.350600
0.789750 0.859675 0.350600
0.910875 0.859675 0.350600
1.000000 0.859675 0.350600
0.063000 0.973600 0.350600
0.184125 0.973600 0.350600
0.305250 0.973600 0.350600
0.426375 0.973600 0.350600
0.547500 0.973600 0.350600
0.668625 0.973600 0.350600
0.789750 0.973600 0.350600
0.910875 0.973600 0.350600
1.000000 0.973600 0.350600
0.063000 0.062200 0.447400
0.184125 0.062200 0.447400
0.305250 0.062200 0.447400
0.426375 0.062200 0.447400
0.547500 0.062200 0.447400
0.668625 0.062200 0.447400
0.789750 0.062200 0.447400
0.910875 0.062200 0.447400
1.000000 0.062200 0.447400
0.063000 0.176125 0.447400
0.184125 0.176125 0.447400
0.305250 0.176125 0.447400
0.426375 0.176125 0.447400
0.547500 0.176125 0.447400
0.668625 0.176125 0.447400
0.789750 0.176125 0.447400
0.910875 0.176125 0.447400
1.000000 0.176125 0.447400
0.063000 0.290050 0.447400
0.184125 0.290050 0.447400
0.305250 0.290050 0.447400
0.426375 0.290050 0.447400
0.547500 0.290050 0.447400
0.668625 0.290050 0.447400
0.789750 0.290050 0.447400
0.910875 0.290050 0.447400
1.000000 0.290050 0.447400
0.063000 0.403975 0.447400
0.184125 0.403975 0.447400
0.305250 0.403975 0.447400
0.426375 0.403975 0.447400
0.547500 0.403975 0.447400
0.668625 0.403975 0.447400
0.789750 0.403975 0.447400
0.910875 0.403975 0.447400
1.000000 0.403975 0.447400
0.063000 0.517900 0.447400
0.184125 0.517900 0.447400
0.305250 0.517900 0.447400
0.426375 0.517900 0.447400
0.547500 0.517900 0.447400
0.668625 0.517900 0.447400
0.789750 0.517900 0.447400
0.910875 0.517900 0.447400
1.000000 0.517900 0.447400
0.063000 0.631825 0.447400
0.184125 0.631825 0.447400
0.305250 0.631825 0.447400
0.426375 0.631825 0.447400
0.547500 0.631825 0.447400
0.668625 0.631825 0.447400
0.789750 0.631825 0.447400
0.910875 0.631825 0.447400
1.000000 0.631825 0.447400
0.063000 0.745750 0.447400
0.184125 0.745750 0.447400
0.305250 0.745750 0.447400
0.426375 0.745750 0.447400
0.547500 0.745750 0.447400
0.668625 0.745750 0.447400
0.789750 0.745750 0.447400
0.910875 0.745750 0.447400
1.000000 0.745750 0.447400
0.063000 0.859675 0.447400
0.184125 0.859675 0.447400
0.305250 0.859675 0.447400
0.426375 0.859675 0.447400
0.547500 0.859675 0.447400
0.668625 0.859675 0.447400
0.789750 0.859675 0.447400
0.910875 0.859675 0.447400
1.000000 0.859675 0.447400
0.063000 0.973600 0.447400
0.184125 0.973600 0.447400
0.305250 0.973600 0.447400
0.426375 0.973600 0.447400
0.547500 0.973600 0.447400
0.668625 0.973600 0.447400
0.789750 0.973600 0.447400
0.910875 0.973600 0.447400
1.000000 0.973600 0.447400
0.063000 0.062200 0.544200
0.184125 0.062200 0.544200
0.305250 0.062200 0.544200
0.426375 0.062200 0.544200
0.547500 0.062200 0.544200
0.668625 0.062200 0.544200
0.789750 0.062200 0.544200
0.910875 0.062200 0.544200
1.000000 0.062200 0.544200
0.063000 0.176125 0.544200
0.184125 0.176125 0.544200
0.305250 0.176125 0.544200
0.426375 0.176125 0.544200
0.547500 0.176125 0.544200
0.668625 0.176125 0.544200
0.789750 0.176125 0.544200
0.910875 0.176125 0.544200
1.000000 0.176125 0.544200
0.063000 0.290050 0.544200
0.184125 0.290050 0.544200
0.305250 0.290050 0.544200
0.426375 0.290050 0.544200
0.547500 0.290050 0.544200
0.668625 0.290050 0.544200
0.789750 0.290050 0.544200
0.910875 0.290050 0.544200
1.000000 0.290050 0.544200
0.063000 0.403975 0.544200
0.184125 0.403975 0.544200
0.305250 0.403975 0.544200
0.426375 0.403975 0.544200
0.547500 0.403975 0.544200
0.668625 0.403975 0.544200
0.789750 0.403975 0.544200
0.910875 0.403975 0.544200
1.000000 0.403975 0.544200
0.063000 0.517900 0.544200
0.184125 0.517900 0.544200
0.305250 0.517900 0.544200
0.426375 0.517900 0.544200
0.547500 0.517900 0.544200
0.668625 0.517900 0.544200
0.789750 0.517900 0.544200
0.910875 0.517900 0.544200
1.000000 0.517900 0.544200
0.063000 0.631825 0.544200
0.184125 0.631825 0.544200
0.305250 0.631825 0.544200
0.426375 0.631825 0.544200
0.547500 0.631825 0.544200
0.668625 0.631825 0.544200
0.789750 0.631825 0.544200
0.910875 0.631825 0.544200
1.000000 0.631825 0.544200
0.063000 0.745750 0.544200
0.184125 0.745750 0.544200
0.305250 0.745750 0.544200
0.426375 0.745750 0.544200
0.547500 0.745750 0.544200
0.668625 0.745750 0.544200
0.789750 0.745750 0.544200
0.910875 0.745750 0.544200
1.000000 0.745750 0.544200
0.063000 0.859675 0.544200
0.184125 0.859675 0.544200
0.305250 0.859675 0.544200
0.426375 0.859675 0.544200
0.547500 0.859675 0.544200
0.668625 0.859675 0.544200
0.789750 0.859675 0.544200
0.910875 0.859675 0.544200
1.000000 0.859675 0.544200
0.063000 0.973600 0.544200
0.184125 0.973600 0.544200
0.305250 0.973600 0.544200
0.426375 0.973600 0.544200
0.547500 0.973600 0.544200
0.668625 0.973600 0.544200
0.789750 0.973600 0.544200
0.910875 0.973600 0.544200
1.000000 0.973600 0.544200
0.063000 0.062200 0.641000
0.184125 0.062200 0.641000
0.305250 0.062200 0.641000
0.426375 0.062200 0.641000
0.547500 0.062200 0.641000
0.668625 0.062200 0.641000
0.789750 0.062200 0.641000
0.910875 0.062200 0.641000
1.000000 0.062200 0.641000
0.063000 0.176125 0.641000
0.184125 0.176125 0.641000
0.305250 0.176125 0.641000
0.426375 0.176125 0.641000
0.547500 0.176125 0.641000
0.668625 0.176125 0.641000
0.789750 0.176125 0.641000
0.910875 0.176125 0.641000
1.000000 0.176125 0.641000
0.063000 0.290050 0.641000
0.184125 0.290050 0.641000
0.305250 0.290050 0.641000
0.426375 0.290050 0.641000
0.547500 0.290050 0.641000
0.668625 0.290050 0.641000
0.789750 0.290050 0.641000
0.910875 0.290050 0.641000
1.000000 0.290050 0.641000
0.063000 0.403975 0.641000
0.184125 0.403975 0.641000
0.305250 0.403975 0.641000
0.426375 0.403975 0.641000
0.547500 0.403975 0.641000
0.668625 0.403975 0.641000
0.789750 0.403975 0.641000
0.910875 0.403975 0.641000
1.000000 0.403975 0.641000
0.063000 0.517900 0.641000
0.184125 0.517900 0.641000
0.305250 0.517900 0.641000
0.426375 0.517900 0.641000
0.547500 0.517900 0.641000
0.668625 0.517900 0.641000
0.789750 0.517900 0.641000
0.910875 0.517900 0.641000
1.000000 0.517900 0.641000
0.063000 0.631825 0.641000
0.184125 0.631825 0.641000
0.305250 0.631825 0.641000
0.426375 0.631825 0.641000
0.547500 0.631825 0.641000
0.668625 0.631825 0.641000
0.789750 0.631825 0.641000
0.910875 0.631825 0.641000
1.000000 0.631825 0.641000
0.063000 0.745750 0.641000
0.184125 0.745750 0.641000
0.305250 0.745750 0.641000
0.426375 0.745750 0.641000
0.547500 0.745750 0.641000
0.668625 0.745750 0.641000
0.789750 0.745750 0.641000
0.910875 0.745750 0.641000
1.000000 0.745750 0.641000
0.063000 0.859675 0.641000
0.184125 0.859675 0.641000
0.305250 0.859675 0.641000
0.426375 0.859675 0.641000
0.547500 0.859675 0.641000
0.668625 0.859675 0.641000
0.789750 0.859675 0.641000
0.910875 0.859675 0.641000
1.000000 0.859675 0.641000
0.063000 0.973600 0.641000
0.184125 0.973600 0.641000
0.305250 0.973600 0.641000
0.426375 0.973600 0.641000
0.547500 0.973600 0.641000
0.668625 0.973600 0.641000
0.789750 0.973600 0.641000
0.910875 0.973600 0.641000
1.000000 0.973600 0.641000
0.063000 0.062200 0.737800
0.184125 0.062200 0.737800
0.305250 0.062200 0.737800
0.426375 0.062200 0.737800
0.547500 0.062200 0.737800
0.668625 0.062200 0.737800
0.789750 0.062200 0.737800
0.910875 0.062200 0.737800
1.000000 0.062200 0.737800
0.063000 0.176125 0.737800
0.184125 0.176125 0.737800
0.305250 0.176125 0.737800
0.426375 0.176125 0.737800
0.547500 0.176125 0.737800
0.668625 0.176125 0.737800
0.789750 0.176125 0.737800
0.910875 0.176125 0.737800
1.000000 0.176125 0.737800
0.063000 0.290050 0.737800
0.184125 0.290050 0.737800
0.305250 0.290050 0.737800
0.426375 0.290050 0.737800
0.547500 0.290050 0.737800
0.668625 0.290050 0.737800
0.789750 0.290050 0.737800
0.910875 0.290050 0.737800
1.000000 0.290050 0.737800
0.063000 0.403975 0.737800
0.184125 0.403975 0.737800
0.305250 0.403975 0.737800
0.426375 0.403975 0.737800
0.547500 0.403975 0.737800
0.668625 0.403975 0.737800
0.789750 0.403975 0.737800
0.910875 0.403975 0.737800
1.000000 0.403975 0.737800
0.063000 0.517900 0.737800
0.184125 0.517900 0.737800
0.305250 0.517900 0.737800
0.426375 0.517900 0.737800
0.547500 0.517900 0.737800
0.668625 0.517900 0.737800
0.789750 0.517900 0.737800
0.910875 0.517900 0.737800
1.000000 0.517900 0.737800
0.063000 0.631825 0.737800
0.184125 0.631825 0.737800
0.305250 0.631825 0.737800
0.426375 0.631825 0.737800
0.547500 0.631825 0.737800
0.668625 0.631825 0.737800
0.789750 0.631825 0.737800
0.910875 0.631825 0.737800
1.000000 0.631825 0.737800
0.063000 0.745750 0.737800
0.184125 0.745750 0.737800
0.305250 0.745750 0.737800
0.426375 0.745750 0.737800
0.547500 0.745750 0.737800
0.668625 0.745750 0.737800
0.789750 0.745750 0.737800
0.910875 0.745750 0.737800
1.000000 0.745750 0.737800
0.063000 0.859675 0.737800
0.184125 0.859675 0.737800
0.305250 0.859675 0.737800
0.426375 0.859675 0.737800
0.547500 0.859675 0.737800
0.668625 0.859675 0.737800
0.789750 0.859675 0.737800
0.910875 0.859675 0.737800
1.000000 0.859675 0.737800
0.063000 0.973600 0.737800
0.184125 0.973600 0.737800
0.305250 0.973600 0.737800
0.426375 0.973600 0.737800
0.547500 0.973600 0.737800
0.668625 0.973600 0.737800
0.789750 0.973600 0.737800
0.910875 0.973600 0.737800
1.000000 0.973600 0.737800
0.063000 0.062200 0.834600
0.184125 0.062200 0.834600
0.305250 0.062200 0.834600
0.426375 0.062200 0.834600
0.547500 0.062200 0.834600
0.668625 0.062200 0.834600
0.789750 0.062200 0.834600
0.910875 0.062200 0.834600
1.000000 0.062200 0.834600
0.063000 0.176125 0.834600
0.184125 0.176125 0.834600
0.305250 0.176125 0.834600
0.426375 0.176125 0.834600
0.547500 0.176125 0.834600
0.668625 0.176125 0.834600
0.789750 0.176125 0.834600
0.910875 0.176125 0.834600
1.000000 0.176125 0.834600
0.063000 0.290050 0.834600
0.184125 0.290050 0.834600
0.305250 0.290050 0.834600
0.426375 0.290050 0.834600
0.547500 0.290050 0.834600
0.668625 0.290050 0.834600
0.789750 0.290050 0.834600
0.910875 0.290050 0.834600
1.000000 0.290050 0.834600
0.063000 0.403975 0.834600
0.184125 0.403975 0.834600
0.305250 0.403975 0.834600
0.426375 0.403975 0.834600
0.547500 0.403975 0.834600
0.668625 0.403975 0.834600
0.789750 0.403975 0.834600
0.910875 0.403975 0.834600
1.000000 0.403975 0.834600
0.063000 0.517900 0.834600
0.184125 0.517900 0.834600
0.305250 0.517900 0.834600
0.426375 0.517900 0.834600
0.547500 0.517900 0.834600
0.668625 0.517900 0.834600
0.789750 0.517900 0.834600
0.910875 0.517900 0.834600
1.000000 0.517900 0.834600
0.063000 0.631825 0.834600
0.184125 0.631825 0.834600
0.305250 0.631825 0.834600
0.426375 0.631825 0.834600
0.547500 0.631825 0.834600
0.668625 0.631825 0.834600
0.789750 0.631825 0.834600
0.910875 0.631825 0.834600
1.000000 0.631825 0.834600
0.063000 0.745750 0.834600
0.184125 0.745750 0.834600
0.305250 0.745750 0.834600
0.426375 0.745750 0.834600
0.547500 0.745750 0.834600
0.668625 0.745750 0.834600
0.789750 0.745750 0.834600
0.910875 0.745750 0.834600
1.000000 0.745750 0.834600
0.063000 0.859675 0.834600
0.184125 0.859675 0.834600
0.305250 0.859675 0.834600
0.426375 0.859675 0.834600
0.547500 0.859675 0.834600
0.668625 0.859675 0.834600
0.789750 0.859675 0.834600
0.910875 0.859675 0.834600
1.000000 0.859675 0.834600
0.063000 0.973600 0.834600
0.184125 0.973600 0.834600
0.305250 0.973600 0.834600
0.426375 0.973600 0.834600
0.547500 0.973600 0.834600
0.668625 0.973600 0.834600
0.789750 0.973600 0.834600
0.910875 0.973600 0.834600
1.000000 0.973600 0.834600
