public/luts/warm_vintage.cube
TITLE "Warm Vintage"
LUT_3D_SIZE 33
0.063000 0.062200 0.060200
0.093281 0.062200 0.060200
0.123562 0.062200 0.060200
0.153844 0.062200 0.060200
0.184125 0.062200 0.060200
0.214406 0.062200 0.060200
0.244688 0.062200 0.060200
0.274969 0.062200 0.060200
0.305250 0.062200 0.060200
0.335531 0.062200 0.060200
0.365812 0.062200 0.060200
0.396094 0.062200 0.060200
0.426375 0.062200 0.060200
0.456656 0.062200 0.060200
0.486937 0.062200 0.060200
0.517219 0.062200 0.060200
0.547500 0.062200 0.060200
0.577781 0.062200 0.060200
0.608063 0.062200 0.060200
0.638344 0.062200 0.060200
0.668625 0.062200 0.060200
0.698906 0.062200 0.060200
0.729187 0.062200 0.060200
0.759469 0.062200 0.060200
0.789750 0.062200 0.060200
0.820031 0.062200 0.060200
0.850313 0.062200 0.060200
0.880594 0.062200 0.060200
0.910875 0.062200 0.060200
0.941156 0.062200 0.060200
0.971437 0.062200 0.060200
1.000000 0.062200 0.060200
1.000000 0.062200 0.060200
0.063000 0.090681 0.060200
0.093281 0.090681 0.060200
0.123562 0.090681 0.060200
0.153844 0.090681 0.060200
0.184125 0.090681 0.060200
0.214406 0.090681 0.060200
0.244688 0.090681 0.060200
0.274969 0.090681 0.060200
0.305250 0.090681 0.060200
0.335531 0.090681 0.060200
0.365812 0.090681 0.060200
0.396094 0.090681 0.060200
0.426375 0.090681 0.060200
0.456656 0.090681 0.060200
0.486937 0.090681 0.060200
0.517219 0.090681 0.060200
0.547500 0.090681 0.060200
0.577781 0.090681 0.060200
0.608063 0.090681 0.060200
0.638344 0.090681 0.060200
0.668625 0.090681 0.060200
0.698906 0.090681 0.060200
0.729187 0.090681 0.060200
0.759469 0.090681 0.060200
0.789750 0.090681 0.060200
0.820031 0.090681 0.060200
0.850313 0.090681 0.060200
0.880594 0.090681 0.060200
0.910875 0.090681 0.060200
0.941156 0.090681 0.060200
0.971437 0.090681 0.060200
1.000000 0.090681 0.060200
1.000000 0.090681 0.060200
0.063000 0.119163 0.060200
0.093281 0.119163 0.060200
0.123562 0.119163 0.060200
0.153844 0.119163 0.060200
0.184125 0.119163 0.060200
0.214406 0.119163 0.060200
0.244688 0.119163 0.060200
0.274969 0.119163 0.060200
0.305250 0.119163 0.060200
0.335531 0.119163 0.060200
0.365812 0.119163 0.060200
0.396094 0.119163 0.060200
0.426375 0.119163 0.060200
0.456656 0.119163 0.060200
0.486937 0.119163 0.060200
0.517219 0.119163 0.060200
0.547500 0.119163 0.060200
0.577781 0.119163 0.060200
0.608063 0.119163 0.060200
0.638344 0.119163 0.060200
0.668625 0.119163 0.060200
0.698906 0.119163 0.060200
0.729187 0.119163 0.060200
0.759469 0.119163 0.060200
0.789750 0.119163 0.060200
0.820031 0.119163 0.060200
0.850313 0.119163 0.060200
0.880594 0.119163 0.060200
0.910875 0.119163 0.060200
0.941156 0.119163 0.060200
0.971437 0.119163 0.060200
1.000000 0.119163 0.060200
1.000000 0.119163 0.060200
0.063000 0.147644 0.060200
0.093281 0.147644 0.060200
0.123562 0.147644 0.060200
0.153844 0.147644 0.060200
0.184125 0.147644 0.060200
0.214406 0.147644 0.060200
0.244688 0.147644 0.060200
0.274969 0.147644 0.060200
0.305250 0.147644 0.060200
0.335531 0.147644 0.060200
0.365812 0.147644 0.060200
0.396094 0.147644 0.060200
0.426375 0.147644 0.060200
0.456656 0.147644 0.060200
0.486937 0.147644 0.060200
0.517219 0.147644 0.060200
0.547500 0.147644 0.060200
0.577781 0.147644 0.060200
0.608063 0.147644 0.060200
0.638344 0.147644 0.060200
0.668625 0.147644 0.060200
0.698906 0.147644 0.060200
0.729187 0.147644 0.060200
0.759469 0.147644 0.060200
0.789750 0.147644 0.060200
0.820031 0.147644 0.060200
0.850313 0.147644 0.060200
0.880594 0.147644 0.060200
0.910875 0.147644 0.060200
0.941156 0.147644 0.060200
0.971437 0.147644 0.060200
1.000000 0.147644 0.060200
1.000000 0.147644 0.060200
0.063000 0.176125 0.060200
0.093281 0.176125 0.060200
0.123562 0.176125 0.060200
0.153844 0.176125 0.060200
0.184125 0.176125 0.060200
0.214406 0.176125 0.060200
0.244688 0.176125 0.060200
0.274969 0.176125 0.060200
0.305250 0.176125 0.060200
0.335531 0.176125 0.060200
0.365812 0.176125 0.060200
0.396094 0.176125 0.060200
0.426375 0.176125 0.060200
0.456656 0.176125 0.060200
0.486937 0.176125 0.060200
0.517219 0.176125 0.060200
0.547500 0.176125 0.060200
0.577781 0.176125 0.060200
0.608063 0.176125 0.060200
0.638344 0.176125 0.060200
0.668625 0.176125 0.060200
0.698906 0.176125 0.060200
0.729187 0.176125 0.060200
0.759469 0.176125 0.060200
0.789750 0.176125 0.060200
0.820031 0.176125 0.060200
0.850313 0.176125 0.060200
0.880594 0.176125 0.060200
0.910875 0.176125 0.060200
0.941156 0.176125 0.060200
0.971437 0.176125 0.060200
1.000000 0.176125 0.060200
1.000000 0.176125 0.060200
0.063000 0.204606 0.060200
0.093281 0.204606 0.060200
0.123562 0.204606 0.060200
0.153844 0.204606 0.060200
0.184125 0.204606 0.060200
0.214406 0.204606 0.060200
0.244688 0.204606 0.060200
0.274969 0.204606 0.060200
0.305250 0.204606 0.060200
0.335531 0.204606 0.060200
0.365812 0.204606 0.060200
0.396094 0.204606 0.060200
0.426375 0.204606 0.060200
0.456656 0.204606 0.060200
0.486937 0.204606 0.060200
0.517219 0.204606 0.060200
0.547500 0.204606 0.060200
0.577781 0.204606 0.060200
0.608063 0.204606 0.060200
0.638344 0.204606 0.060200
0.668625 0.204606 0.060200
0.698906 0.204606 0.060200
0.729187 0.204606 0.060200
0.759469 0.204606 0.060200
0.789750 0.204606 0.060200
0.820031 0.204606 0.060200
0.850313 0.204606 0.060200
0.880594 0.204606 0.060200
0.910875 0.204606 0.060200
0.941156 0.204606 0.060200
0.971437 0.204606 0.060200
1.000000 0.204606 0.060200
1.000000 0.204606 0.060200
0.063000 0.233088 0.060200
0.093281 0.233088 0.060200
0.123562 0.233088 0.060200
0.153844 0.233088 0.060200
0.184125 0.233088 0.060200
0.214406 0.233088 0.060200
0.244688 0.233088 0.060200
0.274969 0.233088 0.060200
0.305250 0.233088 0.060200
0.335531 0.233088 0.060200
0.365812 0.233088 0.060200
0.396094 0.233088 0.060200
0.426375 0.233088 0.060200
0.456656 0.233088 0.060200
0.486937 0.233088 0.060200
0.517219 0.233088 0.060200
0.547500 0.233088 0.060200
0.577781 0.233088 0.060200
0.608063 0.233088 0.060200
0.638344 0.233088 0.060200
0.668625 0.233088 0.060200
0.698906 0.233088 0.060200
0.729187 0.233088 0.060200
0.759469 0.233088 0.060200
0.789750 0.233088 0.060200
0.820031 0.233088 0.060200
0.850313 0.233088 0.060200
0.880594 0.233088 0.060200
0.910875 0.233088 0.060200
0.941156 0.233088 0.060200
0.971437 0.233088 0.060200
1.000000 0.233088 0.060200
1.000000 0.233088 0.060200
0.063000 0.261569 0.060200
0.093281 0.261569 0.060200
0.123562 0.261569 0.060200
0.153844 0.261569 0.060200
0.184125 0.261569 0.060200
0.214406 0.261569 0.060200
0.244688 0.261569 0.060200
0.274969 0.261569 0.060200
0.305250 0.261569 0.060200
0.335531 0.261569 0.060200
0.365812 0.261569 0.060200
0.396094 0.261569 0.060200
0.426375 0.261569 0.060200
0.456656 0.261569 0.060200
0.486937 0.261569 0.060200
0.517219 0.261569 0.060200
0.547500 0.261569 0.060200
0.577781 0.261569 0.060200
0.608063 0.261569 0.060200
0.638344 0.261569 0.060200
0.668625 0.261569 0.060200
0.698906 0.261569 0.060200
0.729187 0.261569 0.060200
0.759469 0.261569 0.060200
0.789750 0.261569 0.060200
0.820031 0.261569 0.060200
0.850313 0.261569 0.060200
0.880594 0.261569 0.060200
0.910875 0.261569 0.060200
0.941156 0.261569 0.060200
0.971437 0.261569 0.060200
1.000000 0.261569 0.060200
1.000000 0.261569 0.060200
0.063000 0.290050 0.060200
0.093281 0.290050 0.060200
0.123562 0.290050 0.060200
0.153844 0.290050 0.060200
0.184125 0.290050 0.060200
0.214406 0.290050 0.060200
0.244688 0.290050 0.060200
0.274969 0.290050 0.060200
0.305250 0.290050 0.060200
0.335531 0.290050 0.060200
0.365812 0.290050 0.060200
0.396094 0.290050 0.060200
0.426375 0.290050 0.060200
0.456656 0.290050 0.060200
0.486937 0.290050 0.060200
0.517219 0.290050 0.060200
0.547500 0.290050 0.060200
0.577781 0.290050 0.060200
0.608063 0.290050 0.060200
0.638344 0.290050 0.060200
0.668625 0.290050 0.060200
0.698906 0.290050 0.060200
0.729187 0.290050 0.060200
0.759469 0.290050 0.060200
0.789750 0.290050 0.060200
0.820031 0.290050 0.060200
0.850313 0.290050 0.060200
0.880594 0.290050 0.060200
0.910875 0.290050 0.060200
0.941156 0.290050 0.060200
0.971437 0.290050 0.060200
1.000000 0.290050 0.060200
1.000000 0.290050 0.060200
0.063000 0.318531 0.060200
0.093281 0.318531 0.060200
0.123562 0.318531 0.060200
0.153844 0.318531 0.060200
0.184125 0.318531 0.060200
0.214406 0.318531 0.060200
0.244688 0.318531 0.060200
0.274969 0.318531 0.060200
0.305250 0.318531 0.060200
0.335531 0.318531 0.060200
0.365812 0.318531 0.060200
0.396094 0.318531 0.060200
0.426375 0.318531 0.060200
0.456656 0.318531 0.060200
0.486937 0.318531 0.060200
0.517219 0.318531 0.060200
0.547500 0.318531 0.060200
0.577781 0.318531 0.060200
0.608063 0.318531 0.060200
0.638344 0.318531 0.060200
0.668625 0.318531 0.060200
0.698906 0.318531 0.060200
0.729187 0.318531 0.060200
0.759469 0.318531 0.060200
0.789750 0.318531 0.060200
0.820031 0.318531 0.060200
0.850313 0.318531 0.060200
0.880594 0.318531 0.060200
0.910875 0.318531 0.060200
0.941156 0.318531 0.060200
0.971437 0.318531 0.060200
1.000000 0.318531 0.060200
1.000000 0.318531 0.060200
0.063000 0.347013 0.060200
0.093281 0.347013 0.060200
0.123562 0.347013 0.060200
0.153844 0.347013 0.060200
0.184125 0.347013 0.060200
0.214406 0.347013 0.060200
0.244688 0.347013 0.060200
0.274969 0.347013 0.060200
0.305250 0.347013 0.060200
0.335531 0.347013 0.060200
0.365812 0.347013 0.060200
0.396094 0.347013 0.060200
0.426375 0.347013 0.060200
0.456656 0.347013 0.060200
0.486937 0.347013 0.060200
0.517219 0.347013 0.060200
0.547500 0.347013 0.060200
0.577781 0.347013 0.060200
0.608063 0.347013 0.060200
0.638344 0.347013 0.060200
0.668625 0.347013 0.060200
0.698906 0.347013 0.060200
0.729187 0.347013 0.060200
0.759469 0.347013 0.060200
0.789750 0.347013 0.060200
0.820031 0.347013 0.060200
0.850313 0.347013 0.060200
0.880594 0.347013 0.060200
0.910875 0.347013 0.060200
0.941156 0.347013 0.060200
0.971437 0.347013 0.060200
1.000000 0.347013 0.060200
1.000000 0.347013 0.060200
0.063000 0.375494 0.060200
0.093281 0.375494 0.060200
0.123562 0.375494 0.060200
0.153844 0.375494 0.060200
0.184125 0.375494 0.060200
0.214406 0.375494 0.060200
0.244688 0.375494 0.060200
0.274969 0.375494 0.060200
0.305250 0.375494 0.060200
0.335531 0.375494 0.060200
0.365812 0.375494 0.060200
0.396094 0.375494 0.060200
0.426375 0.375494 0.060200
0.456656 0.375494 0.060200
0.486937 0.375494 0.060200
0.517219 0.375494 0.060200
0.547500 0.375494 0.060200
0.577781 0.375494 0.060200
0.608063 0.375494 0.060200
0.638344 0.375494 0.060200
0.668625 0.375494 0.060200
0.698906 0.375494 0.060200
0.729187 0.375494 0.060200
0.759469 0.375494 0.060200
0.789750 0.375494 0.060200
0.820031 0.375494 0.060200
0.850313 0.375494 0.060200
0.880594 0.375494 0.060200
0.910875 0.375494 0.060200
0.941156 0.375494 0.060200
0.971437 0.375494 0.060200
1.000000 0.375494 0.060200
1.000000 0.375494 0.060200
0.063000 0.403975 0.060200
0.093281 0.403975 0.060200
0.123562 0.403975 0.060200
0.153844 0.403975 0.060200
0.184125 0.403975 0.060200
0.214406 0.403975 0.060200
0.244688 0.403975 0.060200
0.274969 0.403975 0.060200
0.305250 0.403975 0.060200
0.335531 0.403975 0.060200
0.365812 0.403975 0.060200
0.396094 0.403975 0.060200
0.426375 0.403975 0.060200
0.456656 0.403975 0.060200
0.486937 0.403975 0.060200
0.517219 0.403975 0.060200
0.547500 0.403975 0.060200
0.577781 0.403975 0.060200
0.608063 0.403975 0.060200
0.638344 0.403975 0.060200
0.668625 0.403975 0.060200
0.698906 0.403975 0.060200
0.729187 0.403975 0.060200
0.759469 0.403975 0.060200
0.789750 0.403975 0.060200
0.820031 0.403975 0.060200
0.850313 0.403975 0.060200
0.880594 0.403975 0.060200
0.910875 0.403975 0.060200
0.941156 0.403975 0.060200
0.971437 0.403975 0.060200
1.000000 0.403975 0.060200
1.000000 0.403975 0.060200
0.063000 0.432456 0.060200
0.093281 0.432456 0.060200
0.123562 0.432456 0.060200
0.153844 0.432456 0.060200
0.184125 0.432456 0.060200
0.214406 0.432456 0.060200
0.244688 0.432456 0.060200
0.274969 0.432456 0.060200
0.305250 0.432456 0.060200
0.335531 0.432456 0.060200
0.365812 0.432456 0.060200
0.396094 0.432456 0.060200
0.426375 0.432456 0.060200
0.456656 0.432456 0.060200
0.486937 0.432456 0.060200
0.517219 0.432456 0.060200
0.547500 0.432456 0.060200
0.577781 0.432456 0.060200
0.608063 0.432456 0.060200
0.638344 0.432456 0.060200
0.668625 0.432456 0.060200
0.698906 0.432456 0.060200
0.729187 0.432456 0.060200
0.759469 0.432456 0.060200
0.789750 0.432456 0.060200
0.820031 0.432456 0.060200
0.850313 0.432456 0.060200
0.880594 0.432456 0.060200
0.910875 0.432456 0.060200
0.941156 0.432456 0.060200
0.971437 0.432456 0.060200
1.000000 0.432456 0.060200
1.000000 0.432456 0.060200
0.063000 0.460938 0.060200
0.093281 0.460938 0.060200
0.123562 0.460938 0.060200
0.153844 0.460938 0.060200
0.184125 0.460938 0.060200
0.214406 0.460938 0.060200
0.244688 0.460938 0.060200
0.274969 0.460938 0.060200
0.305250 0.460938 0.060200
0.335531 0.460938 0.060200
0.365812 0.460938 0.060200
0.396094 0.460938 0.060200
0.426375 0.460938 0.060200
0.456656 0.460938 0.060200
0.486937 0.460938 0.060200
0.517219 0.460938 0.060200
0.547500 0.460938 0.060200
0.577781 0.460938 0.060200
0.608063 0.460938 0.060200
0.638344 0.460938 0.060200
0.668625 0.460938 0.060200
0.698906 0.460938 0.060200
0.729187 0.460938 0.060200
0.759469 0.460938 0.060200
0.789750 0.460938 0.060200
0.820031 0.460938 0.060200
0.850313 0.460938 0.060200
0.880594 0.460938 0.060200
0.910875 0.460938 0.060200
0.941156 0.460938 0.060200
0.971437 0.460938 0.060200
1.000000 0.460938 0.060200
1.000000 0.460938 0.060200
0.063000 0.489419 0.060200
0.093281 0.489419 0.060200
0.123562 0.489419 0.060200
0.153844 0.489419 0.060200
0.184125 0.489419 0.060200
0.214406 0.489419 0.060200
0.244688 0.489419 0.060200
0.274969 0.489419 0.060200
0.305250 0.489419 0.060200
0.335531 0.489419 0.060200
0.365812 0.489419 0.060200
0.396094 0.489419 0.060200
0.426375 0.489419 0.060200
0.456656 0.489419 0.060200
0.486937 0.489419 0.060200
0.517219 0.489419 0.060200
0.547500 0.489419 0.060200
0.577781 0.489419 0.060200
0.608063 0.489419 0.060200
0.638344 0.489419 0.060200
0.668625 0.489419 0.060200
0.698906 0.489419 0.060200
0.729187 0.489419 0.060200
0.759469 0.489419 0.060200
0.789750 0.489419 0.060200
0.820031 0.489419 0.060200
0.850313 0.489419 0.060200
0.880594 0.489419 0.060200
0.910875 0.489419 0.060200
0.941156 0.489419 0.060200
0.971437 0.489419 0.060200
1.000000 0.489419 0.060200
1.000000 0.489419 0.060200
0.063000 0.517900 0.060200
0.093281 0.517900 0.060200
0.123562 0.517900 0.060200
0.153844 0.517900 0.060200
0.184125 0.517900 0.060200
0.214406 0.517900 0.060200
0.244688 0.517900 0.060200
0.274969 0.517900 0.060200
0.305250 0.517900 0.060200
0.335531 0.517900 0.060200
0.365812 0.517900 0.060200
0.396094 0.517900 0.060200
0.426375 0.517900 0.060200
0.456656 0.517900 0.060200
0.486937 0.517900 0.060200
0.517219 0.517900 0.060200
0.547500 0.517900 0.060200
0.577781 0.517900 0.060200
0.608063 0.517900 0.060200
0.638344 0.517900 0.060200
0.668625 0.517900 0.060200
0.698906 0.517900 0.060200
0.729187 0.517900 0.060200
0.759469 0.517900 0.060200
0.789750 0.517900 0.060200
0.820031 0.517900 0.060200
0.850313 0.517900 0.060200
0.880594 0.517900 0.060200
0.910875 0.517900 0.060200
0.941156 0.517900 0.060200
0.971437 0.517900 0.060200
1.000000 0.517900 0.060200
1.000000 0.517900 0.060200
0.063000 0.546381 0.060200
0.093281 0.546381 0.060200
0.123562 0.546381 0.060200
0.153844 0.546381 0.060200
0.184125 0.546381 0.060200
0.214406 0.546381 0.060200
0.244688 0.546381 0.060200
0.274969 0.546381 0.060200
0.305250 0.546381 0.060200
0.335531 0.546381 0.060200
0.365812 0.546381 0.060200
0.396094 0.546381 0.060200
0.426375 0.546381 0.060200
0.456656 0.546381 0.060200
0.486937 0.546381 0.060200
0.517219 0.546381 0.060200
0.547500 0.546381 0.060200
0.577781 0.546381 0.060200
0.608063 0.546381 0.060200
0.638344 0.546381 0.060200
0.668625 0.546381 0.060200
0.698906 0.546381 0.060200
0.729187 0.546381 0.060200
0.759469 0.546381 0.060200
0.789750 0.546381 0.060200
0.820031 0.546381 0.060200
0.850313 0.546381 0.060200
0.880594 0.546381 0.060200
0.910875 0.546381 0.060200
0.941156 0.546381 0.060200
0.971437 0.546381 0.060200
1.000000 0.546381 0.060200
1.000000 0.546381 0.060200
0.063000 0.574863 0.060200
0.093281 0.574863 0.060200
0.123562 0.574863 0.060200
0.153844 0.574863 0.060200
0.184125 0.574863 0.060200
0.214406 0.574863 0.060200
0.244688 0.574863 0.060200
0.274969 0.574863 0.060200
0.305250 0.574863 0.060200
0.335531 0.574863 0.060200
0.365812 0.574863 0.060200
0.396094 0.574863 0.060200
0.426375 0.574863 0.060200
0.456656 0.574863 0.060200
0.486937 0.574863 0.060200
0.517219 0.574863 0.060200
0.547500 0.574863 0.060200
0.577781 0.574863 0.060200
0.608063 0.574863 0.060200
0.638344 0.574863 0.060200
0.668625 0.574863 0.060200
0.698906 0.574863 0.060200
0.729187 0.574863 0.060200
0.759469 0.574863 0.060200
0.789750 0.574863 0.060200
0.820031 0.574863 0.060200
0.850313 0.574863 0.060200
0.880594 0.574863 0.060200
0.910875 0.574863 0.060200
0.941156 0.574863 0.060200
0.971437 0.574863 0.060200
1.000000 0.574863 0.060200
1.000000 0.574863 0.060200
0.063000 0.603344 0.060200
0.093281 0.603344 0.060200
0.123562 0.603344 0.060200
0.153844 0.603344 0.060200
0.184125 0.603344 0.060200
0.214406 0.603344 0.060200
0.244688 0.603344 0.060200
0.274969 0.603344 0.060200
0.305250 0.603344 0.060200
0.335531 0.603344 0.060200
0.365812 0.603344 0.060200
0.396094 0.603344 0.060200
0.426375 0.603344 0.060200
0.456656 0.603344 0.060200
0.486937 0.603344 0.060200
0.517219 0.603344 0.060200
0.547500 0.603344 0.060200
0.577781 0.603344 0.060200
0.608063 0.603344 0.060200
0.638344 0.603344 0.060200
0.668625 0.603344 0.060200
0.698906 0.603344 0.060200
0.729187 0.603344 0.060200
0.759469 0.603344 0.060200
0.789750 0.603344 0.060200
0.820031 0.603344 0.060200
0.850313 0.603344 0.060200
0.880594 0.603344 0.060200
0.910875 0.603344 0.060200
0.941156 0.603344 0.060200
0.971437 0.603344 0.060200
1.000000 0.603344 0.060200
1.000000 0.603344 0.060200
0.063000 0.631825 0.060200
0.093281 0.631825 0.060200
0.123562 0.631825 0.060200
0.153844 0.631825 0.060200
0.184125 0.631825 0.060200
0.214406 0.631825 0.060200
0.244688 0.631825 0.060200
0.274969 0.631825 0.060200
0.305250 0.631825 0.060200
0.335531 0.631825 0.060200
0.365812 0.631825 0.060200
0.396094 0.631825 0.060200
0.426375 0.631825 0.060200
0.456656 0.631825 0.060200
0.486937 0.631825 0.060200
0.517219 0.631825 0.060200
0.547500 0.631825 0.060200
0.577781 0.631825 0.060200
0.608063 0.631825 0.060200
0.638344 0.631825 0.060200
0.668625 0.631825 0.060200
0.698906 0.631825 0.060200
0.729187 0.631825 0.060200
0.759469 0.631825 0.060200
0.789750 0.631825 0.060200
0.820031 0.631825 0.060200
0.850313 0.631825 0.060200
0.880594 0.631825 0.060200
0.910875 0.631825 0.060200
0.941156 0.631825 0.060200
0.971437 0.631825 0.060200
1.000000 0.631825 0.060200
1.000000 0.631825 0.060200
0.063000 0.660306 0.060200
0.093281 0.660306 0.060200
0.123562 0.660306 0.060200
0.153844 0.660306 0.060200
0.184125 0.660306 0.060200
0.214406 0.660306 0.060200
0.244688 0.660306 0.060200
0.274969 0.660306 0.060200
0.305250 0.660306 0.060200
0.335531 0.660306 0.060200
0.365812 0.660306 0.060200
0.396094 0.660306 0.060200
0.426375 0.660306 0.060200
0.456656 0.660306 0.060200
0.486937 0.660306 0.060200
0.517219 0.660306 0.060200
0.547500 0.660306 0.060200
0.577781 0.660306 0.060200
0.608063 0.660306 0.060200
0.638344 0.660306 0.060200
0.668625 0.660306 0.060200
0.698906 0.660306 0.060200
0.729187 0.660306 0.060200
0.759469 0.660306 0.060200
0.789750 0.660306 0.060200
0.820031 0.660306 0.060200
0.850313 0.660306 0.060200
0.880594 0.660306 0.060200
0.910875 0.660306 0.060200
0.941156 0.660306 0.060200
0.971437 0.660306 0.060200
1.000000 0.660306 0.060200
1.000000 0.660306 0.060200
0.063000 0.688788 0.060200
0.093281 0.688788 0.060200
0.123562 0.688788 0.060200
0.153844 0.688788 0.060200
0.184125 0.688788 0.060200
0.214406 0.688788 0.060200
0.244688 0.688788 0.060200
0.274969 0.688788 0.060200
0.305250 0.688788 0.060200
0.335531 0.688788 0.060200
0.365812 0.688788 0.060200
0.396094 0.688788 0.060200
0.426375 0.688788 0.060200
0.456656 0.688788 0.060200
0.486937 0.688788 0.060200
0.517219 0.688788 0.060200
0.547500 0.688788 0.060200
0.577781 0.688788 0.060200
0.608063 0.688788 0.060200
0.638344 0.688788 0.060200
0.668625 0.688788 0.060200
0.698906 0.688788 0.060200
0.729187 0.688788 0.060200
0.759469 0.688788 0.060200
0.789750 0.688788 0.060200
0.820031 0.688788 0.060200
0.850313 0.688788 0.060200
0.880594 0.688788 0.060200
0.910875 0.688788 0.060200
0.941156 0.688788 0.060200
0.971437 0.688788 0.060200
1.000000 0.688788 0.060200
1.000000 0.688788 0.060200
0.063000 0.717269 0.060200
0.093281 0.717269 0.060200
0.123562 0.717269 0.060200
0.153844 0.717269 0.060200
0.184125 0.717269 0.060200
0.214406 0.717269 0.060200
0.244688 0.717269 0.060200
0.274969 0.717269 0.060200
0.305250 0.717269 0.060200
0.335531 0.717269 0.060200
0.365812 0.717269 0.060200
0.396094 0.717269 0.060200
0.426375 0.717269 0.060200
0.456656 0.717269 0.060200
0.486937 0.717269 0.060200
0.517219 0.717269 0.060200
0.547500 0.717269 0.060200
0.577781 0.717269 0.060200
0.608063 0.717269 0.060200
0.638344 0.717269 0.060200
0.668625 0.717269 0.060200
0.698906 0.717269 0.060200
0.729187 0.717269 0.060200
0.759469 0.717269 0.060200
0.789750 0.717269 0.060200
0.820031 0.717269 0.060200
0.850313 0.717269 0.060200
0.880594 0.717269 0.060200
0.910875 0.717269 0.060200
0.941156 0.717269 0.060200
0.971437 0.717269 0.060200
1.000000 0.717269 0.060200
1.000000 0.717269 0.060200
0.063000 0.745750 0.060200
0.093281 0.745750 0.060200
0.123562 0.745750 0.060200
0.153844 0.745750 0.060200
0.184125 0.745750 0.060200
0.214406 0.745750 0.060200
0.244688 0.745750 0.060200
0.274969 0.745750 0.060200
0.305250 0.745750 0.060200
0.335531 0.745750 0.060200
0.365812 0.745750 0.060200
0.396094 0.745750 0.060200
0.426375 0.745750 0.060200
0.456656 0.745750 0.060200
0.486937 0.745750 0.060200
0.517219 0.745750 0.060200
0.547500 0.745750 0.060200
0.577781 0.745750 0.060200
0.608063 0.745750 0.060200
0.638344 0.745750 0.060200
0.668625 0.745750 0.060200
0.698906 0.745750 0.060200
0.729187 0.745750 0.060200
0.759469 0.745750 0.060200
0.789750 0.745750 0.060200
0.820031 0.745750 0.060200
0.850313 0.745750 0.060200
0.880594 0.745750 0.060200
0.910875 0.745750 0.060200
0.941156 0.745750 0.060200
0.971437 0.745750 0.060200
1.000000 0.745750 0.060200
1.000000 0.745750 0.060200
0.063000 0.774231 0.060200
0.093281 0.774231 0.060200
0.123562 0.774231 0.060200
0.153844 0.774231 0.060200
0.184125 0.774231 0.060200
0.214406 0.774231 0.060200
0.244688 0.774231 0.060200
0.274969 0.774231 0.060200
0.305250 0.774231 0.060200
0.335531 0.774231 0.060200
0.365812 0.774231 0.060200
0.396094 0.774231 0.060200
0.426375 0.774231 0.060200
0.456656 0.774231 0.060200
0.486937 0.774231 0.060200
0.517219 0.774231 0.060200
0.547500 0.774231 0.060200
0.577781 0.774231 0.060200
0.608063 0.774231 0.060200
0.638344 0.774231 0.060200
0.668625 0.774231 0.060200
0.698906 0.774231 0.060200
0.729187 0.774231 0.060200
0.759469 0.774231 0.060200
0.789750 0.774231 0.060200
0.820031 0.774231 0.060200
0.850313 0.774231 0.060200
0.880594 0.774231 0.060200
0.910875 0.774231 0.060200
0.941156 0.774231 0.060200
0.971437 0.774231 0.060200
1.000000 0.774231 0.060200
1.000000 0.774231 0.060200
0.063000 0.802713 0.060200
0.093281 0.802713 0.060200
0.123562 0.802713 0.060200
0.153844 0.802713 0.060200
0.184125 0.802713 0.060200
0.214406 0.802713 0.060200
0.244688 0.802713 0.060200
0.274969 0.802713 0.060200
0.305250 0.802713 0.060200
0.335531 0.802713 0.060200
0.365812 0.802713 0.060200
0.396094 0.802713 0.060200
0.426375 0.802713 0.060200
0.456656 0.802713 0.060200
0.486937 0.802713 0.060200
0.517219 0.802713 0.060200
0.547500 0.802713 0.060200
0.577781 0.802713 0.060200
0.608063 0.802713 0.060200
0.638344 0.802713 0.060200
0.668625 0.802713 0.060200
0.698906 0.802713 0.060200
0.729187 0.802713 0.060200
0.759469 0.802713 0.060200
0.789750 0.802713 0.060200
0.820031 0.802713 0.060200
0.850313 0.802713 0.060200
0.880594 0.802713 0.060200
0.910875 0.802713 0.060200
