public/luts/warm.cube
TITLE "Warm"
LUT_3D_SIZE 5
0.020000 0.000000 0.000000
0.290000 0.000000 0.000000
0.560000 0.000000 0.000000
0.830000 0.000000 0.000000
1.000000 0.000000 0.000000
0.020000 0.255000 0.000000
0.290000 0.255000 0.000000
0.560000 0.255000 0.000000
0.830000 0.255000 0.000000
1.000000 0.255000 0.000000
0.020000 0.510000 0.000000
0.290000 0.510000 0.000000
0.560000 0.510000 0.000000
0.830000 0.510000 0.000000
1.000000 0.510000 0.000000
0.020000 0.765000 0.000000
0.290000 0.765000 0.000000
0.560000 0.765000 0.000000
0.830000 0.765000 0.000000
1.000000 0.765000 0.000000
0.020000 1.020000 0.000000
0.290000 1.020000 0.000000
0.560000 1.020000 0.000000
0.830000 1.020000 0.000000
1.000000 1.020000 0.000000
0.020000 0.000000 0.225000
0.290000 0.000000 0.225000
0.560000 0.000000 0.225000
0.830000 0.000000 0.225000
1.000000 0.000000 0.225000
0.020000 0.255000 0.225000
0.290000 0.255000 0.225000
0.560000 0.255000 0.225000
0.830000 0.255000 0.225000
1.000000 0.255000 0.225000
0.020000 0.510000 0.225000
0.290000 0.510000 0.225000
0.560000 0.510000 0.225000
0.830000 0.510000 0.225000
1.000000 0.510000 0.225000
0.020000 0.765000 0.225000
0.290000 0.765000 0.225000
0.560000 0.765000 0.225000
0.830000 0.765000 0.225000
1.000000 0.765000 0.225000
0.020000 1.020000 0.225000
0.290000 1.020000 0.225000
0.560000 1.020000 0.225000
0.830000 1.020000 0.225000
1.000000 1.020000 0.225000
0.020000 0.000000 0.450000
0.290000 0.000000 0.450000
0.560000 0.000000 0.450000
0.830000 0.000000 0.450000
1.000000 0.000000 0.450000
0.020000 0.255000 0.450000
0.290000 0.255000 0.450000
0.560000 0.255000 0.450000
0.830000 0.255000 0.450000
1.000000 0.255000 0.450000
0.020000 0.510000 0.450000
0.290000 0.510000 0.450000
0.560000 0.510000 0.450000
0.830000 0.510000 0.450000
1.000000 0.510000 0.450000
0.020000 0.765000 0.450000
0.290000 0.765000 0.450000
0.560000 0.765000 0.450000
0.830000 0.765000 0.450000
1.000000 0.765000 0.450000
0.020000 1.020000 0.450000
0.290000 1.020000 0.450000
0.560000 1.020000 0.450000
0.830000 1.020000 0.450000
1.000000 1.020000 0.450000
0.020000 0.000000 0.675000
0.290000 0.000000 0.675000
0.560000 0.000000 0.675000
0.830000 0.000000 0.675000
1.000000 0.000000 0.675000
0.020000 0.255000 0.675000
0.290000 0.255000 0.675000
0.560000 0.255000 0.675000
0.830000 0.255000 0.675000
1.000000 0.255000 0.675000
0.020000 0.510000 0.675000
0.290000 0.510000 0.675000
0.560000 0.510000 0.675000
0.830000 0.510000 0.675000
1.000000 0.510000 0.675000
0.020000 0.765000 0.675000
0.290000 0.765000 0.675000
0.560000 0.765000 0.675000
0.830000 0.765000 0.675000
1.000000 0.765000 0.675000
0.020000 1.020000 0.675000
0.290000 1.020000 0.675000
0.560000 1.020000 0.675000
0.830000 1.020000 0.675000
1.000000 1.020000 0.675000
0.020000 0.000000 0.900000
0.290000 0.000000 0.900000
0.560000 0.000000 0.900000
0.830000 0.000000 0.900000
1.000000 0.000000 0.900000
0.020000 0.255000 0.900000
0.290000 0.255000 0.900000
0.560000 0.255000 0.900000
0.830000 0.255000 0.900000
1.000000 0.255000 0.900000
0.020000 0.510000 0.900000
0.290000 0.510000 0.900000
0.560000 0.510000 0.900000
0.830000 0.510000 0.900000
1.000000 0.510000 0.900000
0.020000 0.765000 0.900000
0.290000 0.765000 0.900000
0.560000 0.765000 0.900000
0.830000 0.765000 0.900000
1.000000 0.765000 0.900000
0.020000 1.020000 0.900000
0.290000 1.020000 0.900000
0.560000 1.020000 0.900000
0.830000 1.020000 0.900000
1.000000 1.020000 0.900000
