public/luts/warm.cube
TITLE "Warm"
LUT_3D_SIZE 17
0.020000 0.000000 0.000000
0.087500 0.000000 0.000000
0.155000 0.000000 0.000000
0.222500 0.000000 0.000000
0.290000 0.000000 0.000000
0.357500 0.000000 0.000000
0.425000 0.000000 0.000000
0.492500 0.000000 0.000000
0.560000 0.000000 0.000000
0.627500 0.000000 0.000000
0.695000 0.000000 0.000000
0.762500 0.000000 0.000000
0.830000 0.000000 0.000000
0.897500 0.000000 0.000000
0.965000 0.000000 0.000000
1.000000 0.000000 0.000000
1.000000 0.000000 0.000000
0.020000 0.063750 0.000000
0.087500 0.063750 0.000000
0.155000 0.063750 0.000000
0.222500 0.063750 0.000000
0.290000 0.063750 0.000000
0.357500 0.063750 0.000000
0.425000 0.063750 0.000000
0.492500 0.063750 0.000000
0.560000 0.063750 0.000000
0.627500 0.063750 0.000000
0.695000 0.063750 0.000000
0.762500 0.063750 0.000000
0.830000 0.063750 0.000000
0.897500 0.063750 0.000000
0.965000 0.063750 0.000000
1.000000 0.063750 0.000000
1.000000 0.063750 0.000000
0.020000 0.127500 0.000000
0.087500 0.127500 0.000000
0.155000 0.127500 0.000000
0.222500 0.127500 0.000000
0.290000 0.127500 0.000000
0.357500 0.127500 0.000000
0.425000 0.127500 0.000000
0.492500 0.127500 0.000000
0.560000 0.127500 0.000000
0.627500 0.127500 0.000000
0.695000 0.127500 0.000000
0.762500 0.127500 0.000000
0.830000 0.127500 0.000000
0.897500 0.127500 0.000000
0.965000 0.127500 0.000000
1.000000 0.127500 0.000000
1.000000 0.127500 0.000000
0.020000 0.191250 0.000000
0.087500 0.191250 0.000000
0.155000 0.191250 0.000000
0.222500 0.191250 0.000000
0.290000 0.191250 0.000000
0.357500 0.191250 0.000000
0.425000 0.191250 0.000000
0.492500 0.191250 0.000000
0.560000 0.191250 0.000000
0.627500 0.191250 0.000000
0.695000 0.191250 0.000000
0.762500 0.191250 0.000000
0.830000 0.191250 0.000000
0.897500 0.191250 0.000000
0.965000 0.191250 0.000000
1.000000 0.191250 0.000000
1.000000 0.191250 0.000000
0.020000 0.255000 0.000000
0.087500 0.255000 0.000000
0.155000 0.255000 0.000000
0.222500 0.255000 0.000000
0.290000 0.255000 0.000000
0.357500 0.255000 0.000000
0.425000 0.255000 0.000000
0.492500 0.255000 0.000000
0.560000 0.255000 0.000000
0.627500 0.255000 0.000000
0.695000 0.255000 0.000000
0.762500 0.255000 0.000000
0.830000 0.255000 0.000000
0.897500 0.255000 0.000000
0.965000 0.255000 0.000000
1.000000 0.255000 0.000000
1.000000 0.255000 0.000000
0.020000 0.318750 0.000000
0.087500 0.318750 0.000000
0.155000 0.318750 0.000000
0.222500 0.318750 0.000000
0.290000 0.318750 0.000000
0.357500 0.318750 0.000000
0.425000 0.318750 0.000000
0.492500 0.318750 0.000000
0.560000 0.318750 0.000000
0.627500 0.318750 0.000000
0.695000 0.318750 0.000000
0.762500 0.318750 0.000000
0.830000 0.318750 0.000000
0.897500 0.318750 0.000000
0.965000 0.318750 0.000000
1.000000 0.318750 0.000000
1.000000 0.318750 0.000000
0.020000 0.382500 0.000000
0.087500 0.382500 0.000000
0.155000 0.382500 0.000000
0.222500 0.382500 0.000000
0.290000 0.382500 0.000000
0.357500 0.382500 0.000000
0.425000 0.382500 0.000000
0.492500 0.382500 0.000000
0.560000 0.382500 0.000000
0.627500 0.382500 0.000000
0.695000 0.382500 0.000000
0.762500 0.382500 0.000000
0.830000 0.382500 0.000000
0.897500 0.382500 0.000000
0.965000 0.382500 0.000000
1.000000 0.382500 0.000000
1.000000 0.382500 0.000000
0.020000 0.446250 0.000000
0.087500 0.446250 0.000000
0.155000 0.446250 0.000000
0.222500 0.446250 0.000000
0.290000 0.446250 0.000000
0.357500 0.446250 0.000000
0.425000 0.446250 0.000000
0.492500 0.446250 0.000000
0.560000 0.446250 0.000000
0.627500 0.446250 0.000000
0.695000 0.446250 0.000000
0.762500 0.446250 0.000000
0.830000 0.446250 0.000000
0.897500 0.446250 0.000000
0.965000 0.446250 0.000000
1.000000 0.446250 0.000000
1.000000 0.446250 0.000000
0.020000 0.510000 0.000000
0.087500 0.510000 0.000000
0.155000 0.510000 0.000000
0.222500 0.510000 0.000000
0.290000 0.510000 0.000000
0.357500 0.510000 0.000000
0.425000 0.510000 0.000000
0.492500 0.510000 0.000000
0.560000 0.510000 0.000000
0.627500 0.510000 0.000000
0.695000 0.510000 0.000000
0.762500 0.510000 0.000000
0.830000 0.510000 0.000000
0.897500 0.510000 0.000000
0.965000 0.510000 0.000000
1.000000 0.510000 0.000000
1.000000 0.510000 0.000000
0.020000 0.573750 0.000000
0.087500 0.573750 0.000000
0.155000 0.573750 0.000000
0.222500 0.573750 0.000000
0.290000 0.573750 0.000000
0.357500 0.573750 0.000000
0.425000 0.573750 0.000000
0.492500 0.573750 0.000000
0.560000 0.573750 0.000000
0.627500 0.573750 0.000000
0.695000 0.573750 0.000000
0.762500 0.573750 0.000000
0.830000 0.573750 0.000000
0.897500 0.573750 0.000000
0.965000 0.573750 0.000000
1.000000 0.573750 0.000000
1.000000 0.573750 0.000000
0.020000 0.637500 0.000000
0.087500 0.637500 0.000000
0.155000 0.637500 0.000000
0.222500 0.637500 0.000000
0.290000 0.637500 0.000000
0.357500 0.637500 0.000000
0.425000 0.637500 0.000000
0.492500 0.637500 0.000000
0.560000 0.637500 0.000000
0.627500 0.637500 0.000000
0.695000 0.637500 0.000000
0.762500 0.637500 0.000000
0.830000 0.637500 0.000000
0.897500 0.637500 0.000000
0.965000 0.637500 0.000000
1.000000 0.637500 0.000000
1.000000 0.637500 0.000000
0.020000 0.701250 0.000000
0.087500 0.701250 0.000000
0.155000 0.701250 0.000000
0.222500 0.701250 0.000000
0.290000 0.701250 0.000000
0.357500 0.701250 0.000000
0.425000 0.701250 0.000000
0.492500 0.701250 0.000000
0.560000 0.701250 0.000000
0.627500 0.701250 0.000000
0.695000 0.701250 0.000000
0.762500 0.701250 0.000000
0.830000 0.701250 0.000000
0.897500 0.701250 0.000000
0.965000 0.701250 0.000000
1.000000 0.701250 0.000000
1.000000 0.701250 0.000000
0.020000 0.765000 0.000000
0.087500 0.765000 0.000000
0.155000 0.765000 0.000000
0.222500 0.765000 0.000000
0.290000 0.765000 0.000000
0.357500 0.765000 0.000000
0.425000 0.765000 0.000000
0.492500 0.765000 0.000000
0.560000 0.765000 0.000000
0.627500 0.765000 0.000000
0.695000 0.765000 0.000000
0.762500 0.765000 0.000000
0.830000 0.765000 0.000000
0.897500 0.765000 0.000000
0.965000 0.765000 0.000000
1.000000 0.765000 0.000000
1.000000 0.765000 0.000000
0.020000 0.828750 0.000000
0.087500 0.828750 0.000000
0.155000 0.828750 0.000000
0.222500 0.828750 0.000000
0.290000 0.828750 0.000000
0.357500 0.828750 0.000000
0.425000 0.828750 0.000000
0.492500 0.828750 0.000000
0.560000 0.828750 0.000000
0.627500 0.828750 0.000000
0.695000 0.828750 0.000000
0.762500 0.828750 0.000000
0.830000 0.828750 0.000000
0.897500 0.828750 0.000000
0.965000 0.828750 0.000000
1.000000 0.828750 0.000000
1.000000 0.828750 0.000000
0.020000 0.892500 0.000000
0.087500 0.892500 0.000000
0.155000 0.892500 0.000000
0.222500 0.892500 0.000000
0.290000 0.892500 0.000000
0.357500 0.892500 0.000000
0.425000 0.892500 0.000000
0.492500 0.892500 0.000000
0.560000 0.892500 0.000000
0.627500 0.892500 0.000000
0.695000 0.892500 0.000000
0.762500 0.892500 0.000000
0.830000 0.892500 0.000000
0.897500 0.892500 0.000000
0.965000 0.892500 0.000000
1.000000 0.892500 0.000000
1.000000 0.892500 0.000000
0.020000 0.956250 0.000000
0.087500 0.956250 0.000000
0.155000 0.956250 0.000000
0.222500 0.956250 0.000000
0.290000 0.956250 0.000000
0.357500 0.956250 0.000000
0.425000 0.956250 0.000000
0.492500 0.956250 0.000000
0.560000 0.956250 0.000000
0.627500 0.956250 0.000000
0.695000 0.956250 0.000000
0.762500 0.956250 0.000000
0.830000 0.956250 0.000000
0.897500 0.956250 0.000000
0.965000 0.956250 0.000000
1.000000 0.956250 0.000000
1.000000 0.956250 0.000000
0.020000 1.020000 0.000000
0.087500 1.020000 0.000000
0.155000 1.020000 0.000000
0.222500 1.020000 0.000000
0.290000 1.020000 0.000000
0.357500 1.020000 0.000000
0.425000 1.020000 0.000000
0.492500 1.020000 0.000000
0.560000 1.020000 0.000000
0.627500 1.020000 0.000000
0.695000 1.020000 0.000000
0.762500 1.020000 0.000000
0.830000 1.020000 0.000000
0.897500 1.020000 0.000000
0.965000 1.020000 0.000000
1.000000 1.020000 0.000000
1.000000 1.020000 0.000000
0.020000 0.000000 0.056250
0.087500 0.000000 0.056250
0.155000 0.000000 0.056250
0.222500 0.000000 0.056250
0.290000 0.000000 0.056250
0.357500 0.000000 0.056250
0.425000 0.000000 0.056250
0.492500 0.000000 0.056250
0.560000 0.000000 0.056250
0.627500 0.000000 0.056250
0.695000 0.000000 0.056250
0.762500 0.000000 0.056250
0.830000 0.000000 0.056250
0.897500 0.000000 0.056250
0.965000 0.000000 0.056250
1.000000 0.000000 0.056250
1.000000 0.000000 0.056250
0.020000 0.063750 0.056250
0.087500 0.063750 0.056250
0.155000 0.063750 0.056250
0.222500 0.063750 0.056250
0.290000 0.063750 0.056250
0.357500 0.063750 0.056250
0.425000 0.063750 0.056250
0.492500 0.063750 0.056250
0.560000 0.063750 0.056250
0.627500 0.063750 0.056250
0.695000 0.063750 0.056250
0.762500 0.063750 0.056250
0.830000 0.063750 0.056250
0.897500 0.063750 0.056250
0.965000 0.063750 0.056250
1.000000 0.063750 0.056250
1.000000 0.063750 0.056250
0.020000 0.127500 0.056250
0.087500 0.127500 0.056250
0.155000 0.127500 0.056250
0.222500 0.127500 0.056250
0.290000 0.127500 0.056250
0.357500 0.127500 0.056250
0.425000 0.127500 0.056250
0.492500 0.127500 0.056250
0.560000 0.127500 0.056250
0.627500 0.127500 0.056250
0.695000 0.127500 0.056250
0.762500 0.127500 0.056250
0.830000 0.127500 0.056250
0.897500 0.127500 0.056250
0.965000 0.127500 0.056250
1.000000 0.127500 0.056250
1.000000 0.127500 0.056250
0.020000 0.191250 0.056250
0.087500 0.191250 0.056250
0.155000 0.191250 0.056250
0.222500 0.191250 0.056250
0.290000 0.191250 0.056250
0.357500 0.191250 0.056250
0.425000 0.191250 0.056250
0.492500 0.191250 0.056250
0.560000 0.191250 0.056250
0.627500 0.191250 0.056250
0.695000 0.191250 0.056250
0.762500 0.191250 0.056250
0.830000 0.191250 0.056250
0.897500 0.191250 0.056250
0.965000 0.191250 0.056250
1.000000 0.191250 0.056250
1.000000 0.191250 0.056250
0.020000 0.255000 0.056250
0.087500 0.255000 0.056250
0.155000 0.255000 0.056250
0.222500 0.255000 0.056250
0.290000 0.255000 0.056250
0.357500 0.255000 0.056250
0.425000 0.255000 0.056250
0.492500 0.255000 0.056250
0.560000 0.255000 0.056250
0.627500 0.255000 0.056250
0.695000 0.255000 0.056250
0.762500 0.255000 0.056250
0.830000 0.255000 0.056250
0.897500 0.255000 0.056250
0.965000 0.255000 0.056250
1.000000 0.255000 0.056250
1.000000 0.255000 0.056250
0.020000 0.318750 0.056250
0.087500 0.318750 0.056250
0.155000 0.318750 0.056250
0.222500 0.318750 0.056250
0.290000 0.318750 0.056250
0.357500 0.318750 0.056250
0.425000 0.318750 0.056250
0.492500 0.318750 0.056250
0.560000 0.318750 0.056250
0.627500 0.318750 0.056250
0.695000 0.318750 0.056250
0.762500 0.318750 0.056250
0.830000 0.318750 0.056250
0.897500 0.318750 0.056250
0.965000 0.318750 0.056250
1.000000 0.318750 0.056250
1.000000 0.318750 0.056250
0.020000 0.382500 0.056250
0.087500 0.382500 0.056250
0.155000 0.382500 0.056250
0.222500 0.382500 0.056250
0.290000 0.382500 0.056250
0.357500 0.382500 0.056250
0.425000 0.382500 0.056250
0.492500 0.382500 0.056250
0.560000 0.382500 0.056250
0.627500 0.382500 0.056250
0.695000 0.382500 0.056250
0.762500 0.382500 0.056250
0.830000 0.382500 0.056250
0.897500 0.382500 0.056250
0.965000 0.382500 0.056250
1.000000 0.382500 0.056250
1.000000 0.382500 0.056250
0.020000 0.446250 0.056250
0.087500 0.446250 0.056250
0.155000 0.446250 0.056250
0.222500 0.446250 0.056250
0.290000 0.446250 0.056250
0.357500 0.446250 0.056250
0.425000 0.446250 0.056250
0.492500 0.446250 0.056250
0.560000 0.446250 0.056250
0.627500 0.446250 0.056250
0.695000 0.446250 0.056250
0.762500 0.446250 0.056250
0.830000 0.446250 0.056250
0.897500 0.446250 0.056250
0.965000 0.446250 0.056250
1.000000 0.446250 0.056250
1.000000 0.446250 0.056250
0.020000 0.510000 0.056250
0.087500 0.510000 0.056250
0.155000 0.510000 0.056250
0.222500 0.510000 0.056250
0.290000 0.510000 0.056250
0.357500 0.510000 0.056250
0.425000 0.510000 0.056250
0.492500 0.510000 0.056250
0.560000 0.510000 0.056250
0.627500 0.510000 0.056250
0.695000 0.510000 0.056250
0.762500 0.510000 0.056250
0.830000 0.510000 0.056250
0.897500 0.510000 0.056250
0.965000 0.510000 0.056250
1.000000 0.510000 0.056250
1.000000 0.510000 0.056250
0.020000 0.573750 0.056250
0.087500 0.573750 0.056250
0.155000 0.573750 0.056250
0.222500 0.573750 0.056250
0.290000 0.573750 0.056250
0.357500 0.573750 0.056250
0.425000 0.573750 0.056250
0.492500 0.573750 0.056250
0.560000 0.573750 0.056250
0.627500 0.573750 0.056250
0.695000 0.573750 0.056250
0.762500 0.573750 0.056250
0.830000 0.573750 0.056250
0.897500 0.573750 0.056250
0.965000 0.573750 0.056250
1.000000 0.573750 0.056250
1.000000 0.573750 0.056250
0.020000 0.637500 0.056250
0.087500 0.637500 0.056250
0.155000 0.637500 0.056250
0.222500 0.637500 0.056250
0.290000 0.637500 0.056250
0.357500 0.637500 0.056250
0.425000 0.637500 0.056250
0.492500 0.637500 0.056250
0.560000 0.637500 0.056250
0.627500 0.637500 0.056250
0.695000 0.637500 0.056250
0.762500 0.637500 0.056250
0.830000 0.637500 0.056250
0.897500 0.637500 0.056250
0.965000 0.637500 0.056250
1.000000 0.637500 0.056250
1.000000 0.637500 0.056250
0.020000 0.701250 0.056250
0.087500 0.701250 0.056250
0.155000 0.701250 0.056250
0.222500 0.701250 0.056250
0.290000 0.701250 0.056250
0.357500 0.701250 0.056250
0.425000 0.701250 0.056250
0.492500 0.701250 0.056250
0.560000 0.701250 0.056250
0.627500 0.701250 0.056250
0.695000 0.701250 0.056250
0.762500 0.701250 0.056250
0.830000 0.701250 0.056250
0.897500 0.701250 0.056250
0.965000 0.701250 0.056250
1.000000 0.701250 0.056250
1.000000 0.701250 0.056250
0.020000 0.765000 0.056250
0.087500 0.765000 0.056250
0.155000 0.765000 0.056250
0.222500 0.765000 0.056250
0.290000 0.765000 0.056250
0.357500 0.765000 0.056250
0.425000 0.765000 0.056250
0.492500 0.765000 0.056250
0.560000 0.765000 0.056250
0.627500 0.765000 0.056250
0.695000 0.765000 0.056250
0.762500 0.765000 0.056250
0.830000 0.765000 0.056250
0.897500 0.765000 0.056250
0.965000 0.765000 0.056250
1.000000 0.765000 0.056250
1.000000 0.765000 0.056250
0.020000 0.828750 0.056250
0.087500 0.828750 0.056250
0.155000 0.828750 0.056250
0.222500 0.828750 0.056250
0.290000 0.828750 0.056250
0.357500 0.828750 0.056250
0.425000 0.828750 0.056250
0.492500 0.828750 0.056250
0.560000 0.828750 0.056250
0.627500 0.828750 0.056250
0.695000 0.828750 0.056250
0.762500 0.828750 0.056250
0.830000 0.828750 0.056250
0.897500 0.828750 0.056250
0.965000 0.828750 0.056250
1.000000 0.828750 0.056250
1.000000 0.828750 0.056250
0.020000 0.892500 0.056250
0.087500 0.892500 0.056250
0.155000 0.892500 0.056250
0.222500 0.892500 0.056250
0.290000 0.892500 0.056250
0.357500 0.892500 0.056250
0.425000 0.892500 0.056250
0.492500 0.892500 0.056250
0.560000 0.892500 0.056250
0.627500 0.892500 0.056250
0.695000 0.892500 0.056250
0.762500 0.892500 0.056250
0.830000 0.892500 0.056250
0.897500 0.892500 0.056250
0.965000 0.892500 0.056250
1.000000 0.892500 0.056250
1.000000 0.892500 0.056250
0.020000 0.956250 0.056250
0.087500 0.956250 0.056250
0.155000 0.956250 0.056250
0.222500 0.956250 0.056250
0.290000 0.956250 0.056250
0.357500 0.956250 0.056250
0.425000 0.956250 0.056250
0.492500 0.956250 0.056250
0.560000 0.956250 0.056250
0.627500 0.956250 0.056250
0.695000 0.956250 0.056250
0.762500 0.956250 0.056250
0.830000 0.956250 0.056250
0.897500 0.956250 0.056250
0.965000 0.956250 0.056250
1.000000 0.956250 0.056250
1.000000 0.956250 0.056250
0.020000 1.020000 0.056250
0.087500 1.020000 0.056250
0.155000 1.020000 0.056250
0.222500 1.020000 0.056250
0.290000 1.020000 0.056250
0.357500 1.020000 0.056250
0.425000 1.020000 0.056250
0.492500 1.020000 0.056250
0.560000 1.020000 0.056250
0.627500 1.020000 0.056250
0.695000 1.020000 0.056250
0.762500 1.020000 0.056250
0.830000 1.020000 0.056250
0.897500 1.020000 0.056250
0.965000 1.020000 0.056250
1.000000 1.020000 0.056250
1.000000 1.020000 0.056250
0.020000 0.000000 0.112500
0.087500 0.000000 0.112500
0.155000 0.000000 0.112500
0.222500 0.000000 0.112500
0.290000 0.000000 0.112500
0.357500 0.000000 0.112500
0.425000 0.000000 0.112500
0.492500 0.000000 0.112500
0.560000 0.000000 0.112500
0.627500 0.000000 0.112500
0.695000 0.000000 0.112500
0.762500 0.000000 0.112500
0.830000 0.000000 0.112500
0.897500 0.000000 0.112500
0.965000 0.000000 0.112500
1.000000 0.000000 0.112500
1.000000 0.000000 0.112500
0.020000 0.063750 0.112500
0.087500 0.063750 0.112500
0.155000 0.063750 0.112500
0.222500 0.063750 0.112500
0.290000 0.063750 0.112500
0.357500 0.063750 0.112500
0.425000 0.063750 0.112500
0.492500 0.063750 0.112500
0.560000 0.063750 0.112500
0.627500 0.063750 0.112500
0.695000 0.063750 0.112500
0.762500 0.063750 0.112500
0.830000 0.063750 0.112500
0.897500 0.063750 0.112500
0.965000 0.063750 0.112500
1.000000 0.063750 0.112500
1.000000 0.063750 0.112500
0.020000 0.127500 0.112500
0.087500 0.127500 0.112500
0.155000 0.127500 0.112500
0.222500 0.127500 0.112500
0.290000 0.127500 0.112500
0.357500 0.127500 0.112500
0.425000 0.127500 0.112500
0.492500 0.127500 0.112500
0.560000 0.127500 0.112500
0.627500 0.127500 0.112500
0.695000 0.127500 0.112500
0.762500 0.127500 0.112500
0.830000 0.127500 0.112500
0.897500 0.127500 0.112500
0.965000 0.127500 0.112500
1.000000 0.127500 0.112500
1.000000 0.127500 0.112500
0.020000 0.191250 0.112500
0.087500 0.191250 0.112500
0.155000 0.191250 0.112500
0.222500 0.191250 0.112500
0.290000 0.191250 0.112500
0.357500 0.191250 0.112500
0.425000 0.191250 0.112500
0.492500 0.191250 0.112500
0.560000 0.191250 0.112500
0.627500 0.191250 0.112500
0.695000 0.191250 0.112500
0.762500 0.191250 0.112500
0.830000 0.191250 0.112500
0.897500 0.191250 0.112500
0.965000 0.191250 0.112500
1.000000 0.191250 0.112500
1.000000 0.191250 0.112500
0.020000 0.255000 0.112500
0.087500 0.255000 0.112500
0.155000 0.255000 0.112500
0.222500 0.255000 0.112500
0.290000 0.255000 0.112500
0.357500 0.255000 0.112500
0.425000 0.255000 0.112500
0.492500 0.255000 0.112500
0.560000 0.255000 0.112500
0.627500 0.255000 0.112500
0.695000 0.255000 0.112500
0.762500 0.255000 0.112500
0.830000 0.255000 0.112500
0.897500 0.255000 0.112500
0.965000 0.255000 0.112500
1.000000 0.255000 0.112500
1.000000 0.255000 0.112500
0.020000 0.318750 0.112500
0.087500 0.318750 0.112500
0.155000 0.318750 0.112500
0.222500 0.318750 0.112500
0.290000 0.318750 0.112500
0.357500 0.318750 0.112500
0.425000 0.318750 0.112500
0.492500 0.318750 0.112500
0.560000 0.318750 0.112500
0.627500 0.318750 0.112500
0.695000 0.318750 0.112500
0.762500 0.318750 0.112500
0.830000 0.318750 0.112500
0.897500 0.318750 0.112500
0.965000 0.318750 0.112500
1.000000 0.318750 0.112500
1.000000 0.318750 0.112500
0.020000 0.382500 0.112500
0.087500 0.382500 0.112500
0.155000 0.382500 0.112500
0.222500 0.382500 0.112500
0.290000 0.382500 0.112500
0.357500 0.382500 0.112500
0.425000 0.382500 0.112500
0.492500 0.382500 0.112500
0.560000 0.382500 0.112500
0.627500 0.382500 0.112500
0.695000 0.382500 0.112500
0.762500 0.382500 0.112500
0.830000 0.382500 0.112500
0.897500 0.382500 0.112500
0.965000 0.382500 0.112500
1.000000 0.382500 0.112500
1.000000 0.382500 0.112500
0.020000 0.446250 0.112500
0.087500 0.446250 0.112500
0.155000 0.446250 0.112500
0.222500 0.446250 0.112500
0.290000 0.446250 0.112500
0.357500 0.446250 0.112500
0.425000 0.446250 0.112500
0.492500 0.446250 0.112500
0.560000 0.446250 0.112500
0.627500 0.446250 0.112500
0.695000 0.446250 0.112500
0.762500 0.446250 0.112500
0.830000 0.446250 0.112500
0.897500 0.446250 0.112500
0.965000 0.446250 0.112500
1.000000 0.446250 0.112500
1.000000 0.446250 0.112500
0.020000 0.510000 0.112500
0.087500 0.510000 0.112500
0.155000 0.510000 0.112500
0.222500 0.510000 0.112500
0.290000 0.510000 0.112500
0.357500 0.510000 0.112500
0.425000 0.510000 0.112500
0.492500 0.510000 0.112500
0.560000 0.510000 0.112500
0.627500 0.510000 0.112500
0.695000 0.510000 0.112500
0.762500 0.510000 0.112500
0.830000 0.510000 0.112500
0.897500 0.510000 0.112500
0.965000 0.510000 0.112500
1.000000 0.510000 0.112500
1.000000 0.510000 0.112500
0.020000 0.573750 0.112500
0.087500 0.573750 0.112500
0.155000 0.573750 0.112500
0.222500 0.573750 0.112500
0.290000 0.573750 0.112500
0.357500 0.573750 0.112500
0.425000 0.573750 0.112500
0.492500 0.573750 0.112500
0.560000 0.573750 0.112500
0.627500 0.573750 0.112500
0.695000 0.573750 0.112500
0.762500 0.573750 0.112500
0.830000 0.573750 0.112500
0.897500 0.573750 0.112500
0.965000 0.573750 0.112500
1.000000 0.573750 0.112500
1.000000 0.573750 0.112500
0.020000 0.637500 0.112500
0.087500 0.637500 0.112500
0.155000 0.637500 0.112500
0.222500 0.637500 0.112500
0.290000 0.637500 0.112500
0.357500 0.637500 0.112500
0.425000 0.637500 0.112500
0.492500 0.637500 0.112500
0.560000 0.637500 0.112500
0.627500 0.637500 0.112500
0.695000 0.637500 0.112500
0.762500 0.637500 0.112500
0.830000 0.637500 0.112500
0.897500 0.637500 0.112500
0.965000 0.637500 0.112500
1.000000 0.637500 0.112500
1.000000 0.637500 0.112500
0.020000 0.701250 0.112500
0.087500 0.701250 0.112500
0.155000 0.701250 0.112500
0.222500 0.701250 0.112500
0.290000 0.701250 0.112500
0.357500 0.701250 0.112500
0.425000 0.701250 0.112500
0.492500 0.701250 0.112500
0.560000 0.701250 0.112500
0.627500 0.701250 0.112500
0.695000 0.701250 0.112500
0.762500 0.701250 0.112500
0.830000 0.701250 0.112500
0.897500 0.701250 0.112500
0.965000 0.701250 0.112500
1.000000 0.701250 0.112500
1.000000 0.701250 0.112500
0.020000 0.765000 0.112500
0.087500 0.765000 0.112500
0.155000 0.765000 0.112500
0.222500 0.765000 0.112500
0.290000 0.765000 0.112500
0.357500 0.765000 0.112500
0.425000 0.765000 0.112500
0.492500 0.765000 0.112500
0.560000 0.765000 0.112500
0.627500 0.765000 0.112500
0.695000 0.765000 0.112500
0.762500 0.765000 0.112500
0.830000 0.765000 0.112500
0.897500 0.765000 0.112500
0.965000 0.765000 0.112500
1.000000 0.765000 0.112500
1.000000 0.765000 0.112500
0.020000 0.828750 0.112500
0.087500 0.828750 0.112500
0.155000 0.828750 0.112500
0.222500 0.828750 0.112500
0.290000 0.828750 0.112500
0.357500 0.828750 0.112500
0.425000 0.828750 0.112500
0.492500 0.828750 0.112500
0.560000 0.828750 0.112500
0.627500 0.828750 0.112500
0.695000 0.828750 0.112500
0.762500 0.828750 0.112500
0.830000 0.828750 0.112500
0.897500 0.828750 0.112500
0.965000 0.828750 0.112500
1.000000 0.828750 0.112500
1.000000 0.828750 0.112500
0.020000 0.892500 0.112500
0.087500 0.892500 0.112500
0.155000 0.892500 0.112500
0.222500 0.892500 0.112500
0.290000 0.892500 0.112500
0.357500 0.892500 0.112500
0.425000 0.892500 0.112500
0.492500 0.892500 0.112500
0.560000 0.892500 0.112500
0.627500 0.892500 0.112500
0.695000 0.892500 0.112500
0.762500 0.892500 0.112500
0.830000 0.892500 0.112500
0.897500 0.892500 0.112500
0.965000 0.892500 0.112500
1.000000 0.892500 0.112500
1.000000 0.892500 0.112500
0.020000 0.956250 0.112500
0.087500 0.956250 0.112500
0.155000 0.956250 0.112500
0.222500 0.956250 0.112500
0.290000 0.956250 0.112500
0.357500 0.956250 0.112500
0.425000 0.956250 0.112500
0.492500 0.956250 0.112500
0.560000 0.956250 0.112500
0.627500 0.956250 0.112500
0.695000 0.956250 0.112500
0.762500 0.956250 0.112500
0.830000 0.956250 0.112500
0.897500 0.956250 0.112500
0.965000 0.956250 0.112500
1.000000 0.956250 0.112500
1.000000 0.956250 0.112500
0.020000 1.020000 0.112500
0.087500 1.020000 0.112500
0.155000 1.020000 0.112500
0.222500 1.020000 0.112500
0.290000 1.020000 0.112500
0.357500 1.020000 0.112500
0.425000 1.020000 0.112500
0.492500 1.020000 0.112500
0.560000 1.020000 0.112500
0.627500 1.020000 0.112500
0.695000 1.020000 0.112500
0.762500 1.020000 0.112500
0.830000 1.020000 0.112500
0.897500 1.020000 0.112500
0.965000 1.020000 0.112500
1.000000 1.020000 0.112500
1.000000 1.020000 0.112500
0.020000 0.000000 0.168750
0.087500 0.000000 0.168750
0.155000 0.000000 0.168750
0.222500 0.000000 0.168750
0.290000 0.000000 0.168750
0.357500 0.000000 0.168750
0.425000 0.000000 0.168750
0.492500 0.000000 0.168750
0.560000 0.000000 0.168750
0.627500 0.000000 0.168750
0.695000 0.000000 0.168750
0.762500 0.000000 0.168750
0.830000 0.000000 0.168750
0.897500 0.000000 0.168750
0.965000 0.000000 0.168750
1.000000 0.000000 0.168750
1.000000 0.000000 0.168750
0.020000 0.063750 0.168750
0.087500 0.063750 0.168750
0.155000 0.063750 0.168750
